( pcb2gcode 1.3.2 )
( Software-independent Gcode )

G94 ( Millimeters per minute feed rate. )
G21 ( Units == Millimeters. )

G90 ( Absolute coordinates. )
S20000 ( RPM spindle speed. )
G64 P0.00600 ( set maximum deviation from commanded toolpath )
F200.00000 ( Feedrate. )

F200.00000 ( Feedrate. )
M3 ( Spindle on clockwise. )
( Piece #1, position [0;0] )

G04 P0 ( dwell for no time -- G64 should not smooth over this point )
G00 Z2.00000 ( retract )

G00 X14.45317 Y2.29160 ( rapid move to begin. )
F100.00000
G01 Z-0.21000
G04 P0 ( dwell for no time -- G64 should not smooth over this point )
F200.00000
G01 X14.45317 Y2.29160
X14.45297 Y17.08377
X14.44301 Y17.16267
X14.42503 Y17.21880
X14.36869 Y17.23686
X14.28980 Y17.24684
X2.29783 Y17.24689
X2.21893 Y17.23694
X2.16280 Y17.21893
X2.14474 Y17.16262
X2.13476 Y17.08377
X2.13471 Y2.29780
X2.14187 Y2.23171
X2.16277 Y2.16282
X2.24301 Y2.13976
X2.29785 Y2.13468
X14.30936 Y2.13524
X14.42447 Y2.16313
X14.44205 Y2.21360
X14.45317 Y2.29160
G04 P0 ( dwell for no time -- G64 should not smooth over this point )
G00 Z2.00000 ( retract )

G00 X18.59609 Y3.34578 ( rapid move to begin. )
F100.00000
G01 Z-0.21000
G04 P0 ( dwell for no time -- G64 should not smooth over this point )
F200.00000
G01 X18.59609 Y3.34578
X18.64938 Y2.82617
X18.81412 Y2.31380
X19.07808 Y1.85663
X19.42388 Y1.47177
X19.86764 Y1.14934
X20.34056 Y0.93938
X20.86733 Y0.82912
X21.38473 Y0.82965
X21.90109 Y0.93938
X22.37396 Y1.14934
X22.80223 Y1.45777
X23.16354 Y1.85663
X23.42750 Y2.31380
X23.58790 Y2.80572
X23.64526 Y3.33034
X23.59225 Y3.85540
X23.42750 Y4.36775
X23.16357 Y4.82492
X22.81775 Y5.20981
X22.37399 Y5.53224
X21.90109 Y5.74219
X21.37427 Y5.85248
X20.84656 Y5.85027
X20.34056 Y5.74219
X19.85834 Y5.52749
X19.42388 Y5.20981
X19.07806 Y4.82495
X18.81412 Y4.36777
X18.65101 Y3.86574
X18.59609 Y3.34578
G04 P0 ( dwell for no time -- G64 should not smooth over this point )
G00 Z2.00000 ( retract )

G00 X22.79121 Y9.36665 ( rapid move to begin. )
F100.00000
G01 Z-0.21000
G04 P0 ( dwell for no time -- G64 should not smooth over this point )
F200.00000
G01 X22.79121 Y9.36665
X22.94406 Y9.39055
X23.13129 Y9.44475
X23.30068 Y9.54112
X23.43324 Y9.65494
X23.56484 Y9.82494
X23.64884 Y10.00081
X23.69260 Y10.16997
X23.70350 Y10.38468
X23.67195 Y10.57698
X23.60241 Y10.75900
X23.50997 Y10.90728
X23.37718 Y11.04993
X23.20073 Y11.17274
X23.03893 Y11.23880
X22.79067 Y11.28501
X20.76964 Y11.28937
X20.58613 Y11.26476
X20.39893 Y11.21480
X20.21095 Y11.11046
X20.07838 Y10.99664
X19.95748 Y10.84378
X19.86982 Y10.66977
X19.81900 Y10.48160
X19.80709 Y10.28712
X19.83457 Y10.09418
X19.90033 Y9.91074
X20.01405 Y9.72829
X20.14978 Y9.58846
X20.31090 Y9.47884
X20.47269 Y9.41277
X20.72080 Y9.36657
X22.79121 Y9.36665
G04 P0 ( dwell for no time -- G64 should not smooth over this point )
G00 Z2.00000 ( retract )

G00 X23.05912 Y9.41996 ( rapid move to begin. )
F100.00000
G01 Z-0.21000
G04 P0 ( dwell for no time -- G64 should not smooth over this point )
F200.00000
G01 X23.05912 Y9.41996
X22.92550 Y9.38679
X22.76873 Y9.36217
X20.74297 Y9.36217
X20.36068 Y9.43820
X20.04905 Y9.64643
X19.84079 Y9.95811
X19.76761 Y10.32577
X19.84074 Y10.69336
X20.04900 Y11.00505
X20.36063 Y11.21328
X20.58613 Y11.26476
X20.74320 Y11.28940
X22.76845 Y11.28940
X23.15100 Y11.21333
X23.39479 Y11.05272
X23.44454 Y11.03786
X23.52712 Y11.05232
X23.59062 Y11.11180
X23.61079 Y11.18671
X23.61079 Y12.00487
X23.59941 Y12.06222
X23.56690 Y12.11089
X23.49938 Y12.14914
X23.42229 Y12.14914
X23.38638 Y12.13436
X23.15120 Y11.97827
X22.92550 Y11.92679
X22.76873 Y11.90217
X20.74297 Y11.90217
X20.66289 Y11.91330
X20.36068 Y11.97820
X20.04905 Y12.18643
X19.84079 Y12.49811
X19.76761 Y12.86577
X19.84074 Y13.23336
X20.04900 Y13.54505
X20.36063 Y13.75328
X20.58613 Y13.80476
X20.74320 Y13.82940
X22.76845 Y13.82940
X23.15100 Y13.75333
X23.39479 Y13.59272
X23.44454 Y13.57786
X23.52712 Y13.59232
X23.59062 Y13.65180
X23.61079 Y13.72681
X23.60985 Y14.55470
X23.58554 Y14.62815
X23.54419 Y14.66953
X23.50891 Y14.68624
X23.43159 Y14.69196
X23.37749 Y14.66956
X23.15105 Y14.51825
X22.92550 Y14.46679
X22.76873 Y14.44217
X20.74297 Y14.44217
X20.49162 Y14.48792
X20.36068 Y14.51820
X20.04905 Y14.72643
X19.84079 Y15.03811
X19.76761 Y15.40577
X19.84074 Y15.77336
X20.04900 Y16.08505
X20.36063 Y16.29328
X20.58613 Y16.34476
X20.74320 Y16.36940
X22.76845 Y16.36940
X23.15100 Y16.29333
X23.37749 Y16.14197
X23.43187 Y16.12099
X23.48983 Y16.12099
X23.55201 Y16.14778
X23.59362 Y16.19754
X23.61079 Y16.26671
X23.61079 Y18.38077
X23.59364 Y18.44986
X23.55204 Y18.49962
X23.51765 Y18.51801
X23.46080 Y18.53076
X1.00082 Y18.53076
X0.93169 Y18.51352
X0.88198 Y18.47196
X0.86359 Y18.43759
X0.85084 Y18.38077
X0.85084 Y1.00080
X0.87563 Y0.91845
X0.93362 Y0.86684
X1.00085 Y0.85081
X19.82116 Y0.85706
X19.89185 Y0.90199
X19.92291 Y0.95886
X19.92690 Y1.02683
X19.90272 Y1.08330
X19.85370 Y1.13021
X19.69246 Y1.19887
X18.98151 Y1.90854
X18.59627 Y2.83636
X18.59533 Y3.84075
X18.97894 Y4.76914
X19.68862 Y5.48009
X20.61643 Y5.86533
X21.62082 Y5.86627
X22.54922 Y5.48265
X23.26017 Y4.77298
X23.32229 Y4.62332
X23.36471 Y4.56607
X23.41907 Y4.53706
X23.47076 Y4.53183
X23.51775 Y4.54362
X23.56923 Y4.57717
X23.59943 Y4.62353
X23.61079 Y4.68085
X23.61079 Y6.76419
X23.59760 Y6.82220
X23.64406 Y6.82979
X23.67647 Y6.85149
X23.69816 Y6.88392
X23.70578 Y6.92220
X23.70385 Y8.66891
X23.68892 Y8.70495
X23.66133 Y8.73253
X23.59890 Y8.74940
X23.61079 Y8.80739
X23.61079 Y9.46487
X23.59811 Y9.52161
X23.57309 Y9.56332
X23.54419 Y9.58953
X23.49336 Y9.61125
X23.41592 Y9.60767
X23.15120 Y9.43827
X23.05912 Y9.41996
G04 P0 ( dwell for no time -- G64 should not smooth over this point )
G00 Z2.00000 ( retract )

G00 X22.79121 Y11.90665 ( rapid move to begin. )
F100.00000
G01 Z-0.21000
G04 P0 ( dwell for no time -- G64 should not smooth over this point )
F200.00000
G01 X22.79121 Y11.90665
X22.94406 Y11.93055
X23.13129 Y11.98475
X23.30068 Y12.08112
X23.43324 Y12.19494
X23.56484 Y12.36494
X23.64884 Y12.54081
X23.69260 Y12.70997
X23.70350 Y12.92468
X23.67195 Y13.11698
X23.60241 Y13.29900
X23.50997 Y13.44728
X23.37718 Y13.58993
X23.20073 Y13.71274
X23.03893 Y13.77880
X22.79067 Y13.82501
X20.76964 Y13.82937
X20.58613 Y13.80476
X20.39893 Y13.75480
X20.21095 Y13.65046
X20.07838 Y13.53664
X19.95748 Y13.38378
X19.86982 Y13.20977
X19.81900 Y13.02160
X19.80709 Y12.82712
X19.83457 Y12.63418
X19.90033 Y12.45074
X20.01405 Y12.26829
X20.14978 Y12.12846
X20.31090 Y12.01884
X20.47269 Y11.95277
X20.72080 Y11.90657
X22.79121 Y11.90665
G04 P0 ( dwell for no time -- G64 should not smooth over this point )
G00 Z2.00000 ( retract )

G00 X22.79121 Y14.44665 ( rapid move to begin. )
F100.00000
G01 Z-0.21000
G04 P0 ( dwell for no time -- G64 should not smooth over this point )
F200.00000
G01 X22.79121 Y14.44665
X22.94406 Y14.47055
X23.13129 Y14.52475
X23.30068 Y14.62112
X23.43324 Y14.73494
X23.56484 Y14.90494
X23.64884 Y15.08081
X23.69260 Y15.24997
X23.70350 Y15.46468
X23.67195 Y15.65698
X23.60241 Y15.83900
X23.50997 Y15.98728
X23.37718 Y16.12993
X23.20073 Y16.25274
X23.03893 Y16.31880
X22.79067 Y16.36501
X20.76964 Y16.36937
X20.58613 Y16.34476
X20.39893 Y16.29480
X20.21095 Y16.19046
X20.07838 Y16.07664
X19.95748 Y15.92378
X19.86982 Y15.74977
X19.81900 Y15.56160
X19.80709 Y15.36712
X19.83457 Y15.17418
X19.90033 Y14.99074
X20.01405 Y14.80829
X20.14978 Y14.66846
X20.31090 Y14.55884
X20.47269 Y14.49277
X20.72080 Y14.44657
X22.79121 Y14.44665
G04 P0 ( dwell for no time -- G64 should not smooth over this point )
G00 Z2.00000 ( retract )

G00 X14.43115 Y17.20168 ( rapid move to begin. )
F100.00000
G01 Z-0.21000
G04 P0 ( dwell for no time -- G64 should not smooth over this point )
F200.00000
G01 X14.43115 Y17.20168
X14.45297 Y17.08377
X14.45333 Y2.29780
X14.44205 Y2.21360
X14.42447 Y2.16313
X14.30936 Y2.13524
X2.29785 Y2.13468
X2.24301 Y2.13976
X2.16277 Y2.16282
X2.14187 Y2.23171
X2.13471 Y2.29780
X2.13476 Y17.08377
X2.14474 Y17.16262
X2.16280 Y17.21893
X2.21893 Y17.23694
X2.29783 Y17.24689
X14.28980 Y17.24684
X14.40773 Y17.22502
X14.42503 Y17.21880
X14.43115 Y17.20168
( Piece #2, position [1;0] )

G04 P0 ( dwell for no time -- G64 should not smooth over this point )
G00 Z2.00000 ( retract )

G00 X38.91477 Y2.29160 ( rapid move to begin. )
F100.00000
G01 Z-0.21000
G04 P0 ( dwell for no time -- G64 should not smooth over this point )
F200.00000
G01 X38.91477 Y2.29160
X38.91457 Y17.08377
X38.90461 Y17.16267
X38.88663 Y17.21880
X38.83029 Y17.23686
X38.75140 Y17.24684
X26.75942 Y17.24689
X26.68053 Y17.23694
X26.62440 Y17.21893
X26.60634 Y17.16262
X26.59636 Y17.08377
X26.59631 Y2.29780
X26.60347 Y2.23171
X26.62437 Y2.16282
X26.70461 Y2.13976
X26.75945 Y2.13468
X38.77096 Y2.13524
X38.88607 Y2.16313
X38.90365 Y2.21360
X38.91477 Y2.29160
G04 P0 ( dwell for no time -- G64 should not smooth over this point )
G00 Z2.00000 ( retract )

G00 X43.05769 Y3.34578 ( rapid move to begin. )
F100.00000
G01 Z-0.21000
G04 P0 ( dwell for no time -- G64 should not smooth over this point )
F200.00000
G01 X43.05769 Y3.34578
X43.11098 Y2.82617
X43.27572 Y2.31380
X43.53968 Y1.85663
X43.88548 Y1.47177
X44.32924 Y1.14934
X44.80216 Y0.93938
X45.32893 Y0.82912
X45.84633 Y0.82965
X46.36269 Y0.93938
X46.83556 Y1.14934
X47.26383 Y1.45777
X47.62514 Y1.85663
X47.88910 Y2.31380
X48.04950 Y2.80572
X48.10685 Y3.33034
X48.05384 Y3.85540
X47.88910 Y4.36775
X47.62517 Y4.82492
X47.27935 Y5.20981
X46.83558 Y5.53224
X46.36269 Y5.74219
X45.83587 Y5.85248
X45.30816 Y5.85027
X44.80216 Y5.74219
X44.31994 Y5.52749
X43.88548 Y5.20981
X43.53966 Y4.82495
X43.27572 Y4.36777
X43.11260 Y3.86574
X43.05769 Y3.34578
G04 P0 ( dwell for no time -- G64 should not smooth over this point )
G00 Z2.00000 ( retract )

G00 X47.25280 Y9.36665 ( rapid move to begin. )
F100.00000
G01 Z-0.21000
G04 P0 ( dwell for no time -- G64 should not smooth over this point )
F200.00000
G01 X47.25280 Y9.36665
X47.40566 Y9.39055
X47.59289 Y9.44475
X47.76228 Y9.54112
X47.89484 Y9.65494
X48.02644 Y9.82494
X48.11044 Y10.00081
X48.15420 Y10.16997
X48.16510 Y10.38468
X48.13355 Y10.57698
X48.06400 Y10.75900
X47.97157 Y10.90728
X47.83878 Y11.04993
X47.66233 Y11.17274
X47.50053 Y11.23880
X47.25227 Y11.28501
X45.23124 Y11.28937
X45.04773 Y11.26476
X44.86053 Y11.21480
X44.67255 Y11.11046
X44.53998 Y10.99664
X44.41908 Y10.84378
X44.33142 Y10.66977
X44.28060 Y10.48160
X44.26869 Y10.28712
X44.29617 Y10.09418
X44.36193 Y9.91074
X44.47565 Y9.72829
X44.61138 Y9.58846
X44.77249 Y9.47884
X44.93429 Y9.41277
X45.18240 Y9.36657
X47.25280 Y9.36665
G04 P0 ( dwell for no time -- G64 should not smooth over this point )
G00 Z2.00000 ( retract )

G00 X47.52072 Y9.41996 ( rapid move to begin. )
F100.00000
G01 Z-0.21000
G04 P0 ( dwell for no time -- G64 should not smooth over this point )
F200.00000
G01 X47.52072 Y9.41996
X47.38709 Y9.38679
X47.23033 Y9.36217
X45.20457 Y9.36217
X44.82228 Y9.43820
X44.51065 Y9.64643
X44.30239 Y9.95811
X44.22921 Y10.32577
X44.30234 Y10.69336
X44.51060 Y11.00505
X44.82223 Y11.21328
X45.04773 Y11.26476
X45.20480 Y11.28940
X47.23005 Y11.28940
X47.61260 Y11.21333
X47.85639 Y11.05272
X47.90614 Y11.03786
X47.98872 Y11.05232
X48.05222 Y11.11180
X48.07239 Y11.18671
X48.07239 Y12.00487
X48.06101 Y12.06222
X48.02850 Y12.11089
X47.96098 Y12.14914
X47.88389 Y12.14914
X47.84798 Y12.13436
X47.61280 Y11.97827
X47.38709 Y11.92679
X47.23033 Y11.90217
X45.20457 Y11.90217
X45.12449 Y11.91330
X44.82228 Y11.97820
X44.51065 Y12.18643
X44.30239 Y12.49811
X44.22921 Y12.86577
X44.30234 Y13.23336
X44.51060 Y13.54505
X44.82223 Y13.75328
X45.04773 Y13.80476
X45.20480 Y13.82940
X47.23005 Y13.82940
X47.61260 Y13.75333
X47.85639 Y13.59272
X47.90614 Y13.57786
X47.98872 Y13.59232
X48.05222 Y13.65180
X48.07239 Y13.72681
X48.07145 Y14.55470
X48.04714 Y14.62815
X48.00579 Y14.66953
X47.97051 Y14.68624
X47.89319 Y14.69196
X47.83909 Y14.66956
X47.61265 Y14.51825
X47.38709 Y14.46679
X47.23033 Y14.44217
X45.20457 Y14.44217
X44.95322 Y14.48792
X44.82228 Y14.51820
X44.51065 Y14.72643
X44.30239 Y15.03811
X44.22921 Y15.40577
X44.30234 Y15.77336
X44.51060 Y16.08505
X44.82223 Y16.29328
X45.04773 Y16.34476
X45.20480 Y16.36940
X47.23005 Y16.36940
X47.61260 Y16.29333
X47.83909 Y16.14197
X47.89347 Y16.12099
X47.95143 Y16.12099
X48.01361 Y16.14778
X48.05522 Y16.19754
X48.07239 Y16.26671
X48.07239 Y18.38077
X48.05524 Y18.44986
X48.01364 Y18.49962
X47.97924 Y18.51801
X47.92240 Y18.53076
X25.46242 Y18.53076
X25.39329 Y18.51352
X25.34358 Y18.47196
X25.32519 Y18.43759
X25.31244 Y18.38077
X25.31244 Y1.00080
X25.33723 Y0.91845
X25.39522 Y0.86684
X25.46245 Y0.85081
X44.28276 Y0.85706
X44.35345 Y0.90199
X44.38451 Y0.95886
X44.38850 Y1.02683
X44.36432 Y1.08330
X44.31529 Y1.13021
X44.15406 Y1.19887
X43.44311 Y1.90854
X43.05787 Y2.83636
X43.05693 Y3.84075
X43.44054 Y4.76914
X44.15022 Y5.48009
X45.07803 Y5.86533
X46.08242 Y5.86627
X47.01082 Y5.48265
X47.72177 Y4.77298
X47.78389 Y4.62332
X47.82631 Y4.56607
X47.88067 Y4.53706
X47.93236 Y4.53183
X47.97935 Y4.54362
X48.03083 Y4.57717
X48.06103 Y4.62353
X48.07239 Y4.68085
X48.07239 Y6.76419
X48.05920 Y6.82220
X48.10566 Y6.82979
X48.13807 Y6.85149
X48.15976 Y6.88392
X48.16738 Y6.92220
X48.16545 Y8.66891
X48.15052 Y8.70495
X48.12293 Y8.73253
X48.06050 Y8.74940
X48.07239 Y8.80739
X48.07239 Y9.46487
X48.05971 Y9.52161
X48.03469 Y9.56332
X48.00579 Y9.58953
X47.95496 Y9.61125
X47.87752 Y9.60767
X47.61280 Y9.43827
X47.52072 Y9.41996
G04 P0 ( dwell for no time -- G64 should not smooth over this point )
G00 Z2.00000 ( retract )

G00 X47.25280 Y11.90665 ( rapid move to begin. )
F100.00000
G01 Z-0.21000
G04 P0 ( dwell for no time -- G64 should not smooth over this point )
F200.00000
G01 X47.25280 Y11.90665
X47.40566 Y11.93055
X47.59289 Y11.98475
X47.76228 Y12.08112
X47.89484 Y12.19494
X48.02644 Y12.36494
X48.11044 Y12.54081
X48.15420 Y12.70997
X48.16510 Y12.92468
X48.13355 Y13.11698
X48.06400 Y13.29900
X47.97157 Y13.44728
X47.83878 Y13.58993
X47.66233 Y13.71274
X47.50053 Y13.77880
X47.25227 Y13.82501
X45.23124 Y13.82937
X45.04773 Y13.80476
X44.86053 Y13.75480
X44.67255 Y13.65046
X44.53998 Y13.53664
X44.41908 Y13.38378
X44.33142 Y13.20977
X44.28060 Y13.02160
X44.26869 Y12.82712
X44.29617 Y12.63418
X44.36193 Y12.45074
X44.47565 Y12.26829
X44.61138 Y12.12846
X44.77249 Y12.01884
X44.93429 Y11.95277
X45.18240 Y11.90657
X47.25280 Y11.90665
G04 P0 ( dwell for no time -- G64 should not smooth over this point )
G00 Z2.00000 ( retract )

G00 X47.25280 Y14.44665 ( rapid move to begin. )
F100.00000
G01 Z-0.21000
G04 P0 ( dwell for no time -- G64 should not smooth over this point )
F200.00000
G01 X47.25280 Y14.44665
X47.40566 Y14.47055
X47.59289 Y14.52475
X47.76228 Y14.62112
X47.89484 Y14.73494
X48.02644 Y14.90494
X48.11044 Y15.08081
X48.15420 Y15.24997
X48.16510 Y15.46468
X48.13355 Y15.65698
X48.06400 Y15.83900
X47.97157 Y15.98728
X47.83878 Y16.12993
X47.66233 Y16.25274
X47.50053 Y16.31880
X47.25227 Y16.36501
X45.23124 Y16.36937
X45.04773 Y16.34476
X44.86053 Y16.29480
X44.67255 Y16.19046
X44.53998 Y16.07664
X44.41908 Y15.92378
X44.33142 Y15.74977
X44.28060 Y15.56160
X44.26869 Y15.36712
X44.29617 Y15.17418
X44.36193 Y14.99074
X44.47565 Y14.80829
X44.61138 Y14.66846
X44.77249 Y14.55884
X44.93429 Y14.49277
X45.18240 Y14.44657
X47.25280 Y14.44665
G04 P0 ( dwell for no time -- G64 should not smooth over this point )
G00 Z2.00000 ( retract )

G00 X38.89275 Y17.20168 ( rapid move to begin. )
F100.00000
G01 Z-0.21000
G04 P0 ( dwell for no time -- G64 should not smooth over this point )
F200.00000
G01 X38.89275 Y17.20168
X38.91457 Y17.08377
X38.91492 Y2.29780
X38.90365 Y2.21360
X38.88607 Y2.16313
X38.77096 Y2.13524
X26.75945 Y2.13468
X26.70461 Y2.13976
X26.62437 Y2.16282
X26.60347 Y2.23171
X26.59631 Y2.29780
X26.59636 Y17.08377
X26.60634 Y17.16262
X26.62440 Y17.21893
X26.68053 Y17.23694
X26.75942 Y17.24689
X38.75140 Y17.24684
X38.86933 Y17.22502
X38.88663 Y17.21880
X38.89275 Y17.20168
( Piece #3, position [2;0] )

G04 P0 ( dwell for no time -- G64 should not smooth over this point )
G00 Z2.00000 ( retract )

G00 X63.37637 Y2.29160 ( rapid move to begin. )
F100.00000
G01 Z-0.21000
G04 P0 ( dwell for no time -- G64 should not smooth over this point )
F200.00000
G01 X63.37637 Y2.29160
X63.37617 Y17.08377
X63.36621 Y17.16267
X63.34823 Y17.21880
X63.29189 Y17.23686
X63.21300 Y17.24684
X51.22102 Y17.24689
X51.14213 Y17.23694
X51.08600 Y17.21893
X51.06794 Y17.16262
X51.05796 Y17.08377
X51.05791 Y2.29780
X51.06507 Y2.23171
X51.08597 Y2.16282
X51.16621 Y2.13976
X51.22105 Y2.13468
X63.23256 Y2.13524
X63.34767 Y2.16313
X63.36525 Y2.21360
X63.37637 Y2.29160
G04 P0 ( dwell for no time -- G64 should not smooth over this point )
G00 Z2.00000 ( retract )

G00 X67.51929 Y3.34578 ( rapid move to begin. )
F100.00000
G01 Z-0.21000
G04 P0 ( dwell for no time -- G64 should not smooth over this point )
F200.00000
G01 X67.51929 Y3.34578
X67.57258 Y2.82617
X67.73732 Y2.31380
X68.00128 Y1.85663
X68.34708 Y1.47177
X68.79084 Y1.14934
X69.26376 Y0.93938
X69.79053 Y0.82912
X70.30793 Y0.82965
X70.82429 Y0.93938
X71.29716 Y1.14934
X71.72543 Y1.45777
X72.08674 Y1.85663
X72.35070 Y2.31380
X72.51110 Y2.80572
X72.56845 Y3.33034
X72.51544 Y3.85540
X72.35070 Y4.36775
X72.08677 Y4.82492
X71.74095 Y5.20981
X71.29718 Y5.53224
X70.82429 Y5.74219
X70.29747 Y5.85248
X69.76975 Y5.85027
X69.26376 Y5.74219
X68.78154 Y5.52749
X68.34708 Y5.20981
X68.00125 Y4.82495
X67.73732 Y4.36777
X67.57420 Y3.86574
X67.51929 Y3.34578
G04 P0 ( dwell for no time -- G64 should not smooth over this point )
G00 Z2.00000 ( retract )

G00 X71.71440 Y9.36665 ( rapid move to begin. )
F100.00000
G01 Z-0.21000
G04 P0 ( dwell for no time -- G64 should not smooth over this point )
F200.00000
G01 X71.71440 Y9.36665
X71.86726 Y9.39055
X72.05448 Y9.44475
X72.22388 Y9.54112
X72.35644 Y9.65494
X72.48804 Y9.82494
X72.57204 Y10.00081
X72.61580 Y10.16997
X72.62670 Y10.38468
X72.59515 Y10.57698
X72.52560 Y10.75900
X72.43317 Y10.90728
X72.30038 Y11.04993
X72.12393 Y11.17274
X71.96213 Y11.23880
X71.71387 Y11.28501
X69.69284 Y11.28937
X69.50933 Y11.26476
X69.32213 Y11.21480
X69.13415 Y11.11046
X69.00158 Y10.99664
X68.88068 Y10.84378
X68.79302 Y10.66977
X68.74220 Y10.48160
X68.73029 Y10.28712
X68.75777 Y10.09418
X68.82353 Y9.91074
X68.93724 Y9.72829
X69.07298 Y9.58846
X69.23409 Y9.47884
X69.39589 Y9.41277
X69.64400 Y9.36657
X71.71440 Y9.36665
G04 P0 ( dwell for no time -- G64 should not smooth over this point )
G00 Z2.00000 ( retract )

G00 X71.98232 Y9.41996 ( rapid move to begin. )
F100.00000
G01 Z-0.21000
G04 P0 ( dwell for no time -- G64 should not smooth over this point )
F200.00000
G01 X71.98232 Y9.41996
X71.84869 Y9.38679
X71.69193 Y9.36217
X69.66617 Y9.36217
X69.28388 Y9.43820
X68.97225 Y9.64643
X68.76399 Y9.95811
X68.69081 Y10.32577
X68.76394 Y10.69336
X68.97219 Y11.00505
X69.28383 Y11.21328
X69.50933 Y11.26476
X69.66640 Y11.28940
X71.69165 Y11.28940
X72.07420 Y11.21333
X72.31798 Y11.05272
X72.36774 Y11.03786
X72.45032 Y11.05232
X72.51382 Y11.11180
X72.53399 Y11.18671
X72.53399 Y12.00487
X72.52261 Y12.06222
X72.49009 Y12.11089
X72.42258 Y12.14914
X72.34549 Y12.14914
X72.30958 Y12.13436
X72.07440 Y11.97827
X71.84869 Y11.92679
X71.69193 Y11.90217
X69.66617 Y11.90217
X69.58609 Y11.91330
X69.28388 Y11.97820
X68.97225 Y12.18643
X68.76399 Y12.49811
X68.69081 Y12.86577
X68.76394 Y13.23336
X68.97219 Y13.54505
X69.28383 Y13.75328
X69.50933 Y13.80476
X69.66640 Y13.82940
X71.69165 Y13.82940
X72.07420 Y13.75333
X72.31798 Y13.59272
X72.36774 Y13.57786
X72.45032 Y13.59232
X72.51382 Y13.65180
X72.53399 Y13.72681
X72.53305 Y14.55470
X72.50874 Y14.62815
X72.46739 Y14.66953
X72.43211 Y14.68624
X72.35479 Y14.69196
X72.30069 Y14.66956
X72.07425 Y14.51825
X71.84869 Y14.46679
X71.69193 Y14.44217
X69.66617 Y14.44217
X69.41482 Y14.48792
X69.28388 Y14.51820
X68.97225 Y14.72643
X68.76399 Y15.03811
X68.69081 Y15.40577
X68.76394 Y15.77336
X68.97219 Y16.08505
X69.28383 Y16.29328
X69.50933 Y16.34476
X69.66640 Y16.36940
X71.69165 Y16.36940
X72.07420 Y16.29333
X72.30069 Y16.14197
X72.35507 Y16.12099
X72.41303 Y16.12099
X72.47521 Y16.14778
X72.51682 Y16.19754
X72.53399 Y16.26671
X72.53399 Y18.38077
X72.51684 Y18.44986
X72.47524 Y18.49962
X72.44084 Y18.51801
X72.38400 Y18.53076
X49.92402 Y18.53076
X49.85488 Y18.51352
X49.80518 Y18.47196
X49.78679 Y18.43759
X49.77404 Y18.38077
X49.77404 Y1.00080
X49.79883 Y0.91845
X49.85682 Y0.86684
X49.92405 Y0.85081
X68.74436 Y0.85706
X68.81505 Y0.90199
X68.84611 Y0.95886
X68.85010 Y1.02683
X68.82592 Y1.08330
X68.77689 Y1.13021
X68.61566 Y1.19887
X67.90471 Y1.90854
X67.51947 Y2.83636
X67.51853 Y3.84075
X67.90214 Y4.76914
X68.61182 Y5.48009
X69.53963 Y5.86533
X70.54402 Y5.86627
X71.47242 Y5.48265
X72.18336 Y4.77298
X72.24549 Y4.62332
X72.28791 Y4.56607
X72.34227 Y4.53706
X72.39396 Y4.53183
X72.44095 Y4.54362
X72.49243 Y4.57717
X72.52263 Y4.62353
X72.53399 Y4.68085
X72.53399 Y6.76419
X72.52080 Y6.82220
X72.56726 Y6.82979
X72.59967 Y6.85149
X72.62136 Y6.88392
X72.62898 Y6.92220
X72.62705 Y8.66891
X72.61212 Y8.70495
X72.58453 Y8.73253
X72.52210 Y8.74940
X72.53399 Y8.80739
X72.53399 Y9.46487
X72.52131 Y9.52161
X72.49629 Y9.56332
X72.46739 Y9.58953
X72.41656 Y9.61125
X72.33912 Y9.60767
X72.07440 Y9.43827
X71.98232 Y9.41996
G04 P0 ( dwell for no time -- G64 should not smooth over this point )
G00 Z2.00000 ( retract )

G00 X71.71440 Y11.90665 ( rapid move to begin. )
F100.00000
G01 Z-0.21000
G04 P0 ( dwell for no time -- G64 should not smooth over this point )
F200.00000
G01 X71.71440 Y11.90665
X71.86726 Y11.93055
X72.05448 Y11.98475
X72.22388 Y12.08112
X72.35644 Y12.19494
X72.48804 Y12.36494
X72.57204 Y12.54081
X72.61580 Y12.70997
X72.62670 Y12.92468
X72.59515 Y13.11698
X72.52560 Y13.29900
X72.43317 Y13.44728
X72.30038 Y13.58993
X72.12393 Y13.71274
X71.96213 Y13.77880
X71.71387 Y13.82501
X69.69284 Y13.82937
X69.50933 Y13.80476
X69.32213 Y13.75480
X69.13415 Y13.65046
X69.00158 Y13.53664
X68.88068 Y13.38378
X68.79302 Y13.20977
X68.74220 Y13.02160
X68.73029 Y12.82712
X68.75777 Y12.63418
X68.82353 Y12.45074
X68.93724 Y12.26829
X69.07298 Y12.12846
X69.23409 Y12.01884
X69.39589 Y11.95277
X69.64400 Y11.90657
X71.71440 Y11.90665
G04 P0 ( dwell for no time -- G64 should not smooth over this point )
G00 Z2.00000 ( retract )

G00 X71.71440 Y14.44665 ( rapid move to begin. )
F100.00000
G01 Z-0.21000
G04 P0 ( dwell for no time -- G64 should not smooth over this point )
F200.00000
G01 X71.71440 Y14.44665
X71.86726 Y14.47055
X72.05448 Y14.52475
X72.22388 Y14.62112
X72.35644 Y14.73494
X72.48804 Y14.90494
X72.57204 Y15.08081
X72.61580 Y15.24997
X72.62670 Y15.46468
X72.59515 Y15.65698
X72.52560 Y15.83900
X72.43317 Y15.98728
X72.30038 Y16.12993
X72.12393 Y16.25274
X71.96213 Y16.31880
X71.71387 Y16.36501
X69.69284 Y16.36937
X69.50933 Y16.34476
X69.32213 Y16.29480
X69.13415 Y16.19046
X69.00158 Y16.07664
X68.88068 Y15.92378
X68.79302 Y15.74977
X68.74220 Y15.56160
X68.73029 Y15.36712
X68.75777 Y15.17418
X68.82353 Y14.99074
X68.93724 Y14.80829
X69.07298 Y14.66846
X69.23409 Y14.55884
X69.39589 Y14.49277
X69.64400 Y14.44657
X71.71440 Y14.44665
G04 P0 ( dwell for no time -- G64 should not smooth over this point )
G00 Z2.00000 ( retract )

G00 X63.35435 Y17.20168 ( rapid move to begin. )
F100.00000
G01 Z-0.21000
G04 P0 ( dwell for no time -- G64 should not smooth over this point )
F200.00000
G01 X63.35435 Y17.20168
X63.37617 Y17.08377
X63.37652 Y2.29780
X63.36525 Y2.21360
X63.34767 Y2.16313
X63.23256 Y2.13524
X51.22105 Y2.13468
X51.16621 Y2.13976
X51.08597 Y2.16282
X51.06507 Y2.23171
X51.05791 Y2.29780
X51.05796 Y17.08377
X51.06794 Y17.16262
X51.08600 Y17.21893
X51.14213 Y17.23694
X51.22102 Y17.24689
X63.21300 Y17.24684
X63.33093 Y17.22502
X63.34823 Y17.21880
X63.35435 Y17.20168
( Piece #4, position [3;0] )

G04 P0 ( dwell for no time -- G64 should not smooth over this point )
G00 Z2.00000 ( retract )

G00 X87.83797 Y2.29160 ( rapid move to begin. )
F100.00000
G01 Z-0.21000
G04 P0 ( dwell for no time -- G64 should not smooth over this point )
F200.00000
G01 X87.83797 Y2.29160
X87.83777 Y17.08377
X87.82781 Y17.16267
X87.80983 Y17.21880
X87.75349 Y17.23686
X87.67460 Y17.24684
X75.68262 Y17.24689
X75.60373 Y17.23694
X75.54760 Y17.21893
X75.52954 Y17.16262
X75.51956 Y17.08377
X75.51950 Y2.29780
X75.52667 Y2.23171
X75.54757 Y2.16282
X75.62781 Y2.13976
X75.68265 Y2.13468
X87.69416 Y2.13524
X87.80927 Y2.16313
X87.82685 Y2.21360
X87.83797 Y2.29160
G04 P0 ( dwell for no time -- G64 should not smooth over this point )
G00 Z2.00000 ( retract )

G00 X91.98089 Y3.34578 ( rapid move to begin. )
F100.00000
G01 Z-0.21000
G04 P0 ( dwell for no time -- G64 should not smooth over this point )
F200.00000
G01 X91.98089 Y3.34578
X92.03418 Y2.82617
X92.19892 Y2.31380
X92.46288 Y1.85663
X92.80867 Y1.47177
X93.25244 Y1.14934
X93.72536 Y0.93938
X94.25213 Y0.82912
X94.76953 Y0.82965
X95.28589 Y0.93938
X95.75876 Y1.14934
X96.18703 Y1.45777
X96.54834 Y1.85663
X96.81230 Y2.31380
X96.97270 Y2.80572
X97.03005 Y3.33034
X96.97704 Y3.85540
X96.81230 Y4.36775
X96.54837 Y4.82492
X96.20255 Y5.20981
X95.75878 Y5.53224
X95.28589 Y5.74219
X94.75906 Y5.85248
X94.23135 Y5.85027
X93.72536 Y5.74219
X93.24314 Y5.52749
X92.80867 Y5.20981
X92.46285 Y4.82495
X92.19892 Y4.36777
X92.03580 Y3.86574
X91.98089 Y3.34578
G04 P0 ( dwell for no time -- G64 should not smooth over this point )
G00 Z2.00000 ( retract )

G00 X96.17600 Y9.36665 ( rapid move to begin. )
F100.00000
G01 Z-0.21000
G04 P0 ( dwell for no time -- G64 should not smooth over this point )
F200.00000
G01 X96.17600 Y9.36665
X96.32886 Y9.39055
X96.51608 Y9.44475
X96.68548 Y9.54112
X96.81804 Y9.65494
X96.94964 Y9.82494
X97.03363 Y10.00081
X97.07740 Y10.16997
X97.08830 Y10.38468
X97.05675 Y10.57698
X96.98720 Y10.75900
X96.89477 Y10.90728
X96.76198 Y11.04993
X96.58553 Y11.17274
X96.42373 Y11.23880
X96.17547 Y11.28501
X94.15444 Y11.28937
X93.97093 Y11.26476
X93.78373 Y11.21480
X93.59574 Y11.11046
X93.46318 Y10.99664
X93.34228 Y10.84378
X93.25462 Y10.66977
X93.20380 Y10.48160
X93.19188 Y10.28712
X93.21937 Y10.09418
X93.28513 Y9.91074
X93.39884 Y9.72829
X93.53458 Y9.58846
X93.69569 Y9.47884
X93.85749 Y9.41277
X94.10560 Y9.36657
X96.17600 Y9.36665
G04 P0 ( dwell for no time -- G64 should not smooth over this point )
G00 Z2.00000 ( retract )

G00 X96.44392 Y9.41996 ( rapid move to begin. )
F100.00000
G01 Z-0.21000
G04 P0 ( dwell for no time -- G64 should not smooth over this point )
F200.00000
G01 X96.44392 Y9.41996
X96.31029 Y9.38679
X96.15352 Y9.36217
X94.12777 Y9.36217
X93.74548 Y9.43820
X93.43385 Y9.64643
X93.22559 Y9.95811
X93.15241 Y10.32577
X93.22554 Y10.69336
X93.43379 Y11.00505
X93.74543 Y11.21328
X93.97093 Y11.26476
X94.12800 Y11.28940
X96.15325 Y11.28940
X96.53579 Y11.21333
X96.77958 Y11.05272
X96.82934 Y11.03786
X96.91192 Y11.05232
X96.97542 Y11.11180
X96.99559 Y11.18671
X96.99559 Y12.00487
X96.98421 Y12.06222
X96.95169 Y12.11089
X96.88418 Y12.14914
X96.80709 Y12.14914
X96.77118 Y12.13436
X96.53600 Y11.97827
X96.31029 Y11.92679
X96.15352 Y11.90217
X94.12777 Y11.90217
X94.04769 Y11.91330
X93.74548 Y11.97820
X93.43385 Y12.18643
X93.22559 Y12.49811
X93.15241 Y12.86577
X93.22554 Y13.23336
X93.43379 Y13.54505
X93.74543 Y13.75328
X93.97093 Y13.80476
X94.12800 Y13.82940
X96.15325 Y13.82940
X96.53579 Y13.75333
X96.77958 Y13.59272
X96.82934 Y13.57786
X96.91192 Y13.59232
X96.97542 Y13.65180
X96.99559 Y13.72681
X96.99465 Y14.55470
X96.97034 Y14.62815
X96.92899 Y14.66953
X96.89371 Y14.68624
X96.81639 Y14.69196
X96.76229 Y14.66956
X96.53585 Y14.51825
X96.31029 Y14.46679
X96.15352 Y14.44217
X94.12777 Y14.44217
X93.87641 Y14.48792
X93.74548 Y14.51820
X93.43385 Y14.72643
X93.22559 Y15.03811
X93.15241 Y15.40577
X93.22554 Y15.77336
X93.43379 Y16.08505
X93.74543 Y16.29328
X93.97093 Y16.34476
X94.12800 Y16.36940
X96.15325 Y16.36940
X96.53579 Y16.29333
X96.76229 Y16.14197
X96.81667 Y16.12099
X96.87463 Y16.12099
X96.93681 Y16.14778
X96.97842 Y16.19754
X96.99559 Y16.26671
X96.99559 Y18.38077
X96.97844 Y18.44986
X96.93684 Y18.49962
X96.90244 Y18.51801
X96.84560 Y18.53076
X74.38562 Y18.53076
X74.31648 Y18.51352
X74.26678 Y18.47196
X74.24839 Y18.43759
X74.23564 Y18.38077
X74.23564 Y1.00080
X74.26043 Y0.91845
X74.31841 Y0.86684
X74.38565 Y0.85081
X93.20596 Y0.85706
X93.27664 Y0.90199
X93.30771 Y0.95886
X93.31170 Y1.02683
X93.28752 Y1.08330
X93.23849 Y1.13021
X93.07725 Y1.19887
X92.36631 Y1.90854
X91.98107 Y2.83636
X91.98013 Y3.84075
X92.36374 Y4.76914
X93.07342 Y5.48009
X94.00123 Y5.86533
X95.00562 Y5.86627
X95.93402 Y5.48265
X96.64496 Y4.77298
X96.70709 Y4.62332
X96.74951 Y4.56607
X96.80387 Y4.53706
X96.85556 Y4.53183
X96.90255 Y4.54362
X96.95403 Y4.57717
X96.98423 Y4.62353
X96.99559 Y4.68085
X96.99559 Y6.76419
X96.98240 Y6.82220
X97.02886 Y6.82979
X97.06127 Y6.85149
X97.08296 Y6.88392
X97.09058 Y6.92220
X97.08865 Y8.66891
X97.07372 Y8.70495
X97.04613 Y8.73253
X96.98370 Y8.74940
X96.99559 Y8.80739
X96.99559 Y9.46487
X96.98291 Y9.52161
X96.95789 Y9.56332
X96.92899 Y9.58953
X96.87816 Y9.61125
X96.80072 Y9.60767
X96.53600 Y9.43827
X96.44392 Y9.41996
G04 P0 ( dwell for no time -- G64 should not smooth over this point )
G00 Z2.00000 ( retract )

G00 X96.17600 Y11.90665 ( rapid move to begin. )
F100.00000
G01 Z-0.21000
G04 P0 ( dwell for no time -- G64 should not smooth over this point )
F200.00000
G01 X96.17600 Y11.90665
X96.32886 Y11.93055
X96.51608 Y11.98475
X96.68548 Y12.08112
X96.81804 Y12.19494
X96.94964 Y12.36494
X97.03363 Y12.54081
X97.07740 Y12.70997
X97.08830 Y12.92468
X97.05675 Y13.11698
X96.98720 Y13.29900
X96.89477 Y13.44728
X96.76198 Y13.58993
X96.58553 Y13.71274
X96.42373 Y13.77880
X96.17547 Y13.82501
X94.15444 Y13.82937
X93.97093 Y13.80476
X93.78373 Y13.75480
X93.59574 Y13.65046
X93.46318 Y13.53664
X93.34228 Y13.38378
X93.25462 Y13.20977
X93.20380 Y13.02160
X93.19188 Y12.82712
X93.21937 Y12.63418
X93.28513 Y12.45074
X93.39884 Y12.26829
X93.53458 Y12.12846
X93.69569 Y12.01884
X93.85749 Y11.95277
X94.10560 Y11.90657
X96.17600 Y11.90665
G04 P0 ( dwell for no time -- G64 should not smooth over this point )
G00 Z2.00000 ( retract )

G00 X96.17600 Y14.44665 ( rapid move to begin. )
F100.00000
G01 Z-0.21000
G04 P0 ( dwell for no time -- G64 should not smooth over this point )
F200.00000
G01 X96.17600 Y14.44665
X96.32886 Y14.47055
X96.51608 Y14.52475
X96.68548 Y14.62112
X96.81804 Y14.73494
X96.94964 Y14.90494
X97.03363 Y15.08081
X97.07740 Y15.24997
X97.08830 Y15.46468
X97.05675 Y15.65698
X96.98720 Y15.83900
X96.89477 Y15.98728
X96.76198 Y16.12993
X96.58553 Y16.25274
X96.42373 Y16.31880
X96.17547 Y16.36501
X94.15444 Y16.36937
X93.97093 Y16.34476
X93.78373 Y16.29480
X93.59574 Y16.19046
X93.46318 Y16.07664
X93.34228 Y15.92378
X93.25462 Y15.74977
X93.20380 Y15.56160
X93.19188 Y15.36712
X93.21937 Y15.17418
X93.28513 Y14.99074
X93.39884 Y14.80829
X93.53458 Y14.66846
X93.69569 Y14.55884
X93.85749 Y14.49277
X94.10560 Y14.44657
X96.17600 Y14.44665
G04 P0 ( dwell for no time -- G64 should not smooth over this point )
G00 Z2.00000 ( retract )

G00 X87.81595 Y17.20168 ( rapid move to begin. )
F100.00000
G01 Z-0.21000
G04 P0 ( dwell for no time -- G64 should not smooth over this point )
F200.00000
G01 X87.81595 Y17.20168
X87.83777 Y17.08377
X87.83812 Y2.29780
X87.82685 Y2.21360
X87.80927 Y2.16313
X87.69416 Y2.13524
X75.68265 Y2.13468
X75.62781 Y2.13976
X75.54757 Y2.16282
X75.52667 Y2.23171
X75.51950 Y2.29780
X75.51956 Y17.08377
X75.52954 Y17.16262
X75.54760 Y17.21893
X75.60373 Y17.23694
X75.68262 Y17.24689
X87.67460 Y17.24684
X87.79253 Y17.22502
X87.80983 Y17.21880
X87.81595 Y17.20168

G04 P0 ( dwell for no time -- G64 should not smooth over this point )
G00 Z52.300 ( retract )

M5 ( Spindle off. )
M9 ( Coolant off. )
M2 ( Program end. )

