( pcb2gcode 1.3.2 )
( Software-independent Gcode )

G94 ( Millimeters per minute feed rate. )
G21 ( Units == Millimeters. )

G90 ( Absolute coordinates. )
G00 S24000 ( RPM spindle speed. )
G64 P0.01000 ( set maximum deviation from commanded toolpath )
G01 F120.00000 ( Feedrate. )

G01 F120.00000 ( Feedrate. )
M3 ( Spindle on clockwise. )
G04 P1.00000
G04 P0 ( dwell for no time -- G64 should not smooth over this point )
G00 Z3.00000 ( retract )

G00 X78.85429 Y3.87382 ( rapid move to begin. )
G01 F60.00000
G01 Z-0.10000
G04 P0 ( dwell for no time -- G64 should not smooth over this point )
G01 F120.00000
G01 X78.85429 Y3.87382
G01 X78.85429 Y4.87382
G01 X78.87652 Y4.91537
G01 X80.50430 Y4.92381
G01 X80.54585 Y4.90158
G01 X80.55429 Y3.87382
G01 X80.53206 Y3.83224
G01 X78.90428 Y3.82383
G01 X78.86895 Y3.83847
G01 X78.85429 Y3.87382
G04 P0 ( dwell for no time -- G64 should not smooth over this point )
G00 Z3.00000 ( retract )

G00 X78.85429 Y0.87380 ( rapid move to begin. )
G01 F60.00000
G01 Z-0.10000
G04 P0 ( dwell for no time -- G64 should not smooth over this point )
G01 F120.00000
G01 X78.85429 Y0.87380
G01 X78.85429 Y1.87380
G01 X78.87652 Y1.91538
G01 X80.50430 Y1.92379
G01 X80.54585 Y1.90159
G01 X80.55429 Y0.87380
G01 X80.53206 Y0.83225
G01 X78.90428 Y0.82382
G01 X78.86895 Y0.83847
G01 X78.85429 Y0.87380
G04 P0 ( dwell for no time -- G64 should not smooth over this point )
G00 Z3.00000 ( retract )

G00 X82.69731 Y0.10080 ( rapid move to begin. )
G01 F60.00000
G01 Z-0.10000
G04 P0 ( dwell for no time -- G64 should not smooth over this point )
G01 F120.00000
G01 X82.69731 Y0.10080
G01 X82.70572 Y1.18858
G01 X82.74730 Y1.21081
G01 X83.42507 Y1.20238
G01 X83.44727 Y1.16082
G01 X83.43886 Y0.07304
G01 X83.39728 Y0.05082
G01 X82.74730 Y0.05082
G01 X82.71194 Y0.06547
G01 X82.69731 Y0.10080
G04 P0 ( dwell for no time -- G64 should not smooth over this point )
G00 Z3.00000 ( retract )

G00 X83.64730 Y0.10080 ( rapid move to begin. )
G01 F60.00000
G01 Z-0.10000
G04 P0 ( dwell for no time -- G64 should not smooth over this point )
G01 F120.00000
G01 X83.64730 Y0.10080
G01 X83.65573 Y1.18858
G01 X83.69728 Y1.21081
G01 X84.37506 Y1.20238
G01 X84.39728 Y1.16082
G01 X84.38885 Y0.07304
G01 X84.34729 Y0.05082
G01 X83.69728 Y0.05082
G01 X83.66195 Y0.06547
G01 X83.64730 Y0.10080
G04 P0 ( dwell for no time -- G64 should not smooth over this point )
G00 Z3.00000 ( retract )

G00 X84.59731 Y0.10080 ( rapid move to begin. )
G01 F60.00000
G01 Z-0.10000
G04 P0 ( dwell for no time -- G64 should not smooth over this point )
G01 F120.00000
G01 X84.59731 Y0.10080
G01 X84.60571 Y1.18858
G01 X84.64729 Y1.21081
G01 X85.32507 Y1.20238
G01 X85.34727 Y1.16082
G01 X85.33886 Y0.07304
G01 X85.29728 Y0.05082
G01 X84.64729 Y0.05082
G01 X84.61194 Y0.06547
G01 X84.59731 Y0.10080
G04 P0 ( dwell for no time -- G64 should not smooth over this point )
G00 Z3.00000 ( retract )

G00 X86.17030 Y0.91030 ( rapid move to begin. )
G01 F60.00000
G01 Z-0.10000
G04 P0 ( dwell for no time -- G64 should not smooth over this point )
G01 F120.00000
G01 X86.17030 Y0.91030
G01 X86.17030 Y1.81030
G01 X86.20116 Y1.85650
G01 X87.92029 Y1.86029
G01 X87.96646 Y1.82945
G01 X87.97027 Y0.91030
G01 X87.93941 Y0.86413
G01 X86.22029 Y0.86032
G01 X86.18493 Y0.87497
G01 X86.17030 Y0.91030
G04 P0 ( dwell for no time -- G64 should not smooth over this point )
G00 Z3.00000 ( retract )

G00 X84.59731 Y2.30080 ( rapid move to begin. )
G01 F60.00000
G01 Z-0.10000
G04 P0 ( dwell for no time -- G64 should not smooth over this point )
G01 F120.00000
G01 X84.59731 Y2.30080
G01 X84.60571 Y3.38858
G01 X84.64729 Y3.41081
G01 X85.32507 Y3.40237
G01 X85.34727 Y3.36082
G01 X85.33886 Y2.27304
G01 X85.29728 Y2.25081
G01 X84.64729 Y2.25081
G01 X84.61194 Y2.26547
G01 X84.59731 Y2.30080
G04 P0 ( dwell for no time -- G64 should not smooth over this point )
G00 Z3.00000 ( retract )

G00 X83.64730 Y2.30080 ( rapid move to begin. )
G01 F60.00000
G01 Z-0.10000
G04 P0 ( dwell for no time -- G64 should not smooth over this point )
G01 F120.00000
G01 X83.64730 Y2.30080
G01 X83.65573 Y3.38858
G01 X83.69728 Y3.41081
G01 X84.37506 Y3.40237
G01 X84.39728 Y3.36082
G01 X84.38885 Y2.27304
G01 X84.34729 Y2.25081
G01 X83.69728 Y2.25081
G01 X83.66195 Y2.26547
G01 X83.64730 Y2.30080
G04 P0 ( dwell for no time -- G64 should not smooth over this point )
G00 Z3.00000 ( retract )

G00 X82.69731 Y2.30080 ( rapid move to begin. )
G01 F60.00000
G01 Z-0.10000
G04 P0 ( dwell for no time -- G64 should not smooth over this point )
G01 F120.00000
G01 X82.69731 Y2.30080
G01 X82.70572 Y3.38858
G01 X82.74730 Y3.41081
G01 X83.42507 Y3.40237
G01 X83.44727 Y3.36082
G01 X83.43886 Y2.27304
G01 X83.39728 Y2.25081
G01 X82.74730 Y2.25081
G01 X82.71194 Y2.26547
G01 X82.69731 Y2.30080
G04 P0 ( dwell for no time -- G64 should not smooth over this point )
G00 Z3.00000 ( retract )

G00 X86.17030 Y3.81032 ( rapid move to begin. )
G01 F60.00000
G01 Z-0.10000
G04 P0 ( dwell for no time -- G64 should not smooth over this point )
G01 F120.00000
G01 X86.17030 Y3.81032
G01 X86.17030 Y4.71032
G01 X86.20116 Y4.75650
G01 X87.92029 Y4.76031
G01 X87.96646 Y4.72945
G01 X87.97027 Y3.81032
G01 X87.93941 Y3.76412
G01 X86.22029 Y3.76033
G01 X86.18493 Y3.77497
G01 X86.17030 Y3.81032
G04 P0 ( dwell for no time -- G64 should not smooth over this point )
G00 Z3.00000 ( retract )

G00 X89.07779 Y3.87382 ( rapid move to begin. )
G01 F60.00000
G01 Z-0.10000
G04 P0 ( dwell for no time -- G64 should not smooth over this point )
G01 F120.00000
G01 X89.07779 Y3.87382
G01 X89.07779 Y4.87382
G01 X89.10002 Y4.91537
G01 X90.72780 Y4.92381
G01 X90.76935 Y4.90158
G01 X90.77779 Y3.87382
G01 X90.75556 Y3.83224
G01 X89.12778 Y3.82383
G01 X89.09245 Y3.83847
G01 X89.07779 Y3.87382
G04 P0 ( dwell for no time -- G64 should not smooth over this point )
G00 Z3.00000 ( retract )

G00 X89.07779 Y0.87380 ( rapid move to begin. )
G01 F60.00000
G01 Z-0.10000
G04 P0 ( dwell for no time -- G64 should not smooth over this point )
G01 F120.00000
G01 X89.07779 Y0.87380
G01 X89.07779 Y1.87380
G01 X89.10002 Y1.91538
G01 X90.72780 Y1.92379
G01 X90.76935 Y1.90159
G01 X90.77779 Y0.87380
G01 X90.75556 Y0.83225
G01 X89.12778 Y0.82382
G01 X89.09245 Y0.83847
G01 X89.07779 Y0.87380

G04 P0 ( dwell for no time -- G64 should not smooth over this point )
G00 Z21.050 ( retract )

M5 ( Spindle off. )
G04 P1.000000
M9 ( Coolant off. )
M2 ( Program end. )

