(G-CODE GENERATED BY FLATCAM v8.91 - www.flatcam.org - Version Date: 2019/02/23)

(Name: touchsense6-F.Paste_flip.gtp_iso_cnc)
(Type: G-code from Geometry)
(Units: MM)

(Created on Friday, 01 March 2019 at 19:22)

(TOOL DIAMETER: 0.1 mm)
(Feedrate: 3.0 mm/min)
(Feedrate_Z: 3.0 mm/min)
(Feedrate rapids 3.0 mm/min)

(Z_Cut: -0.25 mm)
(Z_Move: 3.0 mm)
(Z Toolchange: 1.0 mm)
(X,Y Toolchange: 0.0000, 0.0000 mm)
(Z Start: None mm)
(Z End: 2.0 mm)
(Steps per circle: 64)
(Postprocessor Geometry: default)

(X range:   33.4400 ...   45.3635  mm)
(Y range:  -40.9230 ...  -36.0500  mm)

(Spindle Speed: None RPM)

G21
G90
G94

G01 F3.00
G00 Z3.0000

M03
G00 X35.0925 Y-37.1499
G01 F3.00
G01 Z-0.2500
G01 F3.00
G01 X35.1036 Y-37.1481
G01 X35.1141 Y-37.1438
G01 X35.1233 Y-37.1373
G01 X35.1273 Y-37.1333
G01 X35.1338 Y-37.1241
G01 X35.1363 Y-37.1190
G01 X35.1393 Y-37.1081
G01 X35.1400 Y-37.1000
G01 X35.1400 Y-36.1000
G01 X35.1381 Y-36.0864
G01 X35.1338 Y-36.0759
G01 X35.1273 Y-36.0667
G01 X35.1189 Y-36.0592
G01 X35.1141 Y-36.0562
G01 X35.1036 Y-36.0519
G01 X35.0900 Y-36.0500
G01 X33.4900 Y-36.0500
G01 X33.4764 Y-36.0519
G01 X33.4659 Y-36.0562
G01 X33.4567 Y-36.0627
G01 X33.4492 Y-36.0711
G01 X33.4462 Y-36.0759
G01 X33.4419 Y-36.0864
G01 X33.4400 Y-36.1000
G01 X33.4400 Y-37.1000
G01 X33.4419 Y-37.1136
G01 X33.4462 Y-37.1241
G01 X33.4527 Y-37.1333
G01 X33.4611 Y-37.1408
G01 X33.4659 Y-37.1438
G01 X33.4764 Y-37.1481
G01 X33.4900 Y-37.1500
G01 X35.0925 Y-37.1499
G00 Z3.0000
G00 X38.0000 Y-37.2134
G01 F3.00
G01 Z-0.2500
G01 F3.00
G01 X38.0111 Y-37.2116
G01 X38.0216 Y-37.2073
G01 X38.0308 Y-37.2008
G01 X38.0348 Y-37.1968
G01 X38.0413 Y-37.1876
G01 X38.0438 Y-37.1825
G01 X38.0468 Y-37.1716
G01 X38.0475 Y-37.1635
G01 X38.0474 Y-36.2610
G01 X38.0456 Y-36.2499
G01 X38.0413 Y-36.2394
G01 X38.0348 Y-36.2302
G01 X38.0308 Y-36.2262
G01 X38.0216 Y-36.2197
G01 X38.0111 Y-36.2154
G01 X37.9975 Y-36.2135
G01 X36.2975 Y-36.2135
G01 X36.2839 Y-36.2154
G01 X36.2734 Y-36.2197
G01 X36.2642 Y-36.2262
G01 X36.2602 Y-36.2302
G01 X36.2537 Y-36.2394
G01 X36.2494 Y-36.2499
G01 X36.2475 Y-36.2635
G01 X36.2475 Y-37.1635
G01 X36.2494 Y-37.1771
G01 X36.2537 Y-37.1876
G01 X36.2602 Y-37.1968
G01 X36.2642 Y-37.2008
G01 X36.2734 Y-37.2073
G01 X36.2839 Y-37.2116
G01 X36.2975 Y-37.2135
G01 X38.0000 Y-37.2134
G00 Z3.0000
G00 X39.5730 Y-38.7229
G01 F3.00
G01 Z-0.2500
G01 F3.00
G01 X39.5841 Y-38.7211
G01 X39.5946 Y-38.7168
G01 X39.6038 Y-38.7103
G01 X39.6078 Y-38.7063
G01 X39.6143 Y-38.6971
G01 X39.6168 Y-38.6920
G01 X39.6186 Y-38.6866
G01 X39.6204 Y-38.6755
G01 X39.6205 Y-37.6130
G01 X39.6186 Y-37.5994
G01 X39.6143 Y-37.5889
G01 X39.6078 Y-37.5797
G01 X39.6038 Y-37.5757
G01 X39.5946 Y-37.5692
G01 X39.5841 Y-37.5649
G01 X39.5730 Y-37.5631
G01 X38.9205 Y-37.5630
G01 X38.9069 Y-37.5649
G01 X38.8964 Y-37.5692
G01 X38.8872 Y-37.5757
G01 X38.8832 Y-37.5797
G01 X38.8767 Y-37.5889
G01 X38.8724 Y-37.5994
G01 X38.8705 Y-37.6130
G01 X38.8705 Y-38.6730
G01 X38.8724 Y-38.6866
G01 X38.8767 Y-38.6971
G01 X38.8832 Y-38.7063
G01 X38.8872 Y-38.7103
G01 X38.8964 Y-38.7168
G01 X38.9069 Y-38.7211
G01 X38.9180 Y-38.7229
G01 X39.5730 Y-38.7229
G00 Z3.0000
G00 X40.5230 Y-38.7229
G01 F3.00
G01 Z-0.2500
G01 F3.00
G01 X40.5341 Y-38.7211
G01 X40.5446 Y-38.7168
G01 X40.5538 Y-38.7103
G01 X40.5578 Y-38.7063
G01 X40.5643 Y-38.6971
G01 X40.5668 Y-38.6920
G01 X40.5686 Y-38.6866
G01 X40.5704 Y-38.6755
G01 X40.5705 Y-37.6130
G01 X40.5686 Y-37.5994
G01 X40.5643 Y-37.5889
G01 X40.5578 Y-37.5797
G01 X40.5538 Y-37.5757
G01 X40.5446 Y-37.5692
G01 X40.5341 Y-37.5649
G01 X40.5230 Y-37.5631
G01 X39.8705 Y-37.5630
G01 X39.8569 Y-37.5649
G01 X39.8464 Y-37.5692
G01 X39.8372 Y-37.5757
G01 X39.8332 Y-37.5797
G01 X39.8267 Y-37.5889
G01 X39.8224 Y-37.5994
G01 X39.8205 Y-37.6130
G01 X39.8205 Y-38.6730
G01 X39.8224 Y-38.6866
G01 X39.8267 Y-38.6971
G01 X39.8332 Y-38.7063
G01 X39.8372 Y-38.7103
G01 X39.8464 Y-38.7168
G01 X39.8569 Y-38.7211
G01 X39.8680 Y-38.7229
G01 X40.5230 Y-38.7229
G00 Z3.0000
G00 X41.4730 Y-38.7229
G01 F3.00
G01 Z-0.2500
G01 F3.00
G01 X41.4841 Y-38.7211
G01 X41.4946 Y-38.7168
G01 X41.5038 Y-38.7103
G01 X41.5078 Y-38.7063
G01 X41.5143 Y-38.6971
G01 X41.5168 Y-38.6920
G01 X41.5186 Y-38.6866
G01 X41.5204 Y-38.6755
G01 X41.5205 Y-37.6130
G01 X41.5186 Y-37.5994
G01 X41.5143 Y-37.5889
G01 X41.5078 Y-37.5797
G01 X41.5038 Y-37.5757
G01 X41.4946 Y-37.5692
G01 X41.4841 Y-37.5649
G01 X41.4730 Y-37.5631
G01 X40.8205 Y-37.5630
G01 X40.8069 Y-37.5649
G01 X40.7964 Y-37.5692
G01 X40.7872 Y-37.5757
G01 X40.7832 Y-37.5797
G01 X40.7767 Y-37.5889
G01 X40.7724 Y-37.5994
G01 X40.7705 Y-37.6130
G01 X40.7705 Y-38.6730
G01 X40.7724 Y-38.6866
G01 X40.7767 Y-38.6971
G01 X40.7832 Y-38.7063
G01 X40.7872 Y-38.7103
G01 X40.7964 Y-38.7168
G01 X40.8069 Y-38.7211
G01 X40.8180 Y-38.7229
G01 X41.4730 Y-38.7229
G00 Z3.0000
G00 X41.4730 Y-40.9229
G01 F3.00
G01 Z-0.2500
G01 F3.00
G01 X41.4841 Y-40.9211
G01 X41.4946 Y-40.9168
G01 X41.5038 Y-40.9103
G01 X41.5078 Y-40.9063
G01 X41.5143 Y-40.8971
G01 X41.5168 Y-40.8920
G01 X41.5186 Y-40.8866
G01 X41.5204 Y-40.8755
G01 X41.5205 Y-39.8130
G01 X41.5186 Y-39.7994
G01 X41.5143 Y-39.7889
G01 X41.5078 Y-39.7797
G01 X41.5038 Y-39.7757
G01 X41.4946 Y-39.7692
G01 X41.4841 Y-39.7649
G01 X41.4730 Y-39.7631
G01 X40.8205 Y-39.7630
G01 X40.8069 Y-39.7649
G01 X40.7964 Y-39.7692
G01 X40.7872 Y-39.7757
G01 X40.7832 Y-39.7797
G01 X40.7767 Y-39.7889
G01 X40.7724 Y-39.7994
G01 X40.7705 Y-39.8130
G01 X40.7705 Y-40.8730
G01 X40.7724 Y-40.8866
G01 X40.7767 Y-40.8971
G01 X40.7832 Y-40.9063
G01 X40.7872 Y-40.9103
G01 X40.7964 Y-40.9168
G01 X40.8069 Y-40.9211
G01 X40.8180 Y-40.9229
G01 X41.4730 Y-40.9229
G00 Z3.0000
G00 X40.5230 Y-40.9229
G01 F3.00
G01 Z-0.2500
G01 F3.00
G01 X40.5341 Y-40.9211
G01 X40.5446 Y-40.9168
G01 X40.5538 Y-40.9103
G01 X40.5578 Y-40.9063
G01 X40.5643 Y-40.8971
G01 X40.5668 Y-40.8920
G01 X40.5686 Y-40.8866
G01 X40.5704 Y-40.8755
G01 X40.5705 Y-39.8130
G01 X40.5686 Y-39.7994
G01 X40.5643 Y-39.7889
G01 X40.5578 Y-39.7797
G01 X40.5538 Y-39.7757
G01 X40.5446 Y-39.7692
G01 X40.5341 Y-39.7649
G01 X40.5230 Y-39.7631
G01 X39.8705 Y-39.7630
G01 X39.8569 Y-39.7649
G01 X39.8464 Y-39.7692
G01 X39.8372 Y-39.7757
G01 X39.8332 Y-39.7797
G01 X39.8267 Y-39.7889
G01 X39.8224 Y-39.7994
G01 X39.8205 Y-39.8130
G01 X39.8205 Y-40.8730
G01 X39.8224 Y-40.8866
G01 X39.8267 Y-40.8971
G01 X39.8332 Y-40.9063
G01 X39.8372 Y-40.9103
G01 X39.8464 Y-40.9168
G01 X39.8569 Y-40.9211
G01 X39.8680 Y-40.9229
G01 X40.5230 Y-40.9229
G00 Z3.0000
G00 X39.5730 Y-40.9229
G01 F3.00
G01 Z-0.2500
G01 F3.00
G01 X39.5841 Y-40.9211
G01 X39.5946 Y-40.9168
G01 X39.6038 Y-40.9103
G01 X39.6078 Y-40.9063
G01 X39.6143 Y-40.8971
G01 X39.6168 Y-40.8920
G01 X39.6186 Y-40.8866
G01 X39.6204 Y-40.8755
G01 X39.6205 Y-39.8130
G01 X39.6186 Y-39.7994
G01 X39.6143 Y-39.7889
G01 X39.6078 Y-39.7797
G01 X39.6038 Y-39.7757
G01 X39.5946 Y-39.7692
G01 X39.5841 Y-39.7649
G01 X39.5730 Y-39.7631
G01 X38.9205 Y-39.7630
G01 X38.9069 Y-39.7649
G01 X38.8964 Y-39.7692
G01 X38.8872 Y-39.7757
G01 X38.8832 Y-39.7797
G01 X38.8767 Y-39.7889
G01 X38.8724 Y-39.7994
G01 X38.8705 Y-39.8130
G01 X38.8705 Y-40.8730
G01 X38.8724 Y-40.8866
G01 X38.8767 Y-40.8971
G01 X38.8832 Y-40.9063
G01 X38.8872 Y-40.9103
G01 X38.8964 Y-40.9168
G01 X38.9069 Y-40.9211
G01 X38.9180 Y-40.9229
G01 X39.5730 Y-40.9229
G00 Z3.0000
G00 X38.0000 Y-40.1134
G01 F3.00
G01 Z-0.2500
G01 F3.00
G01 X38.0111 Y-40.1116
G01 X38.0216 Y-40.1073
G01 X38.0308 Y-40.1008
G01 X38.0348 Y-40.0968
G01 X38.0413 Y-40.0876
G01 X38.0438 Y-40.0825
G01 X38.0468 Y-40.0716
G01 X38.0475 Y-40.0635
G01 X38.0474 Y-39.1610
G01 X38.0456 Y-39.1499
G01 X38.0413 Y-39.1394
G01 X38.0348 Y-39.1302
G01 X38.0308 Y-39.1262
G01 X38.0216 Y-39.1197
G01 X38.0111 Y-39.1154
G01 X37.9975 Y-39.1135
G01 X36.2975 Y-39.1135
G01 X36.2839 Y-39.1154
G01 X36.2734 Y-39.1197
G01 X36.2642 Y-39.1262
G01 X36.2602 Y-39.1302
G01 X36.2537 Y-39.1394
G01 X36.2494 Y-39.1499
G01 X36.2475 Y-39.1635
G01 X36.2475 Y-40.0635
G01 X36.2494 Y-40.0771
G01 X36.2537 Y-40.0876
G01 X36.2602 Y-40.0968
G01 X36.2642 Y-40.1008
G01 X36.2734 Y-40.1073
G01 X36.2839 Y-40.1116
G01 X36.2975 Y-40.1135
G01 X38.0000 Y-40.1134
G00 Z3.0000
G00 X35.0925 Y-40.1499
G01 F3.00
G01 Z-0.2500
G01 F3.00
G01 X35.1036 Y-40.1481
G01 X35.1141 Y-40.1438
G01 X35.1233 Y-40.1373
G01 X35.1273 Y-40.1333
G01 X35.1338 Y-40.1241
G01 X35.1363 Y-40.1190
G01 X35.1393 Y-40.1081
G01 X35.1400 Y-40.1000
G01 X35.1400 Y-39.1000
G01 X35.1381 Y-39.0864
G01 X35.1338 Y-39.0759
G01 X35.1273 Y-39.0667
G01 X35.1189 Y-39.0592
G01 X35.1141 Y-39.0562
G01 X35.1036 Y-39.0519
G01 X35.0900 Y-39.0500
G01 X33.4900 Y-39.0500
G01 X33.4764 Y-39.0519
G01 X33.4659 Y-39.0562
G01 X33.4567 Y-39.0627
G01 X33.4492 Y-39.0711
G01 X33.4462 Y-39.0759
G01 X33.4419 Y-39.0864
G01 X33.4400 Y-39.1000
G01 X33.4400 Y-40.1000
G01 X33.4419 Y-40.1136
G01 X33.4462 Y-40.1241
G01 X33.4527 Y-40.1333
G01 X33.4611 Y-40.1408
G01 X33.4659 Y-40.1438
G01 X33.4764 Y-40.1481
G01 X33.4900 Y-40.1500
G01 X35.0925 Y-40.1499
G00 Z3.0000
G00 X45.3160 Y-40.1499
G01 F3.00
G01 Z-0.2500
G01 F3.00
G01 X45.3271 Y-40.1481
G01 X45.3376 Y-40.1438
G01 X45.3468 Y-40.1373
G01 X45.3508 Y-40.1333
G01 X45.3573 Y-40.1241
G01 X45.3598 Y-40.1190
G01 X45.3628 Y-40.1081
G01 X45.3635 Y-40.1000
G01 X45.3635 Y-39.1000
G01 X45.3616 Y-39.0864
G01 X45.3573 Y-39.0759
G01 X45.3508 Y-39.0667
G01 X45.3424 Y-39.0592
G01 X45.3376 Y-39.0562
G01 X45.3271 Y-39.0519
G01 X45.3135 Y-39.0500
G01 X43.7135 Y-39.0500
G01 X43.6999 Y-39.0519
G01 X43.6894 Y-39.0562
G01 X43.6802 Y-39.0627
G01 X43.6727 Y-39.0711
G01 X43.6697 Y-39.0759
G01 X43.6654 Y-39.0864
G01 X43.6635 Y-39.1000
G01 X43.6635 Y-40.1000
G01 X43.6654 Y-40.1136
G01 X43.6697 Y-40.1241
G01 X43.6762 Y-40.1333
G01 X43.6846 Y-40.1408
G01 X43.6894 Y-40.1438
G01 X43.6999 Y-40.1481
G01 X43.7135 Y-40.1500
G01 X45.3160 Y-40.1499
G00 Z3.0000
G00 X45.3160 Y-37.1499
G01 F3.00
G01 Z-0.2500
G01 F3.00
G01 X45.3271 Y-37.1481
G01 X45.3376 Y-37.1438
G01 X45.3468 Y-37.1373
G01 X45.3508 Y-37.1333
G01 X45.3573 Y-37.1241
G01 X45.3598 Y-37.1190
G01 X45.3628 Y-37.1081
G01 X45.3635 Y-37.1000
G01 X45.3635 Y-36.1000
G01 X45.3616 Y-36.0864
G01 X45.3573 Y-36.0759
G01 X45.3508 Y-36.0667
G01 X45.3424 Y-36.0592
G01 X45.3376 Y-36.0562
G01 X45.3271 Y-36.0519
G01 X45.3135 Y-36.0500
G01 X43.7135 Y-36.0500
G01 X43.6999 Y-36.0519
G01 X43.6894 Y-36.0562
G01 X43.6802 Y-36.0627
G01 X43.6727 Y-36.0711
G01 X43.6697 Y-36.0759
G01 X43.6654 Y-36.0864
G01 X43.6635 Y-36.1000
G01 X43.6635 Y-37.1000
G01 X43.6654 Y-37.1136
G01 X43.6697 Y-37.1241
G01 X43.6762 Y-37.1333
G01 X43.6846 Y-37.1408
G01 X43.6894 Y-37.1438
G01 X43.6999 Y-37.1481
G01 X43.7135 Y-37.1500
G01 X45.3160 Y-37.1499
G00 Z3.0000
M05
G00 Z3.0000
G00 Z2.00
G00 X0.0 Y0.0

(begin postamble)
M05
G17 G54 G90 G80 G40
M2
