(G-CODE GENERATED BY FLATCAM v8.91 - www.flatcam.org - Version Date: 2019/02/23)

(Name: touchsense6-F.Paste_flip.gtp_iso_cnc)
(Type: G-code from Geometry)
(Units: MM)

(Created on Friday, 01 March 2019 at 20:04)

(TOOL DIAMETER: -0.2 mm)
(Feedrate: 30.0 mm/min)
(Feedrate_Z: 3.0 mm/min)
(Feedrate rapids 3.0 mm/min)

(Z_Cut: -0.25 mm)
(Z_Move: 3.0 mm)
(Z Toolchange: 1.0 mm)
(X,Y Toolchange: 0.0000, 0.0000 mm)
(Z Start: None mm)
(Z End: 2.0 mm)
(Steps per circle: 64)
(Postprocessor Geometry: default)

(X range:   33.5899 ...   45.2136  mm)
(Y range:  -40.7724 ...  -36.1985  mm)

(Spindle Speed: None RPM)

G21
G90
G94

G01 F30.00
G00 Z3.0000

M03
G00 X5.9901 Y7.0008
G01 F3.00
G01 Z-0.2500
G01 F30.00
G01 X5.9901 Y7.8015
G01 X4.5899 Y7.8015
G01 X4.5899 Y7.0008
G01 X5.9901 Y7.0008
G00 Z3.0000
G00 X8.8971 Y6.9373
G01 F3.00
G01 Z-0.2500
G01 F30.00
G01 X8.8971 Y7.6364
G01 X7.3979 Y7.6364
G01 X7.3979 Y6.9373
G01 X8.8971 Y6.9373
G00 Z3.0000
G00 X10.4707 Y5.4272
G01 F3.00
G01 Z-0.2500
G01 F30.00
G01 X10.4707 Y6.2864
G01 X10.0204 Y6.2864
G01 X10.0204 Y5.4272
G01 X10.4707 Y5.4272
G00 Z3.0000
G00 X11.4206 Y5.4272
G01 F3.00
G01 Z-0.2500
G01 F30.00
G01 X11.4206 Y6.2864
G01 X10.9704 Y6.2864
G01 X10.9704 Y5.4272
G01 X11.4206 Y5.4272
G00 Z3.0000
G00 X12.3706 Y5.4272
G01 F3.00
G01 Z-0.2500
G01 F30.00
G01 X12.3706 Y6.2864
G01 X11.9203 Y6.2864
G01 X11.9203 Y5.4272
G01 X12.3706 Y5.4272
G00 Z3.0000
G00 X12.3706 Y3.2276
G01 F3.00
G01 Z-0.2500
G01 F30.00
G01 X12.3706 Y4.0868
G01 X11.9203 Y4.0868
G01 X11.9203 Y3.2276
G01 X12.3706 Y3.2276
G00 Z3.0000
G00 X11.4206 Y3.2276
G01 F3.00
G01 Z-0.2500
G01 F30.00
G01 X11.4206 Y4.0868
G01 X10.9704 Y4.0868
G01 X10.9704 Y3.2276
G01 X11.4206 Y3.2276
G00 Z3.0000
G00 X10.4707 Y3.2276
G01 F3.00
G01 Z-0.2500
G01 F30.00
G01 X10.4707 Y4.0868
G01 X10.0204 Y4.0868
G01 X10.0204 Y3.2276
G01 X10.4707 Y3.2276
G00 Z3.0000
G00 X8.8971 Y4.0366
G01 F3.00
G01 Z-0.2500
G01 F30.00
G01 X8.8971 Y4.7357
G01 X7.3979 Y4.7357
G01 X7.3979 Y4.0366
G01 X8.8971 Y4.0366
G00 Z3.0000
G00 X5.9901 Y3.9985
G01 F3.00
G01 Z-0.2500
G01 F30.00
G01 X5.9901 Y4.7992
G01 X4.5899 Y4.7992
G01 X4.5899 Y3.9985
G01 X5.9901 Y3.9985
G00 Z3.0000
G00 X16.2136 Y3.9985
G01 F3.00
G01 Z-0.2500
G01 F30.00
G01 X16.2136 Y4.7992
G01 X14.8134 Y4.7992
G01 X14.8134 Y3.9985
G01 X16.2136 Y3.9985
G00 Z3.0000
G00 X16.2136 Y7.0008
G01 F3.00
G01 Z-0.2500
G01 F30.00
G01 X16.2136 Y7.8015
G01 X14.8134 Y7.8015
G01 X14.8134 Y7.0008
G01 X16.2136 Y7.0008
G00 Z3.0000
M05
G00 Z3.0000
G00 Z2.00
G00 X-29.0000 Y44.0000

(begin postamble)
M05
G17 G54 G90 G80 G40
M2
