( pcb2gcode 1.3.2 )
( Software-independent Gcode )

( This file uses 2 drill bit sizes. )
( Bit sizes: [1.016mm] [2.5mm] )

G94       (Millimeters per minute feed rate.)
G21       (Units == Millimeters.)
G91.1     (Incremental arc distance mode.)
G90       (Absolute coordinates.)
S15000     (RPM spindle speed.)

G00 Z52.30000 (Retract)
T1
M5      (Spindle stop.)
(MSG, Change tool bit to drill size 1.01600 mm)
M6        (Tool change.)
M0        (Temporary machine stop.)
M3        (Spindle on clockwise.)
G30       (above switch)
M64 P0 (enable probe input)
G49       (measure without the last tool's offset)
G38.2 Z-26.20000 F355 (measure)
G91 G0 Z.2 (off the switch)
G43.1 Z[#5063-#1000] (set new tool offset)
(debug,new length is #5063)
M65 P0 (disable probe input)
G90       (done)
G0 Z2.00000

G81 R2.00000 Z-1.60000 F60.00000 X2.70580 Y7.78580
X2.70580 Y10.32580
X2.70580 Y12.86580
X2.70580 Y15.40580
X12.61180 Y3.84880
X27.16740 Y7.78580
X27.16740 Y10.32580
X27.16740 Y12.86580
X27.16740 Y15.40580
X37.07340 Y3.84880
X51.62900 Y7.78580
X51.62900 Y10.32580
X51.62900 Y12.86580
X51.62900 Y15.40580
X61.53500 Y3.84880
X76.09060 Y7.78580
X76.09060 Y10.32580
X76.09060 Y12.86580
X76.09060 Y15.40580
X85.99660 Y3.84880

G00 Z52.30000 (Retract)
T2
M5      (Spindle stop.)
(MSG, Change tool bit to drill size 2.50000 mm)
M6        (Tool change.)
M0        (Temporary machine stop.)
M3        (Spindle on clockwise.)
G30       (above switch)
M64 P0 (enable probe input)
G49       (measure without the last tool's offset)
G38.2 Z-26.20000 F355 (measure)
G91 G0 Z.2 (off the switch)
G43.1 Z[#5063-#1000] (set new tool offset)
(debug,new length is #5063)
M65 P0 (disable probe input)
G90       (done)
G0 Z2.00000

G81 R2.00000 Z-1.60000 F60.00000 X3.34080 Y3.34080
X27.80240 Y3.34080
X52.26400 Y3.34080
X76.72560 Y3.34080

G00 Z52.300 ( All done -- retract )

M5      (Spindle off.)
M9      (Coolant off.)
M2      (Program end.)

