( pcb2gcode 1.3.2 )
( Software-independent Gcode )

G94 ( Millimeters per minute feed rate. )
G21 ( Units == Millimeters. )

G90 ( Absolute coordinates. )
S20000 ( RPM spindle speed. )
G64 P0.00600 ( set maximum deviation from commanded toolpath )
F200.00000 ( Feedrate. )

F200.00000 ( Feedrate. )
M3 ( Spindle on clockwise. )
( Piece #1, position [0;0] )

G04 P0 ( dwell for no time -- G64 should not smooth over this point )
G00 Z2.00000 ( retract )

G00 X5.86551 Y3.34578 ( rapid move to begin. )
F100.00000
G01 Z-0.21000
G04 P0 ( dwell for no time -- G64 should not smooth over this point )
F200.00000
G01 X5.86551 Y3.34578
X5.81222 Y2.82617
X5.64748 Y2.31380
X5.38352 Y1.85663
X5.03772 Y1.47177
X4.59396 Y1.14934
X4.12104 Y0.93938
X3.59427 Y0.82912
X3.07687 Y0.82965
X2.56051 Y0.93938
X2.08764 Y1.14934
X1.65937 Y1.45777
X1.29806 Y1.85663
X1.03410 Y2.31380
X0.87370 Y2.80572
X0.81634 Y3.33034
X0.86935 Y3.85540
X1.03410 Y4.36775
X1.29803 Y4.82492
X1.64385 Y5.20981
X2.08761 Y5.53224
X2.56051 Y5.74219
X3.08733 Y5.85248
X3.61504 Y5.85027
X4.12104 Y5.74219
X4.60326 Y5.52749
X5.03772 Y5.20981
X5.38354 Y4.82495
X5.64748 Y4.36777
X5.81059 Y3.86574
X5.86551 Y3.34578
G04 P0 ( dwell for no time -- G64 should not smooth over this point )
G00 Z2.00000 ( retract )

G00 X6.54869 Y5.53343 ( rapid move to begin. )
F100.00000
G01 Z-0.21000
G04 P0 ( dwell for no time -- G64 should not smooth over this point )
F200.00000
G01 X6.54869 Y5.53343
X6.57229 Y5.58913
X6.60953 Y5.61667
X6.64780 Y5.62429
X6.82766 Y5.62429
X6.76213 Y6.50480
X6.41163 Y6.50569
X6.38250 Y6.51240
X6.35006 Y6.53409
X6.32416 Y6.58044
X6.32164 Y8.21374
X6.32837 Y8.24305
X6.35006 Y8.27549
X6.40810 Y8.30353
X7.09030 Y8.30480
X7.29411 Y8.74396
X7.29411 Y10.82946
X6.94580 Y11.17779
X6.80777 Y11.17779
X6.80015 Y11.03951
X6.76332 Y10.99463
X6.72728 Y10.97970
X5.64778 Y10.97779
X5.59221 Y10.99463
X5.55538 Y11.03951
X5.54778 Y11.07779
X5.54778 Y11.72778
X5.55538 Y11.76603
X5.57707 Y11.79847
X5.63478 Y11.82648
X6.70777 Y11.82778
X6.74603 Y11.82016
X6.77846 Y11.79847
X6.80015 Y11.76603
X6.80777 Y11.62778
X7.03899 Y11.62631
X7.12451 Y11.60929
X7.17696 Y11.57573
X7.67793 Y11.08201
X7.72494 Y11.01328
X7.74059 Y10.96179
X7.74381 Y8.68697
X7.72316 Y8.59954
X7.52078 Y8.16340
X7.51991 Y6.59594
X7.51316 Y6.56652
X7.49146 Y6.53409
X7.44514 Y6.50818
X7.21333 Y6.50480
X7.27884 Y5.62429
X7.57821 Y5.61905
X7.61846 Y5.59497
X7.64648 Y5.53726
X7.64778 Y3.82431
X7.63091 Y3.76874
X7.60333 Y3.74115
X7.56843 Y3.72658
X7.56977 Y3.02307
X10.98635 Y3.02335
X10.98780 Y17.21077
X11.00718 Y17.29614
X11.02430 Y17.32586
X11.07662 Y17.37702
X11.14391 Y17.40582
X11.18780 Y17.41077
X22.29077 Y17.41077
X22.37614 Y17.39134
X22.45422 Y17.32586
X22.47729 Y17.28271
X22.49077 Y17.21077
X22.49077 Y2.04380
X22.46873 Y1.95315
X22.40830 Y1.88195
X22.35250 Y1.85355
X22.29077 Y1.84380
X6.76248 Y1.84868
X6.69515 Y1.87748
X6.64280 Y1.92864
X6.61971 Y1.97184
X6.60630 Y2.04380
X6.60630 Y3.73361
X6.56464 Y3.76874
X6.54780 Y3.82431
X6.54869 Y5.53343
G04 P0 ( dwell for no time -- G64 should not smooth over this point )
G00 Z2.00000 ( retract )

G00 X8.45169 Y6.07536 ( rapid move to begin. )
F100.00000
G01 Z-0.21000
G04 P0 ( dwell for no time -- G64 should not smooth over this point )
F200.00000
G01 X8.45169 Y6.07536
X9.44780 Y5.32825
X9.44970 Y5.54379
X9.47708 Y5.59497
X9.52324 Y5.62081
X10.44777 Y5.62429
X10.48602 Y5.61667
X10.51846 Y5.59497
X10.54015 Y5.56254
X10.54777 Y5.52429
X10.54777 Y3.82431
X10.54015 Y3.78604
X10.51846 Y3.75360
X10.48602 Y3.73191
X10.44777 Y3.72431
X9.54780 Y3.72431
X9.50952 Y3.73191
X9.47708 Y3.75360
X9.45539 Y3.78604
X9.44780 Y3.82431
X9.44780 Y4.76574
X8.04290 Y5.81943
X8.00843 Y5.85022
X7.96197 Y5.91684
X7.94181 Y6.02159
X7.94181 Y9.07780
X7.80952 Y9.08539
X7.76464 Y9.12222
X7.74780 Y9.17780
X7.74971 Y9.84729
X7.77709 Y9.89847
X7.82827 Y9.92585
X8.90779 Y9.92778
X8.94605 Y9.92016
X8.97848 Y9.89847
X9.00652 Y9.84046
X9.00779 Y9.17780
X9.00017 Y9.13952
X8.98323 Y9.11285
X8.94605 Y9.08539
X8.90779 Y9.07780
X8.39179 Y9.07780
X8.39179 Y6.12027
X8.45169 Y6.07536
G04 P0 ( dwell for no time -- G64 should not smooth over this point )
G00 Z2.00000 ( retract )

G00 X9.30284 Y6.42850 ( rapid move to begin. )
F100.00000
G01 Z-0.21000
G04 P0 ( dwell for no time -- G64 should not smooth over this point )
F200.00000
G01 X9.30284 Y6.42850
X9.37937 Y6.39678
X9.61518 Y6.39678
X9.61681 Y6.50480
X9.40127 Y6.50671
X9.36522 Y6.52164
X9.33764 Y6.54923
X9.32080 Y6.60480
X9.32080 Y7.10081
X9.21440 Y7.10081
X9.21277 Y6.56337
X9.24442 Y6.48692
X9.30284 Y6.42850
G04 P0 ( dwell for no time -- G64 should not smooth over this point )
G00 Z2.00000 ( retract )

G00 X10.22478 Y6.39838 ( rapid move to begin. )
F100.00000
G01 Z-0.21000
G04 P0 ( dwell for no time -- G64 should not smooth over this point )
F200.00000
G01 X10.22478 Y6.39838
X10.46215 Y6.39678
X10.53860 Y6.42842
X10.59705 Y6.48687
X10.62880 Y6.56350
X10.62712 Y7.10081
X10.52080 Y7.10081
X10.52080 Y6.60480
X10.50393 Y6.54923
X10.47635 Y6.52164
X10.44030 Y6.50671
X10.22478 Y6.50480
X10.22478 Y6.39838
G04 P0 ( dwell for no time -- G64 should not smooth over this point )
G00 Z2.00000 ( retract )

G00 X10.62880 Y7.71039 ( rapid move to begin. )
F100.00000
G01 Z-0.21000
G04 P0 ( dwell for no time -- G64 should not smooth over this point )
F200.00000
G01 X10.62880 Y7.71039
X10.62880 Y8.24602
X10.59710 Y8.32258
X10.53863 Y8.38105
X10.46205 Y8.41280
X10.22644 Y8.41280
X10.22478 Y8.30480
X10.44030 Y8.30287
X10.47635 Y8.28793
X10.50393 Y8.26035
X10.52080 Y8.20480
X10.52080 Y7.70876
X10.62880 Y7.71039
G04 P0 ( dwell for no time -- G64 should not smooth over this point )
G00 Z2.00000 ( retract )

G00 X9.30289 Y8.38107 ( rapid move to begin. )
F100.00000
G01 Z-0.21000
G04 P0 ( dwell for no time -- G64 should not smooth over this point )
F200.00000
G01 X9.30289 Y8.38107
X9.24450 Y8.32268
X9.21277 Y8.24615
X9.21277 Y8.07452
X9.20221 Y8.01943
X9.21277 Y7.96992
X9.21435 Y7.70876
X9.32080 Y7.70876
X9.32080 Y8.20480
X9.33764 Y8.26035
X9.36522 Y8.28793
X9.40127 Y8.30287
X9.61681 Y8.30480
X9.61513 Y8.41280
X9.37950 Y8.41280
X9.30289 Y8.38107
G04 P0 ( dwell for no time -- G64 should not smooth over this point )
G00 Z2.00000 ( retract )

G00 X7.29141 Y10.79481 ( rapid move to begin. )
F100.00000
G01 Z-0.21000
G04 P0 ( dwell for no time -- G64 should not smooth over this point )
F200.00000
G01 X7.29141 Y10.79481
X7.29406 Y8.77706
X7.28415 Y8.72395
X7.13287 Y8.39652
X7.06924 Y8.32852
X6.99683 Y8.30970
X6.43498 Y8.30970
X6.38463 Y8.30025
X6.34976 Y8.27780
X6.32693 Y8.24440
X6.31588 Y8.18994
X6.31588 Y6.61872
X6.32527 Y6.56863
X6.34773 Y6.53376
X6.38113 Y6.51092
X6.43592 Y6.49982
X6.65131 Y6.49718
X6.70302 Y6.47686
X6.75067 Y6.42842
X6.77280 Y6.36101
X6.81527 Y5.79030
X6.79896 Y5.71075
X6.77437 Y5.67808
X6.72009 Y5.63945
X6.61087 Y5.61923
X6.57676 Y5.59729
X6.55393 Y5.56388
X6.54288 Y5.50943
X6.55304 Y1.79046
X22.54406 Y1.79056
X22.54396 Y17.46406
X10.93446 Y17.46396
X10.93088 Y3.17100
X10.90848 Y3.11692
X10.86977 Y3.07740
X10.78379 Y3.05030
X7.77229 Y3.05030
X7.71486 Y3.06168
X7.66622 Y3.09422
X7.63368 Y3.14286
X7.62230 Y3.20029
X7.62230 Y3.71001
X7.65270 Y3.83938
X7.65270 Y5.51014
X7.64328 Y5.56033
X7.62078 Y5.59530
X7.58740 Y5.61811
X7.53241 Y5.62924
X7.37203 Y5.63691
X7.32786 Y5.65941
X7.28131 Y5.71694
X7.26820 Y5.76800
X7.22573 Y6.33871
X7.24201 Y6.41819
X7.28941 Y6.47087
X7.33482 Y6.49355
X7.45690 Y6.50927
X7.49177 Y6.53173
X7.51460 Y6.56513
X7.52570 Y6.61984
X7.52677 Y7.97264
X7.54422 Y8.02967
X7.56299 Y8.05606
X7.59162 Y8.08227
X7.64529 Y8.10493
X7.83269 Y8.10305
X7.90404 Y8.05824
X7.93899 Y7.98687
X7.94173 Y6.02192
X7.94623 Y5.97704
X7.97160 Y5.89894
X8.04300 Y5.81931
X9.38285 Y4.81443
X9.41854 Y4.77631
X9.44287 Y4.69447
X9.44287 Y3.83813
X9.45224 Y3.78820
X9.47475 Y3.75322
X9.50812 Y3.73041
X9.56256 Y3.71939
X10.43380 Y3.71939
X10.48389 Y3.72878
X10.51876 Y3.75124
X10.54160 Y3.78464
X10.55270 Y3.83935
X10.55270 Y5.51004
X10.54325 Y5.56038
X10.52080 Y5.59528
X10.48739 Y5.61811
X10.43273 Y5.62919
X9.56200 Y5.62919
X9.51163 Y5.61974
X9.47724 Y5.59762
X9.41643 Y5.51024
X9.38321 Y5.48659
X9.33586 Y5.47122
X9.27284 Y5.47290
X9.22181 Y5.49774
X8.45179 Y6.07526
X8.40713 Y6.12967
X8.39179 Y6.19528
X8.39179 Y7.96548
X8.40299 Y8.01732
X8.39179 Y8.06901
X8.39286 Y8.93759
X8.41049 Y8.99481
X8.42949 Y9.02133
X8.45842 Y9.04757
X8.51237 Y9.06995
X8.89365 Y9.07282
X8.94384 Y9.08224
X8.97879 Y9.10475
X9.00160 Y9.13812
X9.01270 Y9.19283
X9.01270 Y9.81353
X9.00322 Y9.86398
X8.96995 Y9.92351
X8.95824 Y9.98338
X8.96987 Y10.03629
X9.00195 Y10.08813
X9.01447 Y10.13642
X9.05646 Y10.19260
X9.11051 Y10.22146
X9.30980 Y10.22923
X9.41645 Y10.25892
X9.47940 Y10.30416
X9.68691 Y10.51168
X9.74376 Y10.59626
X9.76339 Y10.69634
X9.76339 Y12.77360
X9.74366 Y12.87378
X9.72644 Y12.90926
X9.65506 Y12.98109
X6.42499 Y15.23280
X6.39368 Y15.28088
X6.38270 Y15.33725
X6.38270 Y16.19165
X6.37328 Y16.24184
X6.35078 Y16.27679
X6.31740 Y16.29960
X6.26269 Y16.31070
X5.29198 Y16.31070
X5.24163 Y16.30125
X5.20676 Y16.27880
X5.18393 Y16.24540
X5.17288 Y16.19094
X5.17288 Y15.78078
X5.16013 Y15.72393
X5.14174 Y15.68954
X5.09198 Y15.64794
X5.04230 Y15.63267
X4.77234 Y15.63079
X4.70031 Y15.64949
X4.64766 Y15.69739
X4.62086 Y15.77336
X4.41260 Y16.08505
X4.10097 Y16.29328
X3.89404 Y16.34100
X3.71840 Y16.36940
X1.69254 Y16.36940
X1.59087 Y16.35909
X1.53788 Y16.37656
X1.47997 Y16.43719
X1.46280 Y16.50636
X1.46280 Y18.33079
X1.47418 Y18.38814
X1.50669 Y18.43681
X1.55531 Y18.46932
X1.61279 Y18.48077
X23.41079 Y18.48077
X23.47993 Y18.46353
X23.54051 Y18.40569
X23.56077 Y18.33079
X23.56077 Y1.05079
X23.53598 Y0.96844
X23.47800 Y0.91683
X23.41076 Y0.90080
X4.79363 Y0.90174
X4.72088 Y0.92724
X4.69076 Y0.95198
X4.65571 Y1.02473
X4.65967 Y1.09267
X4.68875 Y1.14705
X4.72891 Y1.18020
X4.76914 Y1.19887
X5.48009 Y1.90854
X5.86533 Y2.83636
X5.86627 Y3.84075
X5.48265 Y4.76914
X4.77298 Y5.48009
X3.84517 Y5.86533
X2.84078 Y5.86627
X1.91238 Y5.48265
X1.20143 Y4.77298
X1.18002 Y4.72647
X1.14687 Y4.68649
X1.09252 Y4.65749
X1.06034 Y4.65223
X1.00878 Y4.65756
X0.95450 Y4.68659
X0.91215 Y4.74395
X0.90080 Y4.80127
X0.90080 Y6.37450
X0.91325 Y6.43074
X0.93131 Y6.46492
X0.98033 Y6.50658
X1.02945 Y6.52230
X1.46323 Y6.53104
X1.46915 Y6.60640
X1.50011 Y6.66294
X1.53026 Y6.68768
X1.58663 Y6.71184
X2.40011 Y6.71410
X2.40181 Y6.82220
X0.85582 Y6.82220
X0.81754 Y6.82979
X0.78513 Y6.85149
X0.76344 Y6.88392
X0.75582 Y6.92220
X0.75775 Y8.66891
X0.77268 Y8.70495
X0.80027 Y8.73253
X0.85582 Y8.74940
X2.40181 Y8.74940
X2.40014 Y8.85740
X1.61279 Y8.85740
X1.55602 Y8.87008
X1.52158 Y8.88846
X1.47997 Y8.93822
X1.46468 Y8.98798
X1.46468 Y9.24462
X1.47995 Y9.29431
X1.50771 Y9.33022
X1.53788 Y9.35496
X1.59315 Y9.37294
X1.69221 Y9.36217
X3.30168 Y9.36217
X3.36935 Y9.34523
X3.44367 Y9.29735
X3.54344 Y9.27777
X5.40229 Y9.27777
X5.48883 Y9.25021
X5.52622 Y9.21219
X5.55022 Y9.14480
X5.57470 Y9.10675
X5.60813 Y9.08392
X5.66259 Y9.07287
X6.69390 Y9.07287
X6.74384 Y9.08224
X6.77879 Y9.10475
X6.80160 Y9.13812
X6.81270 Y9.19283
X6.80638 Y9.88719
X6.83157 Y9.95140
X6.88405 Y10.00985
X6.91580 Y10.08648
X6.91580 Y10.14714
X6.80777 Y10.14881
X6.80015 Y10.08953
X6.77846 Y10.05709
X6.74603 Y10.03540
X6.70777 Y10.02781
X5.64778 Y10.02781
X5.60950 Y10.03540
X5.57707 Y10.05709
X5.55538 Y10.08953
X5.54778 Y10.14881
X5.44143 Y10.14881
X5.43978 Y10.08638
X5.47145 Y10.00987
X5.53003 Y9.93522
X5.54148 Y9.87779
X5.52423 Y9.80861
X5.46635 Y9.74798
X5.39134 Y9.72781
X4.71819 Y9.73068
X4.64905 Y9.76550
X4.62284 Y9.79441
X4.60041 Y9.84846
X4.59978 Y9.90350
X4.61974 Y9.95272
X4.69398 Y10.32577
X4.62086 Y10.69336
X4.41260 Y11.00505
X4.10097 Y11.21328
X3.87547 Y11.26476
X3.71840 Y11.28940
X1.69325 Y11.28940
X1.58345 Y11.27921
X1.52940 Y11.30164
X1.50049 Y11.32786
X1.46707 Y11.39738
X1.46707 Y11.79420
X1.48297 Y11.84007
X1.50773 Y11.87025
X1.54362 Y11.89798
X1.59747 Y11.91371
X1.69221 Y11.90217
X3.71862 Y11.90217
X4.10092 Y11.97820
X4.41255 Y12.18643
X4.62081 Y12.49811
X4.64760 Y12.57411
X4.68898 Y12.61548
X4.74306 Y12.63789
X6.78687 Y12.63814
X6.86556 Y12.59676
X7.71656 Y11.74193
X7.74287 Y11.65734
X7.74287 Y11.37921
X7.73142 Y11.32173
X7.71130 Y11.28823
X7.67536 Y11.25567
X7.61890 Y11.23149
X7.56360 Y11.23207
X7.50963 Y11.25440
X7.20866 Y11.55130
X7.15400 Y11.59189
X7.12451 Y11.60929
X7.05804 Y11.62349
X6.92405 Y11.63215
X6.86147 Y11.65933
X6.82024 Y11.70908
X6.80386 Y11.76293
X6.78080 Y11.79877
X6.74740 Y11.82161
X6.69269 Y11.83271
X5.66188 Y11.83271
X5.61169 Y11.82328
X5.57674 Y11.80078
X5.55393 Y11.76740
X5.54288 Y11.71292
X5.54915 Y11.01823
X5.52396 Y10.95407
X5.47148 Y10.89567
X5.43978 Y10.81919
X5.43978 Y10.75836
X5.54778 Y10.75676
X5.55538 Y10.81605
X5.57707 Y10.84848
X5.60950 Y10.87017
X5.64778 Y10.87779
X6.70777 Y10.87779
X6.74603 Y10.87017
X6.77846 Y10.84848
X6.80015 Y10.81605
X6.80777 Y10.75676
X6.91417 Y10.75676
X6.91872 Y10.87520
X6.94105 Y10.92895
X6.99373 Y10.97688
X7.06906 Y10.99557
X7.12322 Y10.98419
X7.17181 Y10.95168
X7.25974 Y10.86225
X7.29141 Y10.79481
G04 P0 ( dwell for no time -- G64 should not smooth over this point )
G00 Z2.00000 ( retract )

G00 X9.55511 Y13.05064 ( rapid move to begin. )
F100.00000
G01 Z-0.21000
G04 P0 ( dwell for no time -- G64 should not smooth over this point )
F200.00000
G01 X9.55511 Y13.05064
X9.65511 Y12.98101
X9.72644 Y12.90926
X9.75847 Y12.82811
X9.76337 Y12.77390
X9.76101 Y10.68412
X9.75087 Y10.61973
X9.73220 Y10.57467
X9.68722 Y10.51216
X9.46990 Y10.29783
X9.39484 Y10.24736
X9.29522 Y10.22781
X9.00779 Y10.22781
X9.00017 Y10.08953
X8.96334 Y10.04465
X8.92730 Y10.02971
X7.82827 Y10.02971
X7.79223 Y10.04465
X7.76464 Y10.07223
X7.74780 Y10.12781
X7.74780 Y10.77779
X7.76464 Y10.83334
X7.80952 Y10.87017
X7.84780 Y10.87779
X8.92730 Y10.87586
X8.96334 Y10.86093
X9.00017 Y10.81605
X9.00779 Y10.67779
X9.21663 Y10.67779
X9.31341 Y10.77457
X9.31341 Y12.67058
X6.37778 Y14.71403
X6.37016 Y14.56752
X6.33333 Y14.52264
X6.29728 Y14.50771
X5.27778 Y14.50580
X5.22220 Y14.52264
X5.18537 Y14.56752
X5.17778 Y14.60580
X5.17778 Y15.18081
X4.62807 Y15.18081
X4.55238 Y14.97258
X4.45995 Y14.82429
X4.32716 Y14.68165
X4.15070 Y14.55884
X3.97082 Y14.48386
X3.79965 Y14.44868
X1.71962 Y14.44220
X1.53544 Y14.46039
X1.33031 Y14.52475
X1.16092 Y14.62112
X1.01441 Y14.74962
X0.89676 Y14.90494
X0.81276 Y15.08081
X0.76595 Y15.26996
X0.75810 Y15.46468
X0.78965 Y15.65698
X0.85919 Y15.83900
X0.95163 Y15.98728
X1.08442 Y16.12993
X1.26087 Y16.25274
X1.42145 Y16.32165
X1.59376 Y16.35916
X3.69195 Y16.36937
X3.89404 Y16.34100
X4.08126 Y16.28682
X4.25065 Y16.19046
X4.38322 Y16.07664
X4.51481 Y15.90664
X4.59589 Y15.74014
X4.62398 Y15.63079
X5.17778 Y15.63079
X5.17778 Y16.20580
X5.18989 Y16.25251
X5.20706 Y16.27649
X5.23950 Y16.29818
X5.27778 Y16.30580
X6.30841 Y16.30051
X6.35484 Y16.26874
X6.37778 Y16.20580
X6.37778 Y15.26229
X9.55511 Y13.05064
G04 P0 ( dwell for no time -- G64 should not smooth over this point )
G00 Z2.00000 ( retract )

G00 X9.31915 Y14.39778 ( rapid move to begin. )
F100.00000
G01 Z-0.21000
G04 P0 ( dwell for no time -- G64 should not smooth over this point )
F200.00000
G01 X9.31915 Y14.39778
X9.39560 Y14.42942
X9.45405 Y14.48787
X9.48580 Y14.56450
X9.48412 Y15.10181
X9.37780 Y15.10181
X9.37780 Y14.60580
X9.36093 Y14.55023
X9.33335 Y14.52264
X9.29730 Y14.50771
X9.08178 Y14.50580
X9.08336 Y14.39778
X9.31915 Y14.39778
G04 P0 ( dwell for no time -- G64 should not smooth over this point )
G00 Z2.00000 ( retract )

G00 X8.17780 Y15.10181 ( rapid move to begin. )
F100.00000
G01 Z-0.21000
G04 P0 ( dwell for no time -- G64 should not smooth over this point )
F200.00000
G01 X8.17780 Y15.10181
X8.06977 Y15.10019
X8.06977 Y14.56437
X8.10142 Y14.48792
X8.15984 Y14.42950
X8.23637 Y14.39778
X8.47218 Y14.39778
X8.47381 Y14.50580
X8.25827 Y14.50771
X8.22222 Y14.52264
X8.18539 Y14.56752
X8.17780 Y14.60580
X8.17780 Y15.10181
G04 P0 ( dwell for no time -- G64 should not smooth over this point )
G00 Z2.00000 ( retract )

G00 X8.06977 Y16.24715 ( rapid move to begin. )
F100.00000
G01 Z-0.21000
G04 P0 ( dwell for no time -- G64 should not smooth over this point )
F200.00000
G01 X8.06977 Y16.24715
X8.06977 Y15.71134
X8.17780 Y15.70976
X8.17780 Y16.20580
X8.18539 Y16.24405
X8.22222 Y16.28893
X8.25827 Y16.30387
X8.47381 Y16.30580
X8.47381 Y16.41212
X8.23650 Y16.41380
X8.15989 Y16.38207
X8.10150 Y16.32368
X8.06977 Y16.24715
G04 P0 ( dwell for no time -- G64 should not smooth over this point )
G00 Z2.00000 ( retract )

G00 X9.31905 Y16.41380 ( rapid move to begin. )
F100.00000
G01 Z-0.21000
G04 P0 ( dwell for no time -- G64 should not smooth over this point )
F200.00000
G01 X9.31905 Y16.41380
X9.08344 Y16.41380
X9.08178 Y16.30580
X9.29730 Y16.30387
X9.33335 Y16.28893
X9.36093 Y16.26135
X9.37780 Y16.20580
X9.37780 Y15.70976
X9.48415 Y15.70976
X9.48580 Y16.24702
X9.45410 Y16.32358
X9.39563 Y16.38205
X9.31905 Y16.41380
G04 P0 ( dwell for no time -- G64 should not smooth over this point )
G00 Z2.00000 ( retract )

G00 X4.01720 Y11.96156 ( rapid move to begin. )
F100.00000
G01 Z-0.21000
G04 P0 ( dwell for no time -- G64 should not smooth over this point )
F200.00000
G01 X4.01720 Y11.96156
X3.74080 Y11.90657
X1.71962 Y11.90220
X1.53544 Y11.92039
X1.34891 Y11.97677
X1.17753 Y12.06956
X1.02836 Y12.19494
X0.90745 Y12.34779
X0.81980 Y12.52181
X0.76900 Y12.70997
X0.75709 Y12.90446
X0.78457 Y13.09740
X0.85030 Y13.28084
X0.95163 Y13.44728
X1.09976 Y13.60311
X1.24317 Y13.70293
X1.42145 Y13.78165
X1.61192 Y13.82290
X3.69195 Y13.82937
X3.87613 Y13.81119
X4.06267 Y13.75480
X4.25065 Y13.65046
X4.38322 Y13.53664
X4.50412 Y13.38378
X4.59589 Y13.20014
X4.62398 Y13.09079
X6.91478 Y13.09079
X6.98212 Y13.07934
X7.07384 Y13.02485
X8.27091 Y11.82778
X8.90779 Y11.82778
X8.94605 Y11.82016
X8.97848 Y11.79847
X9.00017 Y11.76603
X9.00779 Y11.72778
X9.00586 Y11.05826
X8.99093 Y11.02222
X8.96334 Y10.99463
X8.90779 Y10.97779
X7.84780 Y10.97779
X7.79223 Y10.99463
X7.75540 Y11.03951
X7.74780 Y11.07779
X7.74780 Y11.71457
X6.82157 Y12.64081
X4.62807 Y12.64081
X4.56127 Y12.45074
X4.44755 Y12.26829
X4.31182 Y12.12846
X4.16841 Y12.02864
X4.01720 Y11.96156
G04 P0 ( dwell for no time -- G64 should not smooth over this point )
G00 Z2.00000 ( retract )

G00 X3.54324 Y9.27780 ( rapid move to begin. )
F100.00000
G01 Z-0.21000
G04 P0 ( dwell for no time -- G64 should not smooth over this point )
F200.00000
G01 X3.54324 Y9.27780
X3.44367 Y9.29735
X3.34908 Y9.36571
X1.71962 Y9.36220
X1.51563 Y9.38445
X1.33031 Y9.44475
X1.16092 Y9.54112
X1.01441 Y9.66962
X0.89676 Y9.82494
X0.81276 Y10.00081
X0.76595 Y10.18996
X0.75810 Y10.38468
X0.78965 Y10.57698
X0.85919 Y10.75900
X0.96402 Y10.92328
X1.09976 Y11.06311
X1.26087 Y11.17274
X1.42145 Y11.24165
X1.59369 Y11.27914
X3.69195 Y11.28937
X3.87547 Y11.26476
X4.06267 Y11.21480
X4.25065 Y11.11046
X4.38322 Y10.99664
X4.50412 Y10.84378
X4.59178 Y10.66977
X4.64565 Y10.46161
X4.65350 Y10.26690
X4.62703 Y10.09418
X4.55238 Y9.89258
X4.44707 Y9.72778
X5.54778 Y9.72778
X5.55538 Y9.86603
X5.59221 Y9.91092
X5.64778 Y9.92778
X6.70777 Y9.92778
X6.76332 Y9.91092
X6.79091 Y9.88333
X6.80584 Y9.84729
X6.80691 Y9.16896
X6.80015 Y9.13952
X6.77846 Y9.10708
X6.72106 Y9.07909
X5.63864 Y9.07869
X5.58283 Y9.10233
X5.55538 Y9.13952
X5.54778 Y9.27780
X3.54324 Y9.27780
G04 P0 ( dwell for no time -- G64 should not smooth over this point )
G00 Z2.00000 ( retract )

G00 X3.01139 Y8.85740 ( rapid move to begin. )
F100.00000
G01 Z-0.21000
G04 P0 ( dwell for no time -- G64 should not smooth over this point )
F200.00000
G01 X3.01139 Y8.85740
X3.00976 Y8.74940
X4.55578 Y8.74940
X4.59404 Y8.74178
X4.63892 Y8.70495
X4.65578 Y8.64940
X4.65578 Y8.08976
X4.76381 Y8.09139
X4.76381 Y8.69062
X4.73208 Y8.76723
X4.67369 Y8.82563
X4.59703 Y8.85740
X3.01139 Y8.85740
G04 P0 ( dwell for no time -- G64 should not smooth over this point )
G00 Z2.00000 ( retract )

G00 X3.00976 Y6.82220 ( rapid move to begin. )
F100.00000
G01 Z-0.21000
G04 P0 ( dwell for no time -- G64 should not smooth over this point )
F200.00000
G01 X3.00976 Y6.82220
X3.01134 Y6.71417
X4.59716 Y6.71417
X4.67361 Y6.74582
X4.73203 Y6.80424
X4.76381 Y6.88090
X4.76381 Y7.48014
X4.65578 Y7.48181
X4.65578 Y6.92220
X4.63892 Y6.86662
X4.59404 Y6.82979
X4.55578 Y6.82220
X3.00976 Y6.82220
( Piece #2, position [1;0] )

G04 P0 ( dwell for no time -- G64 should not smooth over this point )
G00 Z2.00000 ( retract )

G00 X30.32711 Y3.34578 ( rapid move to begin. )
F100.00000
G01 Z-0.21000
G04 P0 ( dwell for no time -- G64 should not smooth over this point )
F200.00000
G01 X30.32711 Y3.34578
X30.27382 Y2.82617
X30.10907 Y2.31380
X29.84512 Y1.85663
X29.49932 Y1.47177
X29.05556 Y1.14934
X28.58264 Y0.93938
X28.05587 Y0.82912
X27.53847 Y0.82965
X27.02211 Y0.93938
X26.54924 Y1.14934
X26.12097 Y1.45777
X25.75966 Y1.85663
X25.49570 Y2.31380
X25.33530 Y2.80572
X25.27794 Y3.33034
X25.33095 Y3.85540
X25.49570 Y4.36775
X25.75963 Y4.82492
X26.10545 Y5.20981
X26.54921 Y5.53224
X27.02211 Y5.74219
X27.54893 Y5.85248
X28.07664 Y5.85027
X28.58264 Y5.74219
X29.06486 Y5.52749
X29.49932 Y5.20981
X29.84514 Y4.82495
X30.10907 Y4.36777
X30.27219 Y3.86574
X30.32711 Y3.34578
G04 P0 ( dwell for no time -- G64 should not smooth over this point )
G00 Z2.00000 ( retract )

G00 X31.01029 Y5.53343 ( rapid move to begin. )
F100.00000
G01 Z-0.21000
G04 P0 ( dwell for no time -- G64 should not smooth over this point )
F200.00000
G01 X31.01029 Y5.53343
X31.03389 Y5.58913
X31.07113 Y5.61667
X31.10940 Y5.62429
X31.28926 Y5.62429
X31.22373 Y6.50480
X30.87323 Y6.50569
X30.84410 Y6.51240
X30.81166 Y6.53409
X30.78576 Y6.58044
X30.78324 Y8.21374
X30.78997 Y8.24305
X30.81166 Y8.27549
X30.86970 Y8.30353
X31.55190 Y8.30480
X31.75571 Y8.74396
X31.75571 Y10.82946
X31.40740 Y11.17779
X31.26937 Y11.17779
X31.26175 Y11.03951
X31.22492 Y10.99463
X31.18888 Y10.97970
X30.10938 Y10.97779
X30.05380 Y10.99463
X30.01697 Y11.03951
X30.00938 Y11.07779
X30.00938 Y11.72778
X30.01697 Y11.76603
X30.03867 Y11.79847
X30.09637 Y11.82648
X31.16937 Y11.82778
X31.20762 Y11.82016
X31.24006 Y11.79847
X31.26175 Y11.76603
X31.26937 Y11.62778
X31.50059 Y11.62631
X31.58611 Y11.60929
X31.63856 Y11.57573
X32.13953 Y11.08201
X32.18654 Y11.01328
X32.20219 Y10.96179
X32.20541 Y8.68697
X32.18476 Y8.59954
X31.98238 Y8.16340
X31.98151 Y6.59594
X31.97476 Y6.56652
X31.95306 Y6.53409
X31.90673 Y6.50818
X31.67493 Y6.50480
X31.74044 Y5.62429
X32.03981 Y5.61905
X32.08006 Y5.59497
X32.10808 Y5.53726
X32.10938 Y3.82431
X32.09251 Y3.76874
X32.06493 Y3.74115
X32.03003 Y3.72658
X32.03137 Y3.02307
X35.44795 Y3.02335
X35.44940 Y17.21077
X35.46878 Y17.29614
X35.48590 Y17.32586
X35.53822 Y17.37702
X35.60551 Y17.40582
X35.64940 Y17.41077
X46.75237 Y17.41077
X46.83774 Y17.39134
X46.91582 Y17.32586
X46.93889 Y17.28271
X46.95237 Y17.21077
X46.95237 Y2.04380
X46.93033 Y1.95315
X46.86990 Y1.88195
X46.81410 Y1.85355
X46.75237 Y1.84380
X31.22408 Y1.84868
X31.15675 Y1.87748
X31.10440 Y1.92864
X31.08131 Y1.97184
X31.06790 Y2.04380
X31.06790 Y3.73361
X31.02624 Y3.76874
X31.00940 Y3.82431
X31.01029 Y5.53343
G04 P0 ( dwell for no time -- G64 should not smooth over this point )
G00 Z2.00000 ( retract )

G00 X32.91329 Y6.07536 ( rapid move to begin. )
F100.00000
G01 Z-0.21000
G04 P0 ( dwell for no time -- G64 should not smooth over this point )
F200.00000
G01 X32.91329 Y6.07536
X33.90940 Y5.32825
X33.91130 Y5.54379
X33.93868 Y5.59497
X33.98484 Y5.62081
X34.90937 Y5.62429
X34.94762 Y5.61667
X34.98006 Y5.59497
X35.00175 Y5.56254
X35.00937 Y5.52429
X35.00937 Y3.82431
X35.00175 Y3.78604
X34.98006 Y3.75360
X34.94762 Y3.73191
X34.90937 Y3.72431
X34.00940 Y3.72431
X33.97112 Y3.73191
X33.93868 Y3.75360
X33.91699 Y3.78604
X33.90940 Y3.82431
X33.90940 Y4.76574
X32.50450 Y5.81943
X32.47003 Y5.85022
X32.42357 Y5.91684
X32.40341 Y6.02159
X32.40341 Y9.07780
X32.27112 Y9.08539
X32.22624 Y9.12222
X32.20940 Y9.17780
X32.21131 Y9.84729
X32.23869 Y9.89847
X32.28987 Y9.92585
X33.36939 Y9.92778
X33.40765 Y9.92016
X33.44008 Y9.89847
X33.46812 Y9.84046
X33.46939 Y9.17780
X33.46177 Y9.13952
X33.44483 Y9.11285
X33.40765 Y9.08539
X33.36939 Y9.07780
X32.85339 Y9.07780
X32.85339 Y6.12027
X32.91329 Y6.07536
G04 P0 ( dwell for no time -- G64 should not smooth over this point )
G00 Z2.00000 ( retract )

G00 X33.76444 Y6.42850 ( rapid move to begin. )
F100.00000
G01 Z-0.21000
G04 P0 ( dwell for no time -- G64 should not smooth over this point )
F200.00000
G01 X33.76444 Y6.42850
X33.84097 Y6.39678
X34.07678 Y6.39678
X34.07841 Y6.50480
X33.86286 Y6.50671
X33.82682 Y6.52164
X33.79924 Y6.54923
X33.78240 Y6.60480
X33.78240 Y7.10081
X33.67600 Y7.10081
X33.67437 Y6.56337
X33.70602 Y6.48692
X33.76444 Y6.42850
G04 P0 ( dwell for no time -- G64 should not smooth over this point )
G00 Z2.00000 ( retract )

G00 X34.68638 Y6.39838 ( rapid move to begin. )
F100.00000
G01 Z-0.21000
G04 P0 ( dwell for no time -- G64 should not smooth over this point )
F200.00000
G01 X34.68638 Y6.39838
X34.92375 Y6.39678
X35.00020 Y6.42842
X35.05865 Y6.48687
X35.09040 Y6.56350
X35.08872 Y7.10081
X34.98240 Y7.10081
X34.98240 Y6.60480
X34.96553 Y6.54923
X34.93795 Y6.52164
X34.90190 Y6.50671
X34.68638 Y6.50480
X34.68638 Y6.39838
G04 P0 ( dwell for no time -- G64 should not smooth over this point )
G00 Z2.00000 ( retract )

G00 X35.09040 Y7.71039 ( rapid move to begin. )
F100.00000
G01 Z-0.21000
G04 P0 ( dwell for no time -- G64 should not smooth over this point )
F200.00000
G01 X35.09040 Y7.71039
X35.09040 Y8.24602
X35.05870 Y8.32258
X35.00023 Y8.38105
X34.92364 Y8.41280
X34.68803 Y8.41280
X34.68638 Y8.30480
X34.90190 Y8.30287
X34.93795 Y8.28793
X34.96553 Y8.26035
X34.98240 Y8.20480
X34.98240 Y7.70876
X35.09040 Y7.71039
G04 P0 ( dwell for no time -- G64 should not smooth over this point )
G00 Z2.00000 ( retract )

G00 X33.76449 Y8.38107 ( rapid move to begin. )
F100.00000
G01 Z-0.21000
G04 P0 ( dwell for no time -- G64 should not smooth over this point )
F200.00000
G01 X33.76449 Y8.38107
X33.70610 Y8.32268
X33.67437 Y8.24615
X33.67437 Y8.07452
X33.66380 Y8.01943
X33.67437 Y7.96992
X33.67595 Y7.70876
X33.78240 Y7.70876
X33.78240 Y8.20480
X33.79924 Y8.26035
X33.82682 Y8.28793
X33.86286 Y8.30287
X34.07841 Y8.30480
X34.07673 Y8.41280
X33.84110 Y8.41280
X33.76449 Y8.38107
G04 P0 ( dwell for no time -- G64 should not smooth over this point )
G00 Z2.00000 ( retract )

G00 X31.75301 Y10.79481 ( rapid move to begin. )
F100.00000
G01 Z-0.21000
G04 P0 ( dwell for no time -- G64 should not smooth over this point )
F200.00000
G01 X31.75301 Y10.79481
X31.75566 Y8.77706
X31.74575 Y8.72395
X31.59447 Y8.39652
X31.53084 Y8.32852
X31.45842 Y8.30970
X30.89658 Y8.30970
X30.84623 Y8.30025
X30.81136 Y8.27780
X30.78852 Y8.24440
X30.77748 Y8.18994
X30.77748 Y6.61872
X30.78687 Y6.56863
X30.80933 Y6.53376
X30.84273 Y6.51092
X30.89752 Y6.49982
X31.11291 Y6.49718
X31.16462 Y6.47686
X31.21227 Y6.42842
X31.23440 Y6.36101
X31.27687 Y5.79030
X31.26056 Y5.71075
X31.23597 Y5.67808
X31.18169 Y5.63945
X31.07247 Y5.61923
X31.03836 Y5.59729
X31.01552 Y5.56388
X31.00448 Y5.50943
X31.01464 Y1.79046
X47.00566 Y1.79056
X47.00556 Y17.46406
X35.39606 Y17.46396
X35.39248 Y3.17100
X35.37008 Y3.11692
X35.33137 Y3.07740
X35.24539 Y3.05030
X32.23389 Y3.05030
X32.17646 Y3.06168
X32.12782 Y3.09422
X32.09528 Y3.14286
X32.08390 Y3.20029
X32.08390 Y3.71001
X32.11430 Y3.83938
X32.11430 Y5.51014
X32.10488 Y5.56033
X32.08238 Y5.59530
X32.04900 Y5.61811
X31.99401 Y5.62924
X31.83363 Y5.63691
X31.78946 Y5.65941
X31.74290 Y5.71694
X31.72980 Y5.76800
X31.68733 Y6.33871
X31.70361 Y6.41819
X31.75101 Y6.47087
X31.79642 Y6.49355
X31.91849 Y6.50927
X31.95337 Y6.53173
X31.97620 Y6.56513
X31.98730 Y6.61984
X31.98837 Y7.97264
X32.00582 Y8.02967
X32.02459 Y8.05606
X32.05322 Y8.08227
X32.10689 Y8.10493
X32.29429 Y8.10305
X32.36564 Y8.05824
X32.40059 Y7.98687
X32.40333 Y6.02192
X32.40783 Y5.97704
X32.43320 Y5.89894
X32.50460 Y5.81931
X33.84445 Y4.81443
X33.88014 Y4.77631
X33.90447 Y4.69447
X33.90447 Y3.83813
X33.91384 Y3.78820
X33.93635 Y3.75322
X33.96972 Y3.73041
X34.02415 Y3.71939
X34.89540 Y3.71939
X34.94549 Y3.72878
X34.98036 Y3.75124
X35.00320 Y3.78464
X35.01430 Y3.83935
X35.01430 Y5.51004
X35.00485 Y5.56038
X34.98240 Y5.59528
X34.94899 Y5.61811
X34.89433 Y5.62919
X34.02360 Y5.62919
X33.97323 Y5.61974
X33.93884 Y5.59762
X33.87803 Y5.51024
X33.84481 Y5.48659
X33.79746 Y5.47122
X33.73444 Y5.47290
X33.68341 Y5.49774
X32.91339 Y6.07526
X32.86873 Y6.12967
X32.85339 Y6.19528
X32.85339 Y7.96548
X32.86459 Y8.01732
X32.85339 Y8.06901
X32.85446 Y8.93759
X32.87209 Y8.99481
X32.89109 Y9.02133
X32.92002 Y9.04757
X32.97397 Y9.06995
X33.35525 Y9.07282
X33.40544 Y9.08224
X33.44039 Y9.10475
X33.46320 Y9.13812
X33.47430 Y9.19283
X33.47430 Y9.81353
X33.46482 Y9.86398
X33.43155 Y9.92351
X33.41984 Y9.98338
X33.43147 Y10.03629
X33.46355 Y10.08813
X33.47607 Y10.13642
X33.51806 Y10.19260
X33.57211 Y10.22146
X33.77140 Y10.22923
X33.87805 Y10.25892
X33.94100 Y10.30416
X34.14851 Y10.51168
X34.20536 Y10.59626
X34.22499 Y10.69634
X34.22499 Y12.77360
X34.20526 Y12.87378
X34.18804 Y12.90926
X34.11666 Y12.98109
X30.88659 Y15.23280
X30.85528 Y15.28088
X30.84430 Y15.33725
X30.84430 Y16.19165
X30.83488 Y16.24184
X30.81238 Y16.27679
X30.77900 Y16.29960
X30.72429 Y16.31070
X29.75358 Y16.31070
X29.70323 Y16.30125
X29.66836 Y16.27880
X29.64552 Y16.24540
X29.63448 Y16.19094
X29.63448 Y15.78078
X29.62173 Y15.72393
X29.60334 Y15.68954
X29.55358 Y15.64794
X29.50389 Y15.63267
X29.23394 Y15.63079
X29.16191 Y15.64949
X29.10925 Y15.69739
X29.08246 Y15.77336
X28.87420 Y16.08505
X28.56257 Y16.29328
X28.35564 Y16.34100
X28.18000 Y16.36940
X26.15414 Y16.36940
X26.05247 Y16.35909
X25.99948 Y16.37656
X25.94157 Y16.43719
X25.92440 Y16.50636
X25.92440 Y18.33079
X25.93578 Y18.38814
X25.96829 Y18.43681
X26.01691 Y18.46932
X26.07439 Y18.48077
X47.87239 Y18.48077
X47.94153 Y18.46353
X48.00210 Y18.40569
X48.02237 Y18.33079
X48.02237 Y1.05079
X47.99758 Y0.96844
X47.93960 Y0.91683
X47.87236 Y0.90080
X29.25523 Y0.90174
X29.18248 Y0.92724
X29.15236 Y0.95198
X29.11731 Y1.02473
X29.12127 Y1.09267
X29.15035 Y1.14705
X29.19051 Y1.18020
X29.23074 Y1.19887
X29.94169 Y1.90854
X30.32693 Y2.83636
X30.32787 Y3.84075
X29.94425 Y4.76914
X29.23458 Y5.48009
X28.30677 Y5.86533
X27.30237 Y5.86627
X26.37398 Y5.48265
X25.66303 Y4.77298
X25.64162 Y4.72647
X25.60847 Y4.68649
X25.55412 Y4.65749
X25.52194 Y4.65223
X25.47037 Y4.65756
X25.41609 Y4.68659
X25.37375 Y4.74395
X25.36240 Y4.80127
X25.36240 Y6.37450
X25.37485 Y6.43074
X25.39290 Y6.46492
X25.44193 Y6.50658
X25.49105 Y6.52230
X25.92483 Y6.53104
X25.93075 Y6.60640
X25.96171 Y6.66294
X25.99186 Y6.68768
X26.04822 Y6.71184
X26.86171 Y6.71410
X26.86341 Y6.82220
X25.31742 Y6.82220
X25.27914 Y6.82979
X25.24673 Y6.85149
X25.22504 Y6.88392
X25.21742 Y6.92220
X25.21935 Y8.66891
X25.23428 Y8.70495
X25.26187 Y8.73253
X25.31742 Y8.74940
X26.86341 Y8.74940
X26.86174 Y8.85740
X26.07439 Y8.85740
X26.01762 Y8.87008
X25.98318 Y8.88846
X25.94157 Y8.93822
X25.92628 Y8.98798
X25.92628 Y9.24462
X25.94154 Y9.29431
X25.96931 Y9.33022
X25.99948 Y9.35496
X26.05475 Y9.37294
X26.15381 Y9.36217
X27.76328 Y9.36217
X27.83095 Y9.34523
X27.90527 Y9.29735
X28.00504 Y9.27777
X29.86389 Y9.27777
X29.95043 Y9.25021
X29.98782 Y9.21219
X30.01182 Y9.14480
X30.03630 Y9.10675
X30.06973 Y9.08392
X30.12419 Y9.07287
X31.15550 Y9.07287
X31.20544 Y9.08224
X31.24039 Y9.10475
X31.26320 Y9.13812
X31.27430 Y9.19283
X31.26798 Y9.88719
X31.29317 Y9.95140
X31.34565 Y10.00985
X31.37740 Y10.08648
X31.37740 Y10.14714
X31.26937 Y10.14881
X31.26175 Y10.08953
X31.24006 Y10.05709
X31.20762 Y10.03540
X31.16937 Y10.02781
X30.10938 Y10.02781
X30.07110 Y10.03540
X30.03867 Y10.05709
X30.01697 Y10.08953
X30.00938 Y10.14881
X29.90303 Y10.14881
X29.90138 Y10.08638
X29.93305 Y10.00987
X29.99163 Y9.93522
X30.00308 Y9.87779
X29.98583 Y9.80861
X29.92795 Y9.74798
X29.85294 Y9.72781
X29.17979 Y9.73068
X29.11065 Y9.76550
X29.08444 Y9.79441
X29.06201 Y9.84846
X29.06138 Y9.90350
X29.08134 Y9.95272
X29.15558 Y10.32577
X29.08246 Y10.69336
X28.87420 Y11.00505
X28.56257 Y11.21328
X28.33707 Y11.26476
X28.18000 Y11.28940
X26.15485 Y11.28940
X26.04505 Y11.27921
X25.99100 Y11.30164
X25.96209 Y11.32786
X25.92867 Y11.39738
X25.92867 Y11.79420
X25.94457 Y11.84007
X25.96933 Y11.87025
X26.00522 Y11.89798
X26.05907 Y11.91371
X26.15381 Y11.90217
X28.18022 Y11.90217
X28.56252 Y11.97820
X28.87415 Y12.18643
X29.08241 Y12.49811
X29.10920 Y12.57411
X29.15058 Y12.61548
X29.20466 Y12.63789
X31.24847 Y12.63814
X31.32716 Y12.59676
X32.17816 Y11.74193
X32.20447 Y11.65734
X32.20447 Y11.37921
X32.19302 Y11.32173
X32.17290 Y11.28823
X32.13696 Y11.25567
X32.08050 Y11.23149
X32.02520 Y11.23207
X31.97123 Y11.25440
X31.67026 Y11.55130
X31.61560 Y11.59189
X31.58611 Y11.60929
X31.51964 Y11.62349
X31.38565 Y11.63215
X31.32307 Y11.65933
X31.28184 Y11.70908
X31.26546 Y11.76293
X31.24240 Y11.79877
X31.20900 Y11.82161
X31.15428 Y11.83271
X30.12348 Y11.83271
X30.07329 Y11.82328
X30.03834 Y11.80078
X30.01553 Y11.76740
X30.00448 Y11.71292
X30.01075 Y11.01823
X29.98555 Y10.95407
X29.93308 Y10.89567
X29.90138 Y10.81919
X29.90138 Y10.75836
X30.00938 Y10.75676
X30.01697 Y10.81605
X30.03867 Y10.84848
X30.07110 Y10.87017
X30.10938 Y10.87779
X31.16937 Y10.87779
X31.20762 Y10.87017
X31.24006 Y10.84848
X31.26175 Y10.81605
X31.26937 Y10.75676
X31.37577 Y10.75676
X31.38032 Y10.87520
X31.40265 Y10.92895
X31.45533 Y10.97688
X31.53066 Y10.99557
X31.58481 Y10.98419
X31.63341 Y10.95168
X31.72134 Y10.86225
X31.75301 Y10.79481
G04 P0 ( dwell for no time -- G64 should not smooth over this point )
G00 Z2.00000 ( retract )

G00 X34.01671 Y13.05064 ( rapid move to begin. )
F100.00000
G01 Z-0.21000
G04 P0 ( dwell for no time -- G64 should not smooth over this point )
F200.00000
G01 X34.01671 Y13.05064
X34.11671 Y12.98101
X34.18804 Y12.90926
X34.22006 Y12.82811
X34.22497 Y12.77390
X34.22260 Y10.68412
X34.21247 Y10.61973
X34.19380 Y10.57467
X34.14882 Y10.51216
X33.93150 Y10.29783
X33.85644 Y10.24736
X33.75682 Y10.22781
X33.46939 Y10.22781
X33.46177 Y10.08953
X33.42494 Y10.04465
X33.38890 Y10.02971
X32.28987 Y10.02971
X32.25383 Y10.04465
X32.22624 Y10.07223
X32.20940 Y10.12781
X32.20940 Y10.77779
X32.22624 Y10.83334
X32.27112 Y10.87017
X32.30940 Y10.87779
X33.38890 Y10.87586
X33.42494 Y10.86093
X33.46177 Y10.81605
X33.46939 Y10.67779
X33.67823 Y10.67779
X33.77501 Y10.77457
X33.77501 Y12.67058
X30.83938 Y14.71403
X30.83176 Y14.56752
X30.79493 Y14.52264
X30.75888 Y14.50771
X29.73938 Y14.50580
X29.68380 Y14.52264
X29.64697 Y14.56752
X29.63938 Y14.60580
X29.63938 Y15.18081
X29.08967 Y15.18081
X29.01398 Y14.97258
X28.92155 Y14.82429
X28.78876 Y14.68165
X28.61230 Y14.55884
X28.43242 Y14.48386
X28.26125 Y14.44868
X26.18122 Y14.44220
X25.99704 Y14.46039
X25.79191 Y14.52475
X25.62252 Y14.62112
X25.47601 Y14.74962
X25.35836 Y14.90494
X25.27436 Y15.08081
X25.22755 Y15.26996
X25.21970 Y15.46468
X25.25125 Y15.65698
X25.32079 Y15.83900
X25.41322 Y15.98728
X25.54602 Y16.12993
X25.72247 Y16.25274
X25.88305 Y16.32165
X26.05536 Y16.35916
X28.15355 Y16.36937
X28.35564 Y16.34100
X28.54286 Y16.28682
X28.71225 Y16.19046
X28.84482 Y16.07664
X28.97641 Y15.90664
X29.05749 Y15.74014
X29.08558 Y15.63079
X29.63938 Y15.63079
X29.63938 Y16.20580
X29.65149 Y16.25251
X29.66866 Y16.27649
X29.70110 Y16.29818
X29.73938 Y16.30580
X30.77001 Y16.30051
X30.81644 Y16.26874
X30.83938 Y16.20580
X30.83938 Y15.26229
X34.01671 Y13.05064
G04 P0 ( dwell for no time -- G64 should not smooth over this point )
G00 Z2.00000 ( retract )

G00 X33.78075 Y14.39778 ( rapid move to begin. )
F100.00000
G01 Z-0.21000
G04 P0 ( dwell for no time -- G64 should not smooth over this point )
F200.00000
G01 X33.78075 Y14.39778
X33.85720 Y14.42942
X33.91565 Y14.48787
X33.94740 Y14.56450
X33.94572 Y15.10181
X33.83940 Y15.10181
X33.83940 Y14.60580
X33.82253 Y14.55023
X33.79495 Y14.52264
X33.75890 Y14.50771
X33.54338 Y14.50580
X33.54496 Y14.39778
X33.78075 Y14.39778
G04 P0 ( dwell for no time -- G64 should not smooth over this point )
G00 Z2.00000 ( retract )

G00 X32.63940 Y15.10181 ( rapid move to begin. )
F100.00000
G01 Z-0.21000
G04 P0 ( dwell for no time -- G64 should not smooth over this point )
F200.00000
G01 X32.63940 Y15.10181
X32.53137 Y15.10019
X32.53137 Y14.56437
X32.56302 Y14.48792
X32.62144 Y14.42950
X32.69797 Y14.39778
X32.93378 Y14.39778
X32.93541 Y14.50580
X32.71986 Y14.50771
X32.68382 Y14.52264
X32.64699 Y14.56752
X32.63940 Y14.60580
X32.63940 Y15.10181
G04 P0 ( dwell for no time -- G64 should not smooth over this point )
G00 Z2.00000 ( retract )

G00 X32.53137 Y16.24715 ( rapid move to begin. )
F100.00000
G01 Z-0.21000
G04 P0 ( dwell for no time -- G64 should not smooth over this point )
F200.00000
G01 X32.53137 Y16.24715
X32.53137 Y15.71134
X32.63940 Y15.70976
X32.63940 Y16.20580
X32.64699 Y16.24405
X32.68382 Y16.28893
X32.71986 Y16.30387
X32.93541 Y16.30580
X32.93541 Y16.41212
X32.69810 Y16.41380
X32.62149 Y16.38207
X32.56310 Y16.32368
X32.53137 Y16.24715
G04 P0 ( dwell for no time -- G64 should not smooth over this point )
G00 Z2.00000 ( retract )

G00 X33.78064 Y16.41380 ( rapid move to begin. )
F100.00000
G01 Z-0.21000
G04 P0 ( dwell for no time -- G64 should not smooth over this point )
F200.00000
G01 X33.78064 Y16.41380
X33.54503 Y16.41380
X33.54338 Y16.30580
X33.75890 Y16.30387
X33.79495 Y16.28893
X33.82253 Y16.26135
X33.83940 Y16.20580
X33.83940 Y15.70976
X33.94574 Y15.70976
X33.94740 Y16.24702
X33.91570 Y16.32358
X33.85723 Y16.38205
X33.78064 Y16.41380
G04 P0 ( dwell for no time -- G64 should not smooth over this point )
G00 Z2.00000 ( retract )

G00 X28.47880 Y11.96156 ( rapid move to begin. )
F100.00000
G01 Z-0.21000
G04 P0 ( dwell for no time -- G64 should not smooth over this point )
F200.00000
G01 X28.47880 Y11.96156
X28.20240 Y11.90657
X26.18122 Y11.90220
X25.99704 Y11.92039
X25.81051 Y11.97677
X25.63913 Y12.06956
X25.48996 Y12.19494
X25.36905 Y12.34779
X25.28140 Y12.52181
X25.23060 Y12.70997
X25.21869 Y12.90446
X25.24617 Y13.09740
X25.31190 Y13.28084
X25.41322 Y13.44728
X25.56136 Y13.60311
X25.70477 Y13.70293
X25.88305 Y13.78165
X26.07352 Y13.82290
X28.15355 Y13.82937
X28.33773 Y13.81119
X28.52427 Y13.75480
X28.71225 Y13.65046
X28.84482 Y13.53664
X28.96572 Y13.38378
X29.05749 Y13.20014
X29.08558 Y13.09079
X31.37638 Y13.09079
X31.44372 Y13.07934
X31.53544 Y13.02485
X32.73251 Y11.82778
X33.36939 Y11.82778
X33.40765 Y11.82016
X33.44008 Y11.79847
X33.46177 Y11.76603
X33.46939 Y11.72778
X33.46746 Y11.05826
X33.45253 Y11.02222
X33.42494 Y10.99463
X33.36939 Y10.97779
X32.30940 Y10.97779
X32.25383 Y10.99463
X32.21700 Y11.03951
X32.20940 Y11.07779
X32.20940 Y11.71457
X31.28316 Y12.64081
X29.08967 Y12.64081
X29.02287 Y12.45074
X28.90915 Y12.26829
X28.77342 Y12.12846
X28.63001 Y12.02864
X28.47880 Y11.96156
G04 P0 ( dwell for no time -- G64 should not smooth over this point )
G00 Z2.00000 ( retract )

G00 X28.00484 Y9.27780 ( rapid move to begin. )
F100.00000
G01 Z-0.21000
G04 P0 ( dwell for no time -- G64 should not smooth over this point )
F200.00000
G01 X28.00484 Y9.27780
X27.90527 Y9.29735
X27.81068 Y9.36571
X26.18122 Y9.36220
X25.97723 Y9.38445
X25.79191 Y9.44475
X25.62252 Y9.54112
X25.47601 Y9.66962
X25.35836 Y9.82494
X25.27436 Y10.00081
X25.22755 Y10.18996
X25.21970 Y10.38468
X25.25125 Y10.57698
X25.32079 Y10.75900
X25.42562 Y10.92328
X25.56136 Y11.06311
X25.72247 Y11.17274
X25.88305 Y11.24165
X26.05529 Y11.27914
X28.15355 Y11.28937
X28.33707 Y11.26476
X28.52427 Y11.21480
X28.71225 Y11.11046
X28.84482 Y10.99664
X28.96572 Y10.84378
X29.05337 Y10.66977
X29.10725 Y10.46161
X29.11510 Y10.26690
X29.08863 Y10.09418
X29.01398 Y9.89258
X28.90867 Y9.72778
X30.00938 Y9.72778
X30.01697 Y9.86603
X30.05380 Y9.91092
X30.10938 Y9.92778
X31.16937 Y9.92778
X31.22492 Y9.91092
X31.25251 Y9.88333
X31.26744 Y9.84729
X31.26851 Y9.16896
X31.26175 Y9.13952
X31.24006 Y9.10708
X31.18266 Y9.07909
X30.10024 Y9.07869
X30.04443 Y9.10233
X30.01697 Y9.13952
X30.00938 Y9.27780
X28.00484 Y9.27780
G04 P0 ( dwell for no time -- G64 should not smooth over this point )
G00 Z2.00000 ( retract )

G00 X27.47299 Y8.85740 ( rapid move to begin. )
F100.00000
G01 Z-0.21000
G04 P0 ( dwell for no time -- G64 should not smooth over this point )
F200.00000
G01 X27.47299 Y8.85740
X27.47136 Y8.74940
X29.01738 Y8.74940
X29.05564 Y8.74178
X29.10052 Y8.70495
X29.11738 Y8.64940
X29.11738 Y8.08976
X29.22541 Y8.09139
X29.22541 Y8.69062
X29.19368 Y8.76723
X29.13529 Y8.82563
X29.05863 Y8.85740
X27.47299 Y8.85740
G04 P0 ( dwell for no time -- G64 should not smooth over this point )
G00 Z2.00000 ( retract )

G00 X27.47136 Y6.82220 ( rapid move to begin. )
F100.00000
G01 Z-0.21000
G04 P0 ( dwell for no time -- G64 should not smooth over this point )
F200.00000
G01 X27.47136 Y6.82220
X27.47294 Y6.71417
X29.05876 Y6.71417
X29.13521 Y6.74582
X29.19363 Y6.80424
X29.22541 Y6.88090
X29.22541 Y7.48014
X29.11738 Y7.48181
X29.11738 Y6.92220
X29.10052 Y6.86662
X29.05564 Y6.82979
X29.01738 Y6.82220
X27.47136 Y6.82220
( Piece #3, position [2;0] )

G04 P0 ( dwell for no time -- G64 should not smooth over this point )
G00 Z2.00000 ( retract )

G00 X54.78871 Y3.34578 ( rapid move to begin. )
F100.00000
G01 Z-0.21000
G04 P0 ( dwell for no time -- G64 should not smooth over this point )
F200.00000
G01 X54.78871 Y3.34578
X54.73542 Y2.82617
X54.57067 Y2.31380
X54.30672 Y1.85663
X53.96092 Y1.47177
X53.51716 Y1.14934
X53.04424 Y0.93938
X52.51747 Y0.82912
X52.00007 Y0.82965
X51.48371 Y0.93938
X51.01084 Y1.14934
X50.58257 Y1.45777
X50.22125 Y1.85663
X49.95730 Y2.31380
X49.79690 Y2.80572
X49.73954 Y3.33034
X49.79255 Y3.85540
X49.95730 Y4.36775
X50.22123 Y4.82492
X50.56705 Y5.20981
X51.01081 Y5.53224
X51.48371 Y5.74219
X52.01053 Y5.85248
X52.53824 Y5.85027
X53.04424 Y5.74219
X53.52645 Y5.52749
X53.96092 Y5.20981
X54.30674 Y4.82495
X54.57067 Y4.36777
X54.73379 Y3.86574
X54.78871 Y3.34578
G04 P0 ( dwell for no time -- G64 should not smooth over this point )
G00 Z2.00000 ( retract )

G00 X55.47189 Y5.53343 ( rapid move to begin. )
F100.00000
G01 Z-0.21000
G04 P0 ( dwell for no time -- G64 should not smooth over this point )
F200.00000
G01 X55.47189 Y5.53343
X55.49549 Y5.58913
X55.53272 Y5.61667
X55.57100 Y5.62429
X55.75086 Y5.62429
X55.68533 Y6.50480
X55.33483 Y6.50569
X55.30570 Y6.51240
X55.27326 Y6.53409
X55.24736 Y6.58044
X55.24484 Y8.21374
X55.25157 Y8.24305
X55.27326 Y8.27549
X55.33130 Y8.30353
X56.01350 Y8.30480
X56.21731 Y8.74396
X56.21731 Y10.82946
X55.86900 Y11.17779
X55.73097 Y11.17779
X55.72335 Y11.03951
X55.68652 Y10.99463
X55.65048 Y10.97970
X54.57098 Y10.97779
X54.51540 Y10.99463
X54.47857 Y11.03951
X54.47098 Y11.07779
X54.47098 Y11.72778
X54.47857 Y11.76603
X54.50027 Y11.79847
X54.55797 Y11.82648
X55.63097 Y11.82778
X55.66922 Y11.82016
X55.70166 Y11.79847
X55.72335 Y11.76603
X55.73097 Y11.62778
X55.96219 Y11.62631
X56.04771 Y11.60929
X56.10016 Y11.57573
X56.60112 Y11.08201
X56.64814 Y11.01328
X56.66379 Y10.96179
X56.66701 Y8.68697
X56.64636 Y8.59954
X56.44398 Y8.16340
X56.44311 Y6.59594
X56.43636 Y6.56652
X56.41466 Y6.53409
X56.36833 Y6.50818
X56.13653 Y6.50480
X56.20204 Y5.62429
X56.50140 Y5.61905
X56.54166 Y5.59497
X56.56968 Y5.53726
X56.57098 Y3.82431
X56.55411 Y3.76874
X56.52653 Y3.74115
X56.49163 Y3.72658
X56.49297 Y3.02307
X59.90955 Y3.02335
X59.91100 Y17.21077
X59.93038 Y17.29614
X59.94750 Y17.32586
X59.99982 Y17.37702
X60.06711 Y17.40582
X60.11100 Y17.41077
X71.21397 Y17.41077
X71.29934 Y17.39134
X71.37742 Y17.32586
X71.40049 Y17.28271
X71.41397 Y17.21077
X71.41397 Y2.04380
X71.39193 Y1.95315
X71.33150 Y1.88195
X71.27570 Y1.85355
X71.21397 Y1.84380
X55.68568 Y1.84868
X55.61835 Y1.87748
X55.56600 Y1.92864
X55.54291 Y1.97184
X55.52950 Y2.04380
X55.52950 Y3.73361
X55.48784 Y3.76874
X55.47100 Y3.82431
X55.47189 Y5.53343
G04 P0 ( dwell for no time -- G64 should not smooth over this point )
G00 Z2.00000 ( retract )

G00 X57.37489 Y6.07536 ( rapid move to begin. )
F100.00000
G01 Z-0.21000
G04 P0 ( dwell for no time -- G64 should not smooth over this point )
F200.00000
G01 X57.37489 Y6.07536
X58.37100 Y5.32825
X58.37290 Y5.54379
X58.40028 Y5.59497
X58.44643 Y5.62081
X59.37097 Y5.62429
X59.40922 Y5.61667
X59.44166 Y5.59497
X59.46335 Y5.56254
X59.47097 Y5.52429
X59.47097 Y3.82431
X59.46335 Y3.78604
X59.44166 Y3.75360
X59.40922 Y3.73191
X59.37097 Y3.72431
X58.47100 Y3.72431
X58.43272 Y3.73191
X58.40028 Y3.75360
X58.37859 Y3.78604
X58.37100 Y3.82431
X58.37100 Y4.76574
X56.96610 Y5.81943
X56.93163 Y5.85022
X56.88517 Y5.91684
X56.86501 Y6.02159
X56.86501 Y9.07780
X56.73272 Y9.08539
X56.68784 Y9.12222
X56.67100 Y9.17780
X56.67291 Y9.84729
X56.70029 Y9.89847
X56.75147 Y9.92585
X57.83099 Y9.92778
X57.86925 Y9.92016
X57.90168 Y9.89847
X57.92972 Y9.84046
X57.93099 Y9.17780
X57.92337 Y9.13952
X57.90643 Y9.11285
X57.86925 Y9.08539
X57.83099 Y9.07780
X57.31499 Y9.07780
X57.31499 Y6.12027
X57.37489 Y6.07536
G04 P0 ( dwell for no time -- G64 should not smooth over this point )
G00 Z2.00000 ( retract )

G00 X58.22604 Y6.42850 ( rapid move to begin. )
F100.00000
G01 Z-0.21000
G04 P0 ( dwell for no time -- G64 should not smooth over this point )
F200.00000
G01 X58.22604 Y6.42850
X58.30257 Y6.39678
X58.53838 Y6.39678
X58.54001 Y6.50480
X58.32446 Y6.50671
X58.28842 Y6.52164
X58.26084 Y6.54923
X58.24400 Y6.60480
X58.24400 Y7.10081
X58.13760 Y7.10081
X58.13597 Y6.56337
X58.16762 Y6.48692
X58.22604 Y6.42850
G04 P0 ( dwell for no time -- G64 should not smooth over this point )
G00 Z2.00000 ( retract )

G00 X59.14798 Y6.39838 ( rapid move to begin. )
F100.00000
G01 Z-0.21000
G04 P0 ( dwell for no time -- G64 should not smooth over this point )
F200.00000
G01 X59.14798 Y6.39838
X59.38535 Y6.39678
X59.46180 Y6.42842
X59.52025 Y6.48687
X59.55200 Y6.56350
X59.55032 Y7.10081
X59.44399 Y7.10081
X59.44399 Y6.60480
X59.42713 Y6.54923
X59.39954 Y6.52164
X59.36350 Y6.50671
X59.14798 Y6.50480
X59.14798 Y6.39838
G04 P0 ( dwell for no time -- G64 should not smooth over this point )
G00 Z2.00000 ( retract )

G00 X59.55200 Y7.71039 ( rapid move to begin. )
F100.00000
G01 Z-0.21000
G04 P0 ( dwell for no time -- G64 should not smooth over this point )
F200.00000
G01 X59.55200 Y7.71039
X59.55200 Y8.24602
X59.52030 Y8.32258
X59.46183 Y8.38105
X59.38524 Y8.41280
X59.14963 Y8.41280
X59.14798 Y8.30480
X59.36350 Y8.30287
X59.39954 Y8.28793
X59.42713 Y8.26035
X59.44399 Y8.20480
X59.44399 Y7.70876
X59.55200 Y7.71039
G04 P0 ( dwell for no time -- G64 should not smooth over this point )
G00 Z2.00000 ( retract )

G00 X58.22609 Y8.38107 ( rapid move to begin. )
F100.00000
G01 Z-0.21000
G04 P0 ( dwell for no time -- G64 should not smooth over this point )
F200.00000
G01 X58.22609 Y8.38107
X58.16770 Y8.32268
X58.13597 Y8.24615
X58.13597 Y8.07452
X58.12540 Y8.01943
X58.13597 Y7.96992
X58.13755 Y7.70876
X58.24400 Y7.70876
X58.24400 Y8.20480
X58.26084 Y8.26035
X58.28842 Y8.28793
X58.32446 Y8.30287
X58.54001 Y8.30480
X58.53833 Y8.41280
X58.30270 Y8.41280
X58.22609 Y8.38107
G04 P0 ( dwell for no time -- G64 should not smooth over this point )
G00 Z2.00000 ( retract )

G00 X56.21461 Y10.79481 ( rapid move to begin. )
F100.00000
G01 Z-0.21000
G04 P0 ( dwell for no time -- G64 should not smooth over this point )
F200.00000
G01 X56.21461 Y10.79481
X56.21725 Y8.77706
X56.20735 Y8.72395
X56.05607 Y8.39652
X55.99244 Y8.32852
X55.92002 Y8.30970
X55.35818 Y8.30970
X55.30783 Y8.30025
X55.27296 Y8.27780
X55.25012 Y8.24440
X55.23908 Y8.18994
X55.23908 Y6.61872
X55.24847 Y6.56863
X55.27093 Y6.53376
X55.30433 Y6.51092
X55.35912 Y6.49982
X55.57451 Y6.49718
X55.62622 Y6.47686
X55.67387 Y6.42842
X55.69600 Y6.36101
X55.73846 Y5.79030
X55.72216 Y5.71075
X55.69757 Y5.67808
X55.64329 Y5.63945
X55.53407 Y5.61923
X55.49996 Y5.59729
X55.47712 Y5.56388
X55.46608 Y5.50943
X55.47624 Y1.79046
X71.46726 Y1.79056
X71.46716 Y17.46406
X59.85766 Y17.46396
X59.85408 Y3.17100
X59.83167 Y3.11692
X59.79297 Y3.07740
X59.70699 Y3.05030
X56.69549 Y3.05030
X56.63806 Y3.06168
X56.58942 Y3.09422
X56.55688 Y3.14286
X56.54550 Y3.20029
X56.54550 Y3.71001
X56.57590 Y3.83938
X56.57590 Y5.51014
X56.56648 Y5.56033
X56.54397 Y5.59530
X56.51060 Y5.61811
X56.45561 Y5.62924
X56.29523 Y5.63691
X56.25106 Y5.65941
X56.20450 Y5.71694
X56.19140 Y5.76800
X56.14893 Y6.33871
X56.16521 Y6.41819
X56.21261 Y6.47087
X56.25802 Y6.49355
X56.38009 Y6.50927
X56.41497 Y6.53173
X56.43780 Y6.56513
X56.44890 Y6.61984
X56.44997 Y7.97264
X56.46742 Y8.02967
X56.48619 Y8.05606
X56.51482 Y8.08227
X56.56849 Y8.10493
X56.75589 Y8.10305
X56.82724 Y8.05824
X56.86219 Y7.98687
X56.86493 Y6.02192
X56.86943 Y5.97704
X56.89480 Y5.89894
X56.96620 Y5.81931
X58.30605 Y4.81443
X58.34174 Y4.77631
X58.36607 Y4.69447
X58.36607 Y3.83813
X58.37544 Y3.78820
X58.39795 Y3.75322
X58.43132 Y3.73041
X58.48575 Y3.71939
X59.35700 Y3.71939
X59.40709 Y3.72878
X59.44196 Y3.75124
X59.46480 Y3.78464
X59.47590 Y3.83935
X59.47590 Y5.51004
X59.46645 Y5.56038
X59.44399 Y5.59528
X59.41059 Y5.61811
X59.35593 Y5.62919
X58.48520 Y5.62919
X58.43483 Y5.61974
X58.40044 Y5.59762
X58.33963 Y5.51024
X58.30640 Y5.48659
X58.25906 Y5.47122
X58.19604 Y5.47290
X58.14501 Y5.49774
X57.37499 Y6.07526
X57.33033 Y6.12967
X57.31499 Y6.19528
X57.31499 Y7.96548
X57.32619 Y8.01732
X57.31499 Y8.06901
X57.31606 Y8.93759
X57.33369 Y8.99481
X57.35269 Y9.02133
X57.38162 Y9.04757
X57.43557 Y9.06995
X57.81685 Y9.07282
X57.86704 Y9.08224
X57.90199 Y9.10475
X57.92480 Y9.13812
X57.93589 Y9.19283
X57.93589 Y9.81353
X57.92642 Y9.86398
X57.89315 Y9.92351
X57.88144 Y9.98338
X57.89307 Y10.03629
X57.92515 Y10.08813
X57.93767 Y10.13642
X57.97966 Y10.19260
X58.03371 Y10.22146
X58.23300 Y10.22923
X58.33965 Y10.25892
X58.40259 Y10.30416
X58.61011 Y10.51168
X58.66696 Y10.59626
X58.68659 Y10.69634
X58.68659 Y12.77360
X58.66686 Y12.87378
X58.64963 Y12.90926
X58.57826 Y12.98109
X55.34819 Y15.23280
X55.31688 Y15.28088
X55.30590 Y15.33725
X55.30590 Y16.19165
X55.29648 Y16.24184
X55.27397 Y16.27679
X55.24060 Y16.29960
X55.18589 Y16.31070
X54.21518 Y16.31070
X54.16483 Y16.30125
X54.12996 Y16.27880
X54.10712 Y16.24540
X54.09608 Y16.19094
X54.09608 Y15.78078
X54.08332 Y15.72393
X54.06493 Y15.68954
X54.01518 Y15.64794
X53.96549 Y15.63267
X53.69554 Y15.63079
X53.62351 Y15.64949
X53.57085 Y15.69739
X53.54406 Y15.77336
X53.33580 Y16.08505
X53.02417 Y16.29328
X52.81724 Y16.34100
X52.64160 Y16.36940
X50.61574 Y16.36940
X50.51407 Y16.35909
X50.46108 Y16.37656
X50.40317 Y16.43719
X50.38600 Y16.50636
X50.38600 Y18.33079
X50.39738 Y18.38814
X50.42989 Y18.43681
X50.47851 Y18.46932
X50.53599 Y18.48077
X72.33399 Y18.48077
X72.40313 Y18.46353
X72.46370 Y18.40569
X72.48397 Y18.33079
X72.48397 Y1.05079
X72.45918 Y0.96844
X72.40119 Y0.91683
X72.33396 Y0.90080
X53.71683 Y0.90174
X53.64408 Y0.92724
X53.61396 Y0.95198
X53.57891 Y1.02473
X53.58287 Y1.09267
X53.61195 Y1.14705
X53.65211 Y1.18020
X53.69234 Y1.19887
X54.40329 Y1.90854
X54.78853 Y2.83636
X54.78947 Y3.84075
X54.40585 Y4.76914
X53.69618 Y5.48009
X52.76837 Y5.86533
X51.76397 Y5.86627
X50.83558 Y5.48265
X50.12463 Y4.77298
X50.10322 Y4.72647
X50.07007 Y4.68649
X50.01572 Y4.65749
X49.98354 Y4.65223
X49.93197 Y4.65756
X49.87769 Y4.68659
X49.83535 Y4.74395
X49.82400 Y4.80127
X49.82400 Y6.37450
X49.83644 Y6.43074
X49.85450 Y6.46492
X49.90353 Y6.50658
X49.95265 Y6.52230
X50.38643 Y6.53104
X50.39235 Y6.60640
X50.42331 Y6.66294
X50.45346 Y6.68768
X50.50982 Y6.71184
X51.32331 Y6.71410
X51.32501 Y6.82220
X49.77902 Y6.82220
X49.74074 Y6.82979
X49.70833 Y6.85149
X49.68664 Y6.88392
X49.67902 Y6.92220
X49.68095 Y8.66891
X49.69588 Y8.70495
X49.72347 Y8.73253
X49.77902 Y8.74940
X51.32501 Y8.74940
X51.32334 Y8.85740
X50.53599 Y8.85740
X50.47922 Y8.87008
X50.44477 Y8.88846
X50.40317 Y8.93822
X50.38788 Y8.98798
X50.38788 Y9.24462
X50.40314 Y9.29431
X50.43091 Y9.33022
X50.46108 Y9.35496
X50.51635 Y9.37294
X50.61541 Y9.36217
X52.22488 Y9.36217
X52.29255 Y9.34523
X52.36687 Y9.29735
X52.46664 Y9.27777
X54.32549 Y9.27777
X54.41203 Y9.25021
X54.44941 Y9.21219
X54.47342 Y9.14480
X54.49790 Y9.10675
X54.53133 Y9.08392
X54.58579 Y9.07287
X55.61710 Y9.07287
X55.66704 Y9.08224
X55.70199 Y9.10475
X55.72480 Y9.13812
X55.73590 Y9.19283
X55.72957 Y9.88719
X55.75477 Y9.95140
X55.80725 Y10.00985
X55.83900 Y10.08648
X55.83900 Y10.14714
X55.73097 Y10.14881
X55.72335 Y10.08953
X55.70166 Y10.05709
X55.66922 Y10.03540
X55.63097 Y10.02781
X54.57098 Y10.02781
X54.53270 Y10.03540
X54.50027 Y10.05709
X54.47857 Y10.08953
X54.47098 Y10.14881
X54.36463 Y10.14881
X54.36298 Y10.08638
X54.39465 Y10.00987
X54.45322 Y9.93522
X54.46468 Y9.87779
X54.44743 Y9.80861
X54.38955 Y9.74798
X54.31454 Y9.72781
X53.64139 Y9.73068
X53.57225 Y9.76550
X53.54604 Y9.79441
X53.52361 Y9.84846
X53.52298 Y9.90350
X53.54294 Y9.95272
X53.61718 Y10.32577
X53.54406 Y10.69336
X53.33580 Y11.00505
X53.02417 Y11.21328
X52.79867 Y11.26476
X52.64160 Y11.28940
X50.61645 Y11.28940
X50.50665 Y11.27921
X50.45260 Y11.30164
X50.42369 Y11.32786
X50.39027 Y11.39738
X50.39027 Y11.79420
X50.40617 Y11.84007
X50.43093 Y11.87025
X50.46682 Y11.89798
X50.52067 Y11.91371
X50.61541 Y11.90217
X52.64182 Y11.90217
X53.02412 Y11.97820
X53.33575 Y12.18643
X53.54401 Y12.49811
X53.57080 Y12.57411
X53.61218 Y12.61548
X53.66626 Y12.63789
X55.71007 Y12.63814
X55.78876 Y12.59676
X56.63976 Y11.74193
X56.66607 Y11.65734
X56.66607 Y11.37921
X56.65462 Y11.32173
X56.63450 Y11.28823
X56.59856 Y11.25567
X56.54210 Y11.23149
X56.48680 Y11.23207
X56.43282 Y11.25440
X56.13186 Y11.55130
X56.07720 Y11.59189
X56.04771 Y11.60929
X55.98124 Y11.62349
X55.84725 Y11.63215
X55.78467 Y11.65933
X55.74344 Y11.70908
X55.72706 Y11.76293
X55.70400 Y11.79877
X55.67060 Y11.82161
X55.61588 Y11.83271
X54.58508 Y11.83271
X54.53489 Y11.82328
X54.49994 Y11.80078
X54.47713 Y11.76740
X54.46608 Y11.71292
X54.47235 Y11.01823
X54.44715 Y10.95407
X54.39468 Y10.89567
X54.36298 Y10.81919
X54.36298 Y10.75836
X54.47098 Y10.75676
X54.47857 Y10.81605
X54.50027 Y10.84848
X54.53270 Y10.87017
X54.57098 Y10.87779
X55.63097 Y10.87779
X55.66922 Y10.87017
X55.70166 Y10.84848
X55.72335 Y10.81605
X55.73097 Y10.75676
X55.83737 Y10.75676
X55.84192 Y10.87520
X55.86425 Y10.92895
X55.91693 Y10.97688
X55.99226 Y10.99557
X56.04641 Y10.98419
X56.09500 Y10.95168
X56.18294 Y10.86225
X56.21461 Y10.79481
G04 P0 ( dwell for no time -- G64 should not smooth over this point )
G00 Z2.00000 ( retract )

G00 X58.47831 Y13.05064 ( rapid move to begin. )
F100.00000
G01 Z-0.21000
G04 P0 ( dwell for no time -- G64 should not smooth over this point )
F200.00000
G01 X58.47831 Y13.05064
X58.57831 Y12.98101
X58.64963 Y12.90926
X58.68166 Y12.82811
X58.68657 Y12.77390
X58.68420 Y10.68412
X58.67407 Y10.61973
X58.65540 Y10.57467
X58.61042 Y10.51216
X58.39309 Y10.29783
X58.31804 Y10.24736
X58.21842 Y10.22781
X57.93099 Y10.22781
X57.92337 Y10.08953
X57.88654 Y10.04465
X57.85050 Y10.02971
X56.75147 Y10.02971
X56.71542 Y10.04465
X56.68784 Y10.07223
X56.67100 Y10.12781
X56.67100 Y10.77779
X56.68784 Y10.83334
X56.73272 Y10.87017
X56.77100 Y10.87779
X57.85050 Y10.87586
X57.88654 Y10.86093
X57.92337 Y10.81605
X57.93099 Y10.67779
X58.13983 Y10.67779
X58.23661 Y10.77457
X58.23661 Y12.67058
X55.30098 Y14.71403
X55.29336 Y14.56752
X55.25653 Y14.52264
X55.22048 Y14.50771
X54.20098 Y14.50580
X54.14540 Y14.52264
X54.10857 Y14.56752
X54.10098 Y14.60580
X54.10098 Y15.18081
X53.55127 Y15.18081
X53.47558 Y14.97258
X53.38315 Y14.82429
X53.25036 Y14.68165
X53.07390 Y14.55884
X52.89402 Y14.48386
X52.72285 Y14.44868
X50.64282 Y14.44220
X50.45864 Y14.46039
X50.25351 Y14.52475
X50.08412 Y14.62112
X49.93761 Y14.74962
X49.81996 Y14.90494
X49.73596 Y15.08081
X49.68915 Y15.26996
X49.68130 Y15.46468
X49.71285 Y15.65698
X49.78239 Y15.83900
X49.87482 Y15.98728
X50.00762 Y16.12993
X50.18407 Y16.25274
X50.34465 Y16.32165
X50.51696 Y16.35916
X52.61515 Y16.36937
X52.81724 Y16.34100
X53.00446 Y16.28682
X53.17385 Y16.19046
X53.30641 Y16.07664
X53.43801 Y15.90664
X53.51909 Y15.74014
X53.54718 Y15.63079
X54.10098 Y15.63079
X54.10098 Y16.20580
X54.11309 Y16.25251
X54.13026 Y16.27649
X54.16270 Y16.29818
X54.20098 Y16.30580
X55.23161 Y16.30051
X55.27804 Y16.26874
X55.30098 Y16.20580
X55.30098 Y15.26229
X58.47831 Y13.05064
G04 P0 ( dwell for no time -- G64 should not smooth over this point )
G00 Z2.00000 ( retract )

G00 X58.24235 Y14.39778 ( rapid move to begin. )
F100.00000
G01 Z-0.21000
G04 P0 ( dwell for no time -- G64 should not smooth over this point )
F200.00000
G01 X58.24235 Y14.39778
X58.31880 Y14.42942
X58.37725 Y14.48787
X58.40900 Y14.56450
X58.40732 Y15.10181
X58.30099 Y15.10181
X58.30099 Y14.60580
X58.28413 Y14.55023
X58.25654 Y14.52264
X58.22050 Y14.50771
X58.00498 Y14.50580
X58.00656 Y14.39778
X58.24235 Y14.39778
G04 P0 ( dwell for no time -- G64 should not smooth over this point )
G00 Z2.00000 ( retract )

G00 X57.10100 Y15.10181 ( rapid move to begin. )
F100.00000
G01 Z-0.21000
G04 P0 ( dwell for no time -- G64 should not smooth over this point )
F200.00000
G01 X57.10100 Y15.10181
X56.99297 Y15.10019
X56.99297 Y14.56437
X57.02462 Y14.48792
X57.08304 Y14.42950
X57.15957 Y14.39778
X57.39538 Y14.39778
X57.39701 Y14.50580
X57.18146 Y14.50771
X57.14542 Y14.52264
X57.10859 Y14.56752
X57.10100 Y14.60580
X57.10100 Y15.10181
G04 P0 ( dwell for no time -- G64 should not smooth over this point )
G00 Z2.00000 ( retract )

G00 X56.99297 Y16.24715 ( rapid move to begin. )
F100.00000
G01 Z-0.21000
G04 P0 ( dwell for no time -- G64 should not smooth over this point )
F200.00000
G01 X56.99297 Y16.24715
X56.99297 Y15.71134
X57.10100 Y15.70976
X57.10100 Y16.20580
X57.10859 Y16.24405
X57.14542 Y16.28893
X57.18146 Y16.30387
X57.39701 Y16.30580
X57.39701 Y16.41212
X57.15970 Y16.41380
X57.08309 Y16.38207
X57.02470 Y16.32368
X56.99297 Y16.24715
G04 P0 ( dwell for no time -- G64 should not smooth over this point )
G00 Z2.00000 ( retract )

G00 X58.24224 Y16.41380 ( rapid move to begin. )
F100.00000
G01 Z-0.21000
G04 P0 ( dwell for no time -- G64 should not smooth over this point )
F200.00000
G01 X58.24224 Y16.41380
X58.00663 Y16.41380
X58.00498 Y16.30580
X58.22050 Y16.30387
X58.25654 Y16.28893
X58.28413 Y16.26135
X58.30099 Y16.20580
X58.30099 Y15.70976
X58.40734 Y15.70976
X58.40900 Y16.24702
X58.37730 Y16.32358
X58.31883 Y16.38205
X58.24224 Y16.41380
G04 P0 ( dwell for no time -- G64 should not smooth over this point )
G00 Z2.00000 ( retract )

G00 X52.94040 Y11.96156 ( rapid move to begin. )
F100.00000
G01 Z-0.21000
G04 P0 ( dwell for no time -- G64 should not smooth over this point )
F200.00000
G01 X52.94040 Y11.96156
X52.66400 Y11.90657
X50.64282 Y11.90220
X50.45864 Y11.92039
X50.27211 Y11.97677
X50.10073 Y12.06956
X49.95156 Y12.19494
X49.83065 Y12.34779
X49.74300 Y12.52181
X49.69220 Y12.70997
X49.68029 Y12.90446
X49.70777 Y13.09740
X49.77350 Y13.28084
X49.87482 Y13.44728
X50.02296 Y13.60311
X50.16637 Y13.70293
X50.34465 Y13.78165
X50.53512 Y13.82290
X52.61515 Y13.82937
X52.79933 Y13.81119
X52.98587 Y13.75480
X53.17385 Y13.65046
X53.30641 Y13.53664
X53.42732 Y13.38378
X53.51909 Y13.20014
X53.54718 Y13.09079
X55.83798 Y13.09079
X55.90532 Y13.07934
X55.99704 Y13.02485
X57.19411 Y11.82778
X57.83099 Y11.82778
X57.86925 Y11.82016
X57.90168 Y11.79847
X57.92337 Y11.76603
X57.93099 Y11.72778
X57.92906 Y11.05826
X57.91413 Y11.02222
X57.88654 Y10.99463
X57.83099 Y10.97779
X56.77100 Y10.97779
X56.71542 Y10.99463
X56.67859 Y11.03951
X56.67100 Y11.07779
X56.67100 Y11.71457
X55.74476 Y12.64081
X53.55127 Y12.64081
X53.48447 Y12.45074
X53.37075 Y12.26829
X53.23502 Y12.12846
X53.09161 Y12.02864
X52.94040 Y11.96156
G04 P0 ( dwell for no time -- G64 should not smooth over this point )
G00 Z2.00000 ( retract )

G00 X52.46644 Y9.27780 ( rapid move to begin. )
F100.00000
G01 Z-0.21000
G04 P0 ( dwell for no time -- G64 should not smooth over this point )
F200.00000
G01 X52.46644 Y9.27780
X52.36687 Y9.29735
X52.27228 Y9.36571
X50.64282 Y9.36220
X50.43883 Y9.38445
X50.25351 Y9.44475
X50.08412 Y9.54112
X49.93761 Y9.66962
X49.81996 Y9.82494
X49.73596 Y10.00081
X49.68915 Y10.18996
X49.68130 Y10.38468
X49.71285 Y10.57698
X49.78239 Y10.75900
X49.88722 Y10.92328
X50.02296 Y11.06311
X50.18407 Y11.17274
X50.34465 Y11.24165
X50.51689 Y11.27914
X52.61515 Y11.28937
X52.79867 Y11.26476
X52.98587 Y11.21480
X53.17385 Y11.11046
X53.30641 Y10.99664
X53.42732 Y10.84378
X53.51497 Y10.66977
X53.56885 Y10.46161
X53.57670 Y10.26690
X53.55023 Y10.09418
X53.47558 Y9.89258
X53.37027 Y9.72778
X54.47098 Y9.72778
X54.47857 Y9.86603
X54.51540 Y9.91092
X54.57098 Y9.92778
X55.63097 Y9.92778
X55.68652 Y9.91092
X55.71411 Y9.88333
X55.72904 Y9.84729
X55.73011 Y9.16896
X55.72335 Y9.13952
X55.70166 Y9.10708
X55.64426 Y9.07909
X54.56184 Y9.07869
X54.50603 Y9.10233
X54.47857 Y9.13952
X54.47098 Y9.27780
X52.46644 Y9.27780
G04 P0 ( dwell for no time -- G64 should not smooth over this point )
G00 Z2.00000 ( retract )

G00 X51.93459 Y8.85740 ( rapid move to begin. )
F100.00000
G01 Z-0.21000
G04 P0 ( dwell for no time -- G64 should not smooth over this point )
F200.00000
G01 X51.93459 Y8.85740
X51.93296 Y8.74940
X53.47898 Y8.74940
X53.51723 Y8.74178
X53.56212 Y8.70495
X53.57898 Y8.64940
X53.57898 Y8.08976
X53.68701 Y8.09139
X53.68701 Y8.69062
X53.65528 Y8.76723
X53.59689 Y8.82563
X53.52023 Y8.85740
X51.93459 Y8.85740
G04 P0 ( dwell for no time -- G64 should not smooth over this point )
G00 Z2.00000 ( retract )

G00 X51.93296 Y6.82220 ( rapid move to begin. )
F100.00000
G01 Z-0.21000
G04 P0 ( dwell for no time -- G64 should not smooth over this point )
F200.00000
G01 X51.93296 Y6.82220
X51.93454 Y6.71417
X53.52036 Y6.71417
X53.59681 Y6.74582
X53.65523 Y6.80424
X53.68701 Y6.88090
X53.68701 Y7.48014
X53.57898 Y7.48181
X53.57898 Y6.92220
X53.56212 Y6.86662
X53.51723 Y6.82979
X53.47898 Y6.82220
X51.93296 Y6.82220
( Piece #4, position [3;0] )

G04 P0 ( dwell for no time -- G64 should not smooth over this point )
G00 Z2.00000 ( retract )

G00 X79.25031 Y3.34578 ( rapid move to begin. )
F100.00000
G01 Z-0.21000
G04 P0 ( dwell for no time -- G64 should not smooth over this point )
F200.00000
G01 X79.25031 Y3.34578
X79.19702 Y2.82617
X79.03227 Y2.31380
X78.76832 Y1.85663
X78.42252 Y1.47177
X77.97876 Y1.14934
X77.50584 Y0.93938
X76.97906 Y0.82912
X76.46167 Y0.82965
X75.94531 Y0.93938
X75.47244 Y1.14934
X75.04417 Y1.45777
X74.68285 Y1.85663
X74.41890 Y2.31380
X74.25850 Y2.80572
X74.20114 Y3.33034
X74.25415 Y3.85540
X74.41890 Y4.36775
X74.68283 Y4.82492
X75.02865 Y5.20981
X75.47241 Y5.53224
X75.94531 Y5.74219
X76.47213 Y5.85248
X76.99984 Y5.85027
X77.50584 Y5.74219
X77.98805 Y5.52749
X78.42252 Y5.20981
X78.76834 Y4.82495
X79.03227 Y4.36777
X79.19539 Y3.86574
X79.25031 Y3.34578
G04 P0 ( dwell for no time -- G64 should not smooth over this point )
G00 Z2.00000 ( retract )

G00 X79.93349 Y5.53343 ( rapid move to begin. )
F100.00000
G01 Z-0.21000
G04 P0 ( dwell for no time -- G64 should not smooth over this point )
F200.00000
G01 X79.93349 Y5.53343
X79.95709 Y5.58913
X79.99432 Y5.61667
X80.03260 Y5.62429
X80.21246 Y5.62429
X80.14693 Y6.50480
X79.79643 Y6.50569
X79.76730 Y6.51240
X79.73486 Y6.53409
X79.70896 Y6.58044
X79.70644 Y8.21374
X79.71317 Y8.24305
X79.73486 Y8.27549
X79.79290 Y8.30353
X80.47510 Y8.30480
X80.67890 Y8.74396
X80.67890 Y10.82946
X80.33059 Y11.17779
X80.19257 Y11.17779
X80.18495 Y11.03951
X80.14812 Y10.99463
X80.11208 Y10.97970
X79.03258 Y10.97779
X78.97700 Y10.99463
X78.94017 Y11.03951
X78.93258 Y11.07779
X78.93258 Y11.72778
X78.94017 Y11.76603
X78.96186 Y11.79847
X79.01957 Y11.82648
X80.09257 Y11.82778
X80.13082 Y11.82016
X80.16326 Y11.79847
X80.18495 Y11.76603
X80.19257 Y11.62778
X80.42379 Y11.62631
X80.50931 Y11.60929
X80.56176 Y11.57573
X81.06272 Y11.08201
X81.10974 Y11.01328
X81.12539 Y10.96179
X81.12861 Y8.68697
X81.10796 Y8.59954
X80.90557 Y8.16340
X80.90471 Y6.59594
X80.89795 Y6.56652
X80.87626 Y6.53409
X80.82993 Y6.50818
X80.59813 Y6.50480
X80.66364 Y5.62429
X80.96300 Y5.61905
X81.00326 Y5.59497
X81.03128 Y5.53726
X81.03257 Y3.82431
X81.01571 Y3.76874
X80.98812 Y3.74115
X80.95322 Y3.72658
X80.95457 Y3.02307
X84.37115 Y3.02335
X84.37260 Y17.21077
X84.39198 Y17.29614
X84.40910 Y17.32586
X84.46142 Y17.37702
X84.52871 Y17.40582
X84.57260 Y17.41077
X95.67557 Y17.41077
X95.76094 Y17.39134
X95.83902 Y17.32586
X95.86209 Y17.28271
X95.87557 Y17.21077
X95.87557 Y2.04380
X95.85353 Y1.95315
X95.79310 Y1.88195
X95.73729 Y1.85355
X95.67557 Y1.84380
X80.14728 Y1.84868
X80.07995 Y1.87748
X80.02760 Y1.92864
X80.00451 Y1.97184
X79.99110 Y2.04380
X79.99110 Y3.73361
X79.94944 Y3.76874
X79.93260 Y3.82431
X79.93349 Y5.53343
G04 P0 ( dwell for no time -- G64 should not smooth over this point )
G00 Z2.00000 ( retract )

G00 X81.83648 Y6.07536 ( rapid move to begin. )
F100.00000
G01 Z-0.21000
G04 P0 ( dwell for no time -- G64 should not smooth over this point )
F200.00000
G01 X81.83648 Y6.07536
X82.83260 Y5.32825
X82.83450 Y5.54379
X82.86188 Y5.59497
X82.90803 Y5.62081
X83.83257 Y5.62429
X83.87082 Y5.61667
X83.90326 Y5.59497
X83.92495 Y5.56254
X83.93257 Y5.52429
X83.93257 Y3.82431
X83.92495 Y3.78604
X83.90326 Y3.75360
X83.87082 Y3.73191
X83.83257 Y3.72431
X82.93260 Y3.72431
X82.89432 Y3.73191
X82.86188 Y3.75360
X82.84019 Y3.78604
X82.83260 Y3.82431
X82.83260 Y4.76574
X81.42770 Y5.81943
X81.39323 Y5.85022
X81.34677 Y5.91684
X81.32660 Y6.02159
X81.32660 Y9.07780
X81.19432 Y9.08539
X81.14944 Y9.12222
X81.13260 Y9.17780
X81.13450 Y9.84729
X81.16189 Y9.89847
X81.21307 Y9.92585
X82.29259 Y9.92778
X82.33084 Y9.92016
X82.36328 Y9.89847
X82.39132 Y9.84046
X82.39259 Y9.17780
X82.38497 Y9.13952
X82.36803 Y9.11285
X82.33084 Y9.08539
X82.29259 Y9.07780
X81.77659 Y9.07780
X81.77659 Y6.12027
X81.83648 Y6.07536
G04 P0 ( dwell for no time -- G64 should not smooth over this point )
G00 Z2.00000 ( retract )

G00 X82.68764 Y6.42850 ( rapid move to begin. )
F100.00000
G01 Z-0.21000
G04 P0 ( dwell for no time -- G64 should not smooth over this point )
F200.00000
G01 X82.68764 Y6.42850
X82.76417 Y6.39678
X82.99998 Y6.39678
X83.00161 Y6.50480
X82.78606 Y6.50671
X82.75002 Y6.52164
X82.72244 Y6.54923
X82.70560 Y6.60480
X82.70560 Y7.10081
X82.59920 Y7.10081
X82.59757 Y6.56337
X82.62922 Y6.48692
X82.68764 Y6.42850
G04 P0 ( dwell for no time -- G64 should not smooth over this point )
G00 Z2.00000 ( retract )

G00 X83.60958 Y6.39838 ( rapid move to begin. )
F100.00000
G01 Z-0.21000
G04 P0 ( dwell for no time -- G64 should not smooth over this point )
F200.00000
G01 X83.60958 Y6.39838
X83.84695 Y6.39678
X83.92340 Y6.42842
X83.98184 Y6.48687
X84.01359 Y6.56350
X84.01192 Y7.10081
X83.90559 Y7.10081
X83.90559 Y6.60480
X83.88873 Y6.54923
X83.86114 Y6.52164
X83.82510 Y6.50671
X83.60958 Y6.50480
X83.60958 Y6.39838
G04 P0 ( dwell for no time -- G64 should not smooth over this point )
G00 Z2.00000 ( retract )

G00 X84.01359 Y7.71039 ( rapid move to begin. )
F100.00000
G01 Z-0.21000
G04 P0 ( dwell for no time -- G64 should not smooth over this point )
F200.00000
G01 X84.01359 Y7.71039
X84.01359 Y8.24602
X83.98190 Y8.32258
X83.92342 Y8.38105
X83.84684 Y8.41280
X83.61123 Y8.41280
X83.60958 Y8.30480
X83.82510 Y8.30287
X83.86114 Y8.28793
X83.88873 Y8.26035
X83.90559 Y8.20480
X83.90559 Y7.70876
X84.01359 Y7.71039
G04 P0 ( dwell for no time -- G64 should not smooth over this point )
G00 Z2.00000 ( retract )

G00 X82.68769 Y8.38107 ( rapid move to begin. )
F100.00000
G01 Z-0.21000
G04 P0 ( dwell for no time -- G64 should not smooth over this point )
F200.00000
G01 X82.68769 Y8.38107
X82.62929 Y8.32268
X82.59757 Y8.24615
X82.59757 Y8.07452
X82.58700 Y8.01943
X82.59757 Y7.96992
X82.59914 Y7.70876
X82.70560 Y7.70876
X82.70560 Y8.20480
X82.72244 Y8.26035
X82.75002 Y8.28793
X82.78606 Y8.30287
X83.00161 Y8.30480
X82.99993 Y8.41280
X82.76430 Y8.41280
X82.68769 Y8.38107
G04 P0 ( dwell for no time -- G64 should not smooth over this point )
G00 Z2.00000 ( retract )

G00 X80.67621 Y10.79481 ( rapid move to begin. )
F100.00000
G01 Z-0.21000
G04 P0 ( dwell for no time -- G64 should not smooth over this point )
F200.00000
G01 X80.67621 Y10.79481
X80.67885 Y8.77706
X80.66895 Y8.72395
X80.51767 Y8.39652
X80.45404 Y8.32852
X80.38162 Y8.30970
X79.81978 Y8.30970
X79.76943 Y8.30025
X79.73456 Y8.27780
X79.71172 Y8.24440
X79.70067 Y8.18994
X79.70067 Y6.61872
X79.71007 Y6.56863
X79.73253 Y6.53376
X79.76593 Y6.51092
X79.82072 Y6.49982
X80.03611 Y6.49718
X80.08782 Y6.47686
X80.13547 Y6.42842
X80.15760 Y6.36101
X80.20006 Y5.79030
X80.18376 Y5.71075
X80.15917 Y5.67808
X80.10489 Y5.63945
X79.99567 Y5.61923
X79.96156 Y5.59729
X79.93872 Y5.56388
X79.92767 Y5.50943
X79.93783 Y1.79046
X95.92886 Y1.79056
X95.92876 Y17.46406
X84.31926 Y17.46396
X84.31568 Y3.17100
X84.29327 Y3.11692
X84.25456 Y3.07740
X84.16859 Y3.05030
X81.15709 Y3.05030
X81.09966 Y3.06168
X81.05101 Y3.09422
X81.01848 Y3.14286
X81.00710 Y3.20029
X81.00710 Y3.71001
X81.03750 Y3.83938
X81.03750 Y5.51014
X81.02808 Y5.56033
X81.00557 Y5.59530
X80.97220 Y5.61811
X80.91721 Y5.62924
X80.75683 Y5.63691
X80.71266 Y5.65941
X80.66610 Y5.71694
X80.65300 Y5.76800
X80.61053 Y6.33871
X80.62681 Y6.41819
X80.67421 Y6.47087
X80.71962 Y6.49355
X80.84169 Y6.50927
X80.87657 Y6.53173
X80.89940 Y6.56513
X80.91050 Y6.61984
X80.91157 Y7.97264
X80.92902 Y8.02967
X80.94779 Y8.05606
X80.97642 Y8.08227
X81.03009 Y8.10493
X81.21749 Y8.10305
X81.28884 Y8.05824
X81.32379 Y7.98687
X81.32653 Y6.02192
X81.33102 Y5.97704
X81.35640 Y5.89894
X81.42780 Y5.81931
X82.76765 Y4.81443
X82.80334 Y4.77631
X82.82767 Y4.69447
X82.82767 Y3.83813
X82.83704 Y3.78820
X82.85955 Y3.75322
X82.89292 Y3.73041
X82.94735 Y3.71939
X83.81860 Y3.71939
X83.86869 Y3.72878
X83.90356 Y3.75124
X83.92640 Y3.78464
X83.93750 Y3.83935
X83.93750 Y5.51004
X83.92805 Y5.56038
X83.90559 Y5.59528
X83.87219 Y5.61811
X83.81753 Y5.62919
X82.94679 Y5.62919
X82.89643 Y5.61974
X82.86203 Y5.59762
X82.80123 Y5.51024
X82.76800 Y5.48659
X82.72066 Y5.47122
X82.65764 Y5.47290
X82.60661 Y5.49774
X81.83659 Y6.07526
X81.79193 Y6.12967
X81.77659 Y6.19528
X81.77659 Y7.96548
X81.78779 Y8.01732
X81.77659 Y8.06901
X81.77766 Y8.93759
X81.79529 Y8.99481
X81.81428 Y9.02133
X81.84322 Y9.04757
X81.89717 Y9.06995
X82.27844 Y9.07282
X82.32863 Y9.08224
X82.36359 Y9.10475
X82.38639 Y9.13812
X82.39749 Y9.19283
X82.39749 Y9.81353
X82.38802 Y9.86398
X82.35475 Y9.92351
X82.34304 Y9.98338
X82.35467 Y10.03629
X82.38675 Y10.08813
X82.39927 Y10.13642
X82.44126 Y10.19260
X82.49531 Y10.22146
X82.69460 Y10.22923
X82.80125 Y10.25892
X82.86419 Y10.30416
X83.07171 Y10.51168
X83.12856 Y10.59626
X83.14819 Y10.69634
X83.14819 Y12.77360
X83.12846 Y12.87378
X83.11123 Y12.90926
X83.03986 Y12.98109
X79.80979 Y15.23280
X79.77847 Y15.28088
X79.76750 Y15.33725
X79.76750 Y16.19165
X79.75808 Y16.24184
X79.73557 Y16.27679
X79.70220 Y16.29960
X79.64749 Y16.31070
X78.67678 Y16.31070
X78.62643 Y16.30125
X78.59156 Y16.27880
X78.56872 Y16.24540
X78.55767 Y16.19094
X78.55767 Y15.78078
X78.54492 Y15.72393
X78.52653 Y15.68954
X78.47678 Y15.64794
X78.42709 Y15.63267
X78.15714 Y15.63079
X78.08511 Y15.64949
X78.03245 Y15.69739
X78.00566 Y15.77336
X77.79740 Y16.08505
X77.48577 Y16.29328
X77.27884 Y16.34100
X77.10319 Y16.36940
X75.07734 Y16.36940
X74.97567 Y16.35909
X74.92268 Y16.37656
X74.86477 Y16.43719
X74.84760 Y16.50636
X74.84760 Y18.33079
X74.85898 Y18.38814
X74.89149 Y18.43681
X74.94011 Y18.46932
X74.99759 Y18.48077
X96.79559 Y18.48077
X96.86472 Y18.46353
X96.92530 Y18.40569
X96.94557 Y18.33079
X96.94557 Y1.05079
X96.92078 Y0.96844
X96.86279 Y0.91683
X96.79556 Y0.90080
X78.17843 Y0.90174
X78.10568 Y0.92724
X78.07556 Y0.95198
X78.04051 Y1.02473
X78.04447 Y1.09267
X78.07355 Y1.14705
X78.11371 Y1.18020
X78.15394 Y1.19887
X78.86489 Y1.90854
X79.25013 Y2.83636
X79.25107 Y3.84075
X78.86745 Y4.76914
X78.15778 Y5.48009
X77.22997 Y5.86533
X76.22557 Y5.86627
X75.29718 Y5.48265
X74.58623 Y4.77298
X74.56482 Y4.72647
X74.53167 Y4.68649
X74.47732 Y4.65749
X74.44514 Y4.65223
X74.39357 Y4.65756
X74.33929 Y4.68659
X74.29695 Y4.74395
X74.28560 Y4.80127
X74.28560 Y6.37450
X74.29804 Y6.43074
X74.31610 Y6.46492
X74.36513 Y6.50658
X74.41425 Y6.52230
X74.84803 Y6.53104
X74.85395 Y6.60640
X74.88491 Y6.66294
X74.91506 Y6.68768
X74.97142 Y6.71184
X75.78491 Y6.71410
X75.78661 Y6.82220
X74.24061 Y6.82220
X74.20234 Y6.82979
X74.16993 Y6.85149
X74.14823 Y6.88392
X74.14061 Y6.92220
X74.14255 Y8.66891
X74.15748 Y8.70495
X74.18506 Y8.73253
X74.24061 Y8.74940
X75.78661 Y8.74940
X75.78493 Y8.85740
X74.99759 Y8.85740
X74.94082 Y8.87008
X74.90637 Y8.88846
X74.86477 Y8.93822
X74.84948 Y8.98798
X74.84948 Y9.24462
X74.86474 Y9.29431
X74.89251 Y9.33022
X74.92268 Y9.35496
X74.97795 Y9.37294
X75.07701 Y9.36217
X76.68648 Y9.36217
X76.75415 Y9.34523
X76.82847 Y9.29735
X76.92824 Y9.27777
X78.78709 Y9.27777
X78.87363 Y9.25021
X78.91101 Y9.21219
X78.93502 Y9.14480
X78.95950 Y9.10675
X78.99293 Y9.08392
X79.04739 Y9.07287
X80.07870 Y9.07287
X80.12864 Y9.08224
X80.16359 Y9.10475
X80.18640 Y9.13812
X80.19750 Y9.19283
X80.19117 Y9.88719
X80.21637 Y9.95140
X80.26885 Y10.00985
X80.30060 Y10.08648
X80.30060 Y10.14714
X80.19257 Y10.14881
X80.18495 Y10.08953
X80.16326 Y10.05709
X80.13082 Y10.03540
X80.09257 Y10.02781
X79.03258 Y10.02781
X78.99430 Y10.03540
X78.96186 Y10.05709
X78.94017 Y10.08953
X78.93258 Y10.14881
X78.82623 Y10.14881
X78.82458 Y10.08638
X78.85625 Y10.00987
X78.91482 Y9.93522
X78.92628 Y9.87779
X78.90903 Y9.80861
X78.85115 Y9.74798
X78.77614 Y9.72781
X78.10299 Y9.73068
X78.03385 Y9.76550
X78.00764 Y9.79441
X77.98521 Y9.84846
X77.98457 Y9.90350
X78.00454 Y9.95272
X78.07878 Y10.32577
X78.00566 Y10.69336
X77.79740 Y11.00505
X77.48577 Y11.21328
X77.26027 Y11.26476
X77.10319 Y11.28940
X75.07805 Y11.28940
X74.96825 Y11.27921
X74.91420 Y11.30164
X74.88529 Y11.32786
X74.85187 Y11.39738
X74.85187 Y11.79420
X74.86777 Y11.84007
X74.89253 Y11.87025
X74.92842 Y11.89798
X74.98227 Y11.91371
X75.07701 Y11.90217
X77.10342 Y11.90217
X77.48572 Y11.97820
X77.79735 Y12.18643
X78.00561 Y12.49811
X78.03240 Y12.57411
X78.07378 Y12.61548
X78.12786 Y12.63789
X80.17167 Y12.63814
X80.25036 Y12.59676
X81.10136 Y11.74193
X81.12767 Y11.65734
X81.12767 Y11.37921
X81.11622 Y11.32173
X81.09610 Y11.28823
X81.06016 Y11.25567
X81.00369 Y11.23149
X80.94840 Y11.23207
X80.89442 Y11.25440
X80.59346 Y11.55130
X80.53880 Y11.59189
X80.50931 Y11.60929
X80.44284 Y11.62349
X80.30885 Y11.63215
X80.24627 Y11.65933
X80.20504 Y11.70908
X80.18866 Y11.76293
X80.16560 Y11.79877
X80.13220 Y11.82161
X80.07748 Y11.83271
X79.04668 Y11.83271
X78.99649 Y11.82328
X78.96153 Y11.80078
X78.93873 Y11.76740
X78.92768 Y11.71292
X78.93395 Y11.01823
X78.90875 Y10.95407
X78.85628 Y10.89567
X78.82458 Y10.81919
X78.82458 Y10.75836
X78.93258 Y10.75676
X78.94017 Y10.81605
X78.96186 Y10.84848
X78.99430 Y10.87017
X79.03258 Y10.87779
X80.09257 Y10.87779
X80.13082 Y10.87017
X80.16326 Y10.84848
X80.18495 Y10.81605
X80.19257 Y10.75676
X80.29897 Y10.75676
X80.30352 Y10.87520
X80.32584 Y10.92895
X80.37852 Y10.97688
X80.45386 Y10.99557
X80.50801 Y10.98419
X80.55660 Y10.95168
X80.64454 Y10.86225
X80.67621 Y10.79481
G04 P0 ( dwell for no time -- G64 should not smooth over this point )
G00 Z2.00000 ( retract )

G00 X82.93991 Y13.05064 ( rapid move to begin. )
F100.00000
G01 Z-0.21000
G04 P0 ( dwell for no time -- G64 should not smooth over this point )
F200.00000
G01 X82.93991 Y13.05064
X83.03991 Y12.98101
X83.11123 Y12.90926
X83.14326 Y12.82811
X83.14817 Y12.77390
X83.14580 Y10.68412
X83.13567 Y10.61973
X83.11700 Y10.57467
X83.07202 Y10.51216
X82.85469 Y10.29783
X82.77964 Y10.24736
X82.68002 Y10.22781
X82.39259 Y10.22781
X82.38497 Y10.08953
X82.34814 Y10.04465
X82.31210 Y10.02971
X81.21307 Y10.02971
X81.17702 Y10.04465
X81.14944 Y10.07223
X81.13260 Y10.12781
X81.13260 Y10.77779
X81.14944 Y10.83334
X81.19432 Y10.87017
X81.23260 Y10.87779
X82.31210 Y10.87586
X82.34814 Y10.86093
X82.38497 Y10.81605
X82.39259 Y10.67779
X82.60143 Y10.67779
X82.69820 Y10.77457
X82.69820 Y12.67058
X79.76257 Y14.71403
X79.75495 Y14.56752
X79.71812 Y14.52264
X79.68208 Y14.50771
X78.66258 Y14.50580
X78.60700 Y14.52264
X78.57017 Y14.56752
X78.56258 Y14.60580
X78.56258 Y15.18081
X78.01287 Y15.18081
X77.93718 Y14.97258
X77.84475 Y14.82429
X77.71196 Y14.68165
X77.53550 Y14.55884
X77.35562 Y14.48386
X77.18445 Y14.44868
X75.10442 Y14.44220
X74.92024 Y14.46039
X74.71511 Y14.52475
X74.54572 Y14.62112
X74.39921 Y14.74962
X74.28156 Y14.90494
X74.19756 Y15.08081
X74.15075 Y15.26996
X74.14290 Y15.46468
X74.17445 Y15.65698
X74.24399 Y15.83900
X74.33642 Y15.98728
X74.46921 Y16.12993
X74.64567 Y16.25274
X74.80625 Y16.32165
X74.97856 Y16.35916
X77.07675 Y16.36937
X77.27884 Y16.34100
X77.46606 Y16.28682
X77.63545 Y16.19046
X77.76801 Y16.07664
X77.89961 Y15.90664
X77.98069 Y15.74014
X78.00878 Y15.63079
X78.56258 Y15.63079
X78.56258 Y16.20580
X78.57469 Y16.25251
X78.59186 Y16.27649
X78.62430 Y16.29818
X78.66258 Y16.30580
X79.69321 Y16.30051
X79.73964 Y16.26874
X79.76257 Y16.20580
X79.76257 Y15.26229
X82.93991 Y13.05064
G04 P0 ( dwell for no time -- G64 should not smooth over this point )
G00 Z2.00000 ( retract )

G00 X82.70395 Y14.39778 ( rapid move to begin. )
F100.00000
G01 Z-0.21000
G04 P0 ( dwell for no time -- G64 should not smooth over this point )
F200.00000
G01 X82.70395 Y14.39778
X82.78040 Y14.42942
X82.83884 Y14.48787
X82.87059 Y14.56450
X82.86892 Y15.10181
X82.76259 Y15.10181
X82.76259 Y14.60580
X82.74573 Y14.55023
X82.71814 Y14.52264
X82.68210 Y14.50771
X82.46658 Y14.50580
X82.46816 Y14.39778
X82.70395 Y14.39778
G04 P0 ( dwell for no time -- G64 should not smooth over this point )
G00 Z2.00000 ( retract )

G00 X81.56260 Y15.10181 ( rapid move to begin. )
F100.00000
G01 Z-0.21000
G04 P0 ( dwell for no time -- G64 should not smooth over this point )
F200.00000
G01 X81.56260 Y15.10181
X81.45457 Y15.10019
X81.45457 Y14.56437
X81.48622 Y14.48792
X81.54464 Y14.42950
X81.62117 Y14.39778
X81.85698 Y14.39778
X81.85861 Y14.50580
X81.64306 Y14.50771
X81.60702 Y14.52264
X81.57019 Y14.56752
X81.56260 Y14.60580
X81.56260 Y15.10181
G04 P0 ( dwell for no time -- G64 should not smooth over this point )
G00 Z2.00000 ( retract )

G00 X81.45457 Y16.24715 ( rapid move to begin. )
F100.00000
G01 Z-0.21000
G04 P0 ( dwell for no time -- G64 should not smooth over this point )
F200.00000
G01 X81.45457 Y16.24715
X81.45457 Y15.71134
X81.56260 Y15.70976
X81.56260 Y16.20580
X81.57019 Y16.24405
X81.60702 Y16.28893
X81.64306 Y16.30387
X81.85861 Y16.30580
X81.85861 Y16.41212
X81.62130 Y16.41380
X81.54469 Y16.38207
X81.48629 Y16.32368
X81.45457 Y16.24715
G04 P0 ( dwell for no time -- G64 should not smooth over this point )
G00 Z2.00000 ( retract )

G00 X82.70384 Y16.41380 ( rapid move to begin. )
F100.00000
G01 Z-0.21000
G04 P0 ( dwell for no time -- G64 should not smooth over this point )
F200.00000
G01 X82.70384 Y16.41380
X82.46823 Y16.41380
X82.46658 Y16.30580
X82.68210 Y16.30387
X82.71814 Y16.28893
X82.74573 Y16.26135
X82.76259 Y16.20580
X82.76259 Y15.70976
X82.86894 Y15.70976
X82.87059 Y16.24702
X82.83890 Y16.32358
X82.78042 Y16.38205
X82.70384 Y16.41380
G04 P0 ( dwell for no time -- G64 should not smooth over this point )
G00 Z2.00000 ( retract )

G00 X77.40200 Y11.96156 ( rapid move to begin. )
F100.00000
G01 Z-0.21000
G04 P0 ( dwell for no time -- G64 should not smooth over this point )
F200.00000
G01 X77.40200 Y11.96156
X77.12560 Y11.90657
X75.10442 Y11.90220
X74.92024 Y11.92039
X74.73370 Y11.97677
X74.56233 Y12.06956
X74.41316 Y12.19494
X74.29225 Y12.34779
X74.20460 Y12.52181
X74.15380 Y12.70997
X74.14188 Y12.90446
X74.16937 Y13.09740
X74.23510 Y13.28084
X74.33642 Y13.44728
X74.48456 Y13.60311
X74.62796 Y13.70293
X74.80625 Y13.78165
X74.99672 Y13.82290
X77.07675 Y13.82937
X77.26093 Y13.81119
X77.44747 Y13.75480
X77.63545 Y13.65046
X77.76801 Y13.53664
X77.88892 Y13.38378
X77.98069 Y13.20014
X78.00878 Y13.09079
X80.29958 Y13.09079
X80.36692 Y13.07934
X80.45864 Y13.02485
X81.65571 Y11.82778
X82.29259 Y11.82778
X82.33084 Y11.82016
X82.36328 Y11.79847
X82.38497 Y11.76603
X82.39259 Y11.72778
X82.39066 Y11.05826
X82.37573 Y11.02222
X82.34814 Y10.99463
X82.29259 Y10.97779
X81.23260 Y10.97779
X81.17702 Y10.99463
X81.14019 Y11.03951
X81.13260 Y11.07779
X81.13260 Y11.71457
X80.20636 Y12.64081
X78.01287 Y12.64081
X77.94607 Y12.45074
X77.83235 Y12.26829
X77.69661 Y12.12846
X77.55321 Y12.02864
X77.40200 Y11.96156
G04 P0 ( dwell for no time -- G64 should not smooth over this point )
G00 Z2.00000 ( retract )

G00 X76.92804 Y9.27780 ( rapid move to begin. )
F100.00000
G01 Z-0.21000
G04 P0 ( dwell for no time -- G64 should not smooth over this point )
F200.00000
G01 X76.92804 Y9.27780
X76.82847 Y9.29735
X76.73388 Y9.36571
X75.10442 Y9.36220
X74.90043 Y9.38445
X74.71511 Y9.44475
X74.54572 Y9.54112
X74.39921 Y9.66962
X74.28156 Y9.82494
X74.19756 Y10.00081
X74.15075 Y10.18996
X74.14290 Y10.38468
X74.17445 Y10.57698
X74.24399 Y10.75900
X74.34882 Y10.92328
X74.48456 Y11.06311
X74.64567 Y11.17274
X74.80625 Y11.24165
X74.97848 Y11.27914
X77.07675 Y11.28937
X77.26027 Y11.26476
X77.44747 Y11.21480
X77.63545 Y11.11046
X77.76801 Y10.99664
X77.88892 Y10.84378
X77.97657 Y10.66977
X78.03045 Y10.46161
X78.03830 Y10.26690
X78.01183 Y10.09418
X77.93718 Y9.89258
X77.83187 Y9.72778
X78.93258 Y9.72778
X78.94017 Y9.86603
X78.97700 Y9.91092
X79.03258 Y9.92778
X80.09257 Y9.92778
X80.14812 Y9.91092
X80.17571 Y9.88333
X80.19064 Y9.84729
X80.19171 Y9.16896
X80.18495 Y9.13952
X80.16326 Y9.10708
X80.10586 Y9.07909
X79.02343 Y9.07869
X78.96763 Y9.10233
X78.94017 Y9.13952
X78.93258 Y9.27780
X76.92804 Y9.27780
G04 P0 ( dwell for no time -- G64 should not smooth over this point )
G00 Z2.00000 ( retract )

G00 X76.39619 Y8.85740 ( rapid move to begin. )
F100.00000
G01 Z-0.21000
G04 P0 ( dwell for no time -- G64 should not smooth over this point )
F200.00000
G01 X76.39619 Y8.85740
X76.39456 Y8.74940
X77.94058 Y8.74940
X77.97883 Y8.74178
X78.02372 Y8.70495
X78.04058 Y8.64940
X78.04058 Y8.08976
X78.14861 Y8.09139
X78.14861 Y8.69062
X78.11688 Y8.76723
X78.05849 Y8.82563
X77.98183 Y8.85740
X76.39619 Y8.85740
G04 P0 ( dwell for no time -- G64 should not smooth over this point )
G00 Z2.00000 ( retract )

G00 X76.39456 Y6.82220 ( rapid move to begin. )
F100.00000
G01 Z-0.21000
G04 P0 ( dwell for no time -- G64 should not smooth over this point )
F200.00000
G01 X76.39456 Y6.82220
X76.39613 Y6.71417
X77.98196 Y6.71417
X78.05841 Y6.74582
X78.11683 Y6.80424
X78.14861 Y6.88090
X78.14861 Y7.48014
X78.04058 Y7.48181
X78.04058 Y6.92220
X78.02372 Y6.86662
X77.97883 Y6.82979
X77.94058 Y6.82220
X76.39456 Y6.82220

G04 P0 ( dwell for no time -- G64 should not smooth over this point )
G00 Z52.300 ( retract )

M5 ( Spindle off. )
M9 ( Coolant off. )
M2 ( Program end. )

