( pcb2gcode 1.3.2 )
( Software-independent Gcode )

G94 ( Millimeters per minute feed rate. )
G21 ( Units == Millimeters. )

G90 ( Absolute coordinates. )
S20000 ( RPM spindle speed. )
G64 P0.00600 ( set maximum deviation from commanded toolpath )
F100.00000 ( Feedrate. )

F100.00000 ( Feedrate. )
M3 ( Spindle on clockwise. )
( Piece #1, position [0;0] )

G04 P0 ( dwell for no time -- G64 should not smooth over this point )
G00 Z2.00000 ( retract )

G00 X0.80080 Y19.28080 ( rapid move to begin. )
G01 Z-1.10000 F50.00000 ( plunge. )
G04 P0 ( dwell for no time -- G64 should not smooth over this point )
F100.00000
G01 X0.80080 Y19.28080
X11.28080 Y19.28080
Z-0.50000
X13.18080 Y19.28080
Z-1.10000 F50.00000
F100.00000
G01 X23.66080 Y19.28080
X23.79735 Y19.26734
X23.92867 Y19.22751
X24.04967 Y19.16282
X24.15577 Y19.07577
X24.24282 Y18.96967
X24.30751 Y18.84867
X24.34734 Y18.71735
X24.36080 Y18.58080
X24.36080 Y0.80080
X24.34734 Y0.66425
X24.30751 Y0.53293
X24.24282 Y0.41193
X24.15577 Y0.30583
X24.04967 Y0.21878
X23.92867 Y0.15409
X23.79735 Y0.11426
X23.66080 Y0.10080
X13.18080 Y0.10080
Z-0.50000
X11.28080 Y0.10080
Z-1.10000 F50.00000
F100.00000
G01 X0.80080 Y0.10080
X0.66425 Y0.11426
X0.53293 Y0.15409
X0.41193 Y0.21878
X0.30583 Y0.30583
X0.21878 Y0.41193
X0.15409 Y0.53293
X0.11426 Y0.66425
X0.10080 Y0.80080
X0.10080 Y18.58080
X0.11426 Y18.71735
X0.15409 Y18.84867
X0.21878 Y18.96967
X0.30583 Y19.07577
X0.41193 Y19.16282
X0.53293 Y19.22751
X0.66425 Y19.26734
X0.80080 Y19.28080
( Piece #2, position [1;0] )

G04 P0 ( dwell for no time -- G64 should not smooth over this point )
G00 Z2.00000 ( retract )

G00 X25.26240 Y19.28080 ( rapid move to begin. )
G01 Z-1.10000 F50.00000 ( plunge. )
G04 P0 ( dwell for no time -- G64 should not smooth over this point )
F100.00000
G01 X25.26240 Y19.28080
X35.74240 Y19.28080
Z-0.50000
X37.64240 Y19.28080
Z-1.10000 F50.00000
F100.00000
G01 X48.12240 Y19.28080
X48.25895 Y19.26734
X48.39027 Y19.22751
X48.51127 Y19.16282
X48.61737 Y19.07577
X48.70441 Y18.96967
X48.76911 Y18.84867
X48.80894 Y18.71735
X48.82240 Y18.58080
X48.82240 Y0.80080
X48.80894 Y0.66425
X48.76911 Y0.53293
X48.70441 Y0.41193
X48.61737 Y0.30583
X48.51127 Y0.21878
X48.39027 Y0.15409
X48.25895 Y0.11426
X48.12240 Y0.10080
X37.64240 Y0.10080
Z-0.50000
X35.74240 Y0.10080
Z-1.10000 F50.00000
F100.00000
G01 X25.26240 Y0.10080
X25.12585 Y0.11426
X24.99453 Y0.15409
X24.87353 Y0.21878
X24.76743 Y0.30583
X24.68038 Y0.41193
X24.61569 Y0.53293
X24.57586 Y0.66425
X24.56240 Y0.80080
X24.56240 Y18.58080
X24.57586 Y18.71735
X24.61569 Y18.84867
X24.68038 Y18.96967
X24.76743 Y19.07577
X24.87353 Y19.16282
X24.99453 Y19.22751
X25.12585 Y19.26734
X25.26240 Y19.28080
( Piece #3, position [2;0] )

G04 P0 ( dwell for no time -- G64 should not smooth over this point )
G00 Z2.00000 ( retract )

G00 X49.72400 Y19.28080 ( rapid move to begin. )
G01 Z-1.10000 F50.00000 ( plunge. )
G04 P0 ( dwell for no time -- G64 should not smooth over this point )
F100.00000
G01 X49.72400 Y19.28080
X60.20400 Y19.28080
Z-0.50000
X62.10400 Y19.28080
Z-1.10000 F50.00000
F100.00000
G01 X72.58400 Y19.28080
X72.72055 Y19.26734
X72.85187 Y19.22751
X72.97287 Y19.16282
X73.07897 Y19.07577
X73.16601 Y18.96967
X73.23071 Y18.84867
X73.27054 Y18.71735
X73.28400 Y18.58080
X73.28400 Y0.80080
X73.27054 Y0.66425
X73.23071 Y0.53293
X73.16601 Y0.41193
X73.07897 Y0.30583
X72.97287 Y0.21878
X72.85187 Y0.15409
X72.72055 Y0.11426
X72.58400 Y0.10080
X62.10400 Y0.10080
Z-0.50000
X60.20400 Y0.10080
Z-1.10000 F50.00000
F100.00000
G01 X49.72400 Y0.10080
X49.58745 Y0.11426
X49.45613 Y0.15409
X49.33512 Y0.21878
X49.22903 Y0.30583
X49.14198 Y0.41193
X49.07729 Y0.53293
X49.03746 Y0.66425
X49.02400 Y0.80080
X49.02400 Y18.58080
X49.03746 Y18.71735
X49.07729 Y18.84867
X49.14198 Y18.96967
X49.22903 Y19.07577
X49.33512 Y19.16282
X49.45613 Y19.22751
X49.58745 Y19.26734
X49.72400 Y19.28080
( Piece #4, position [3;0] )

G04 P0 ( dwell for no time -- G64 should not smooth over this point )
G00 Z2.00000 ( retract )

G00 X74.18560 Y19.28080 ( rapid move to begin. )
G01 Z-1.10000 F50.00000 ( plunge. )
G04 P0 ( dwell for no time -- G64 should not smooth over this point )
F100.00000
G01 X74.18560 Y19.28080
X84.66560 Y19.28080
Z-0.50000
X86.56560 Y19.28080
Z-1.10000 F50.00000
F100.00000
G01 X97.04560 Y19.28080
X97.18215 Y19.26734
X97.31347 Y19.22751
X97.43447 Y19.16282
X97.54057 Y19.07577
X97.62761 Y18.96967
X97.69231 Y18.84867
X97.73213 Y18.71735
X97.74560 Y18.58080
X97.74560 Y0.80080
X97.73213 Y0.66425
X97.69231 Y0.53293
X97.62761 Y0.41193
X97.54057 Y0.30583
X97.43447 Y0.21878
X97.31347 Y0.15409
X97.18215 Y0.11426
X97.04560 Y0.10080
X86.56560 Y0.10080
Z-0.50000
X84.66560 Y0.10080
Z-1.10000 F50.00000
F100.00000
G01 X74.18560 Y0.10080
X74.04905 Y0.11426
X73.91773 Y0.15409
X73.79672 Y0.21878
X73.69063 Y0.30583
X73.60358 Y0.41193
X73.53889 Y0.53293
X73.49906 Y0.66425
X73.48560 Y0.80080
X73.48560 Y18.58080
X73.49906 Y18.71735
X73.53889 Y18.84867
X73.60358 Y18.96967
X73.69063 Y19.07577
X73.79672 Y19.16282
X73.91773 Y19.22751
X74.04905 Y19.26734
X74.18560 Y19.28080

G04 P0 ( dwell for no time -- G64 should not smooth over this point )
G00 Z52.300 ( retract )

M5 ( Spindle off. )
M9 ( Coolant off. )
M2 ( Program end. )

